P3
200 200
255
64 115 115 64 115 115 64 115 115 64 115 115 64 115 115 64 115 115 64 115 115 64 115 115 64 115 115 64 115 115 64 115 115 64 115 115 64 115 115 64 115 115 64 115 115 64 115 115 64 115 115 64 115 115 64 115 115 64 115 115 64 115 115 64 115 115 64 115 115 64 115 115 64 115 115 64 115 115 64 115 115 64 115 115 64 115 115 64 115 115 64 115 115 64 115 115 64 115 115 64 115 115 64 115 115 64 115 115 64 115 115 64 115 115 64 115 115 64 115 115 64 115 115 64 115 115 64 115 115 64 115 115 64 115 115 64 115 115 64 115 115 64 115 115 64 115 115 64 115 115 64 115 115 64 115 115 64 115 115 64 115 115 64 115 115 64 115 115 64 115 115 64 115 115 64 115 115 64 115 115 64 115 115 64 115 115 64 115 115 64 115 115 64 115 115 64 115 115 64 115 115 64 115 115 64 115 115 64 115 115 64 115 115 64 115 115 64 115 115 64 115 115 64 115 115 64 115 115 64 115 115 64 115 115 64 115 115 64 115 115 64 115 115 64 115 115 64 115 115 64 115 115 64 115 115 64 115 115 64 115 115 64 115 115 64 115 115 64 115 115 64 115 115 64 115 115 64 115 115 64 115 115 64 115 115 64 115 115 64 115 115 64 115 115 64 115 115 64 115 115 128 115 26 128 115 26 128 115 26 128 115 26 128 115 26 128 115 26 128 115 26 128 115 26 128 115 26 128 115 26 128 115 26 128 115 26 128 115 26 128 115 26 128 115 26 128 115 26 128 115 26 128 115 26 128 115 26 128 115 26 128 115 26 128 115 26 128 115 26 128 115 26 128 115 26 128 115 26 128 115 26 128 115 26 128 115 26 128 115 26 128 115 26 128 115 26 128 115 26 128 115 26 128 115 26 128 115 26 128 115 26 128 115 26 128 115 26 128 115 26 128 115 26 128 115 26 128 115 26 128 115 26 128 115 26 128 115 26 128 115 26 128 115 26 128 115 26 128 115 26 128 115 26 128 115 26 128 115 26 128 115 26 128 115 26 128 115 26 128 115 26 128 115 26 128 115 26 128 115 26 128 115 26 128 115 26 128 115 26 128 115 26 128 115 26 128 115 26 128 115 26 128 115 26 128 115 26 128 115 26 128 115 26 128 115 26 128 115 26 128 115 26 128 115 26 128 115 26 128 115 26 128 115 26 128 115 26 128 115 26 128 115 26 128 115 26 128 115 26 128 115 26 128 115 26 128 115 26 128 115 26 128 115 26 128 115 26 128 115 26 128 115 26 128 115 26 128 115 26 128 115 26 128 115 26 128 115 26 128 115 26 128 115 26 128 115 26 128 115 26 
64 115 115 64 115 115 64 115 115 64 115 115 64 115 115 64 115 115 64 115 115 64 115 115 64 115 115 64 115 115 64 115 115 64 115 115 64 115 115 64 115 115 64 115 115 64 115 115 64 115 115 64 115 115 64 115 115 64 115 115 64 115 115 64 115 115 64 115 115 64 115 115 64 115 115 64 115 115 64 115 115 64 115 115 64 115 115 64 115 115 64 115 115 64 115 115 64 115 115 64 115 115 64 115 115 64 115 115 64 115 115 64 115 115 64 115 115 64 115 115 64 115 115 64 115 115 64 115 115 64 115 115 64 115 115 64 115 115 64 115 115 64 115 115 64 115 115 64 115 115 64 115 115 64 115 115 64 115 115 64 115 115 64 115 115 64 115 115 64 115 115 64 115 115 64 115 115 64 115 115 64 115 115 64 115 115 64 115 115 64 115 115 64 115 115 64 115 115 64 115 115 64 115 115 64 115 115 64 115 115 64 115 115 64 115 115 64 115 115 64 115 115 64 115 115 64 115 115 64 115 115 64 115 115 64 115 115 64 115 115 64 115 115 64 115 115 64 115 115 64 115 115 64 115 115 64 115 115 64 115 115 64 115 115 64 115 115 64 115 115 64 115 115 64 115 115 64 115 115 64 115 115 64 115 115 64 115 115 64 115 115 64 115 115 64 115 115 64 115 115 128 115 26 128 115 26 128 115 26 128 115 26 128 115 26 128 115 26 128 115 26 128 115 26 128 115 26 128 115 26 128 115 26 128 115 26 128 115 26 128 115 26 128 115 26 128 115 26 128 115 26 128 115 26 128 115 26 128 115 26 128 115 26 128 115 26 128 115 26 128 115 26 128 115 26 128 115 26 128 115 26 128 115 26 128 115 26 128 115 26 128 115 26 128 115 26 128 115 26 128 115 26 128 115 26 128 115 26 128 115 26 128 115 26 128 115 26 128 115 26 128 115 26 128 115 26 128 115 26 128 115 26 128 115 26 128 115 26 128 115 26 128 115 26 128 115 26 128 115 26 128 115 26 128 115 26 128 115 26 128 115 26 128 115 26 128 115 26 128 115 26 128 115 26 128 115 26 128 115 26 128 115 26 128 115 26 128 115 26 128 115 26 128 115 26 128 115 26 128 115 26 128 115 26 128 115 26 128 115 26 128 115 26 128 115 26 128 115 26 128 115 26 128 115 26 128 115 26 128 115 26 128 115 26 128 115 26 128 115 26 128 115 26 128 115 26 128 115 26 128 115 26 128 115 26 128 115 26 128 115 26 128 115 26 128 115 26 128 115 26 128 115 26 128 115 26 128 115 26 128 115 26 128 115 26 128 115 26 128 115 26 128 115 26 128 115 26 128 115 26 
64 115 115 64 115 115 64 115 115 64 115 115 64 115 115 64 115 115 64 115 115 64 115 115 64 115 115 64 115 115 64 115 115 64 115 115 64 115 115 64 115 115 64 115 115 64 115 115 64 115 115 64 115 115 64 115 115 64 115 115 64 115 115 64 115 115 64 115 115 64 115 115 64 115 115 64 115 115 64 115 115 64 115 115 64 115 115 64 115 115 64 115 115 64 115 115 64 115 115 64 115 115 64 115 115 64 115 115 64 115 115 64 115 115 64 115 115 64 115 115 64 115 115 64 115 115 64 115 115 64 115 115 64 115 115 64 115 115 64 115 115 64 115 115 64 115 115 64 115 115 64 115 115 64 115 115 64 115 115 64 115 115 64 115 115 64 115 115 64 115 115 64 115 115 64 115 115 64 115 115 64 115 115 64 115 115 64 115 115 64 115 115 64 115 115 64 115 115 64 115 115 64 115 115 64 115 115 64 115 115 64 115 115 64 115 115 64 115 115 64 115 115 64 115 115 64 115 115 64 115 115 64 115 115 64 115 115 64 115 115 64 115 115 64 115 115 64 115 115 64 115 115 64 115 115 64 115 115 64 115 115 64 115 115 64 115 115 64 115 115 64 115 115 64 115 115 64 115 115 64 115 115 64 115 115 64 115 115 64 115 115 64 115 115 64 115 115 64 115 115 128 115 26 128 115 26 128 115 26 128 115 26 128 115 26 128 115 26 128 115 26 128 115 26 128 115 26 128 115 26 128 115 26 128 115 26 128 115 26 128 115 26 128 115 26 128 115 26 128 115 26 128 115 26 128 115 26 128 115 26 128 115 26 128 115 26 128 115 26 128 115 26 128 115 26 128 115 26 128 115 26 128 115 26 128 115 26 128 115 26 128 115 26 128 115 26 128 115 26 128 115 26 128 115 26 128 115 26 128 115 26 128 115 26 128 115 26 128 115 26 128 115 26 128 115 26 128 115 26 128 115 26 128 115 26 128 115 26 128 115 26 128 115 26 128 115 26 128 115 26 128 115 26 128 115 26 128 115 26 128 115 26 128 115 26 128 115 26 128 115 26 128 115 26 128 115 26 128 115 26 128 115 26 128 115 26 128 115 26 128 115 26 128 115 26 128 115 26 128 115 26 128 115 26 128 115 26 128 115 26 128 115 26 128 115 26 128 115 26 128 115 26 128 115 26 128 115 26 128 115 26 128 115 26 128 115 26 128 115 26 128 115 26 128 115 26 128 115 26 128 115 26 128 115 26 128 115 26 128 115 26 128 115 26 128 115 26 128 115 26 128 115 26 128 115 26 128 115 26 128 115 26 128 115 26 128 115 26 128 115 26 128 115 26 128 115 26 128 115 26 
64 115 115 64 115 115 64 115 115 64 115 115 64 115 115 64 115 115 64 115 115 64 115 115 64 115 115 64 115 115 64 115 115 64 115 115 64 115 115 64 115 115 64 115 115 64 115 115 64 115 115 64 115 115 64 115 115 64 115 115 64 115 115 64 115 115 64 115 115 64 115 115 64 115 115 64 115 115 64 115 115 64 115 115 64 115 115 64 115 115 64 115 115 64 115 115 64 115 115 64 115 115 64 115 115 64 115 115 64 115 115 64 115 115 64 115 115 64 115 115 64 115 115 64 115 115 64 115 115 64 115 115 64 115 115 64 115 115 64 115 115 64 115 115 64 115 115 64 115 115 64 115 115 64 115 115 64 115 115 64 115 115 64 115 115 64 115 115 64 115 115 64 115 115 64 115 115 64 115 115 64 115 115 64 115 115 64 115 115 64 115 115 64 115 115 64 115 115 64 115 115 64 115 115 64 115 115 64 115 115 64 115 115 64 115 115 64 115 115 64 115 115 64 115 115 64 115 115 64 115 115 64 115 115 64 115 115 64 115 115 64 115 115 64 115 115 64 115 115 64 115 115 64 115 115 64 115 115 64 115 115 64 115 115 64 115 115 64 115 115 64 115 115 64 115 115 64 115 115 64 115 115 64 115 115 64 115 115 64 115 115 64 115 115 64 115 115 64 115 115 128 115 26 128 115 26 128 115 26 128 115 26 128 115 26 128 115 26 128 115 26 128 115 26 128 115 26 128 115 26 128 115 26 128 115 26 128 115 26 128 115 26 128 115 26 128 115 26 128 115 26 128 115 26 128 115 26 128 115 26 128 115 26 128 115 26 128 115 26 128 115 26 128 115 26 128 115 26 128 115 26 128 115 26 128 115 26 128 115 26 128 115 26 128 115 26 128 115 26 128 115 26 128 115 26 128 115 26 128 115 26 128 115 26 128 115 26 128 115 26 128 115 26 128 115 26 128 115 26 128 115 26 128 115 26 128 115 26 128 115 26 128 115 26 128 115 26 128 115 26 128 115 26 128 115 26 128 115 26 128 115 26 128 115 26 128 115 26 128 115 26 128 115 26 128 115 26 128 115 26 128 115 26 128 115 26 128 115 26 128 115 26 128 115 26 128 115 26 128 115 26 128 115 26 128 115 26 128 115 26 128 115 26 128 115 26 128 115 26 128 115 26 128 115 26 128 115 26 128 115 26 128 115 26 128 115 26 128 115 26 128 115 26 128 115 26 128 115 26 128 115 26 128 115 26 128 115 26 128 115 26 128 115 26 128 115 26 128 115 26 128 115 26 128 115 26 128 115 26 128 115 26 128 115 26 128 115 26 128 115 26 128 115 26 128 115 26 128 115 26 
64 115 115 64 115 115 64 115 115 64 115 115 64 115 115 64 115 115 64 115 115 64 115 115 64 115 115 64 115 115 64 115 115 64 115 115 64 115 115 64 115 115 64 115 115 64 115 115 64 115 115 64 115 115 64 115 115 64 115 115 64 115 115 64 115 115 64 115 115 64 115 115 64 115 115 64 115 115 64 115 115 64 115 115 64 115 115 64 115 115 64 115 115 64 115 115 64 115 115 64 115 115 64 115 115 64 115 115 64 115 115 64 115 115 64 115 115 64 115 115 64 115 115 64 115 115 64 115 115 64 115 115 64 115 115 64 115 115 64 115 115 64 115 115 64 115 115 64 115 115 64 115 115 64 115 115 64 115 115 64 115 115 64 115 115 64 115 115 64 115 115 64 115 115 64 115 115 64 115 115 64 115 115 64 115 115 64 115 115 64 115 115 64 115 115 64 115 115 64 115 115 64 115 115 64 115 115 64 115 115 64 115 115 64 115 115 64 115 115 64 115 115 64 115 115 64 115 115 64 115 115 64 115 115 64 115 115 64 115 115 64 115 115 64 115 115 64 115 115 64 115 115 64 115 115 64 115 115 64 115 115 64 115 115 64 115 115 64 115 115 64 115 115 64 115 115 64 115 115 64 115 115 64 115 115 64 115 115 64 115 115 64 115 115 64 115 115 64 115 115 128 115 26 128 115 26 128 115 26 128 115 26 128 115 26 128 115 26 128 115 26 128 115 26 128 115 26 128 115 26 128 115 26 128 115 26 128 115 26 128 115 26 128 115 26 128 115 26 128 115 26 128 115 26 128 115 26 128 115 26 128 115 26 128 115 26 128 115 26 128 115 26 128 115 26 128 115 26 128 115 26 128 115 26 128 115 26 128 115 26 128 115 26 128 115 26 128 115 26 128 115 26 128 115 26 128 115 26 128 115 26 128 115 26 128 115 26 128 115 26 128 115 26 128 115 26 128 115 26 128 115 26 128 115 26 128 115 26 128 115 26 128 115 26 128 115 26 128 115 26 128 115 26 128 115 26 128 115 26 128 115 26 128 115 26 128 115 26 128 115 26 128 115 26 128 115 26 128 115 26 128 115 26 128 115 26 128 115 26 128 115 26 128 115 26 128 115 26 128 115 26 128 115 26 128 115 26 128 115 26 128 115 26 128 115 26 128 115 26 128 115 26 128 115 26 128 115 26 128 115 26 128 115 26 128 115 26 128 115 26 128 115 26 128 115 26 128 115 26 128 115 26 128 115 26 128 115 26 128 115 26 128 115 26 128 115 26 128 115 26 128 115 26 128 115 26 128 115 26 128 115 26 128 115 26 128 115 26 128 115 26 128 115 26 128 115 26 128 115 26 
64 115 115 64 115 115 64 115 115 64 115 115 64 115 115 64 115 115 64 115 115 64 115 115 64 115 115 64 115 115 64 115 115 64 115 115 64 115 115 64 115 115 64 115 115 64 115 115 64 115 115 64 115 115 64 115 115 64 115 115 64 115 115 64 115 115 64 115 115 64 115 115 64 115 115 64 115 115 64 115 115 64 115 115 64 115 115 64 115 115 64 115 115 64 115 115 64 115 115 64 115 115 64 115 115 64 115 115 64 115 115 64 115 115 64 115 115 64 115 115 64 115 115 64 115 115 64 115 115 64 115 115 64 115 115 64 115 115 64 115 115 64 115 115 64 115 115 64 115 115 64 115 115 64 115 115 64 115 115 64 115 115 64 115 115 64 115 115 64 115 115 64 115 115 64 115 115 64 115 115 64 115 115 64 115 115 64 115 115 64 115 115 64 115 115 64 115 115 64 115 115 64 115 115 64 115 115 64 115 115 64 115 115 64 115 115 64 115 115 64 115 115 64 115 115 64 115 115 64 115 115 64 115 115 64 115 115 64 115 115 64 115 115 64 115 115 64 115 115 64 115 115 64 115 115 64 115 115 64 115 115 64 115 115 64 115 115 64 115 115 64 115 115 64 115 115 64 115 115 64 115 115 64 115 115 64 115 115 64 115 115 64 115 115 64 115 115 64 115 115 128 115 26 128 115 26 128 115 26 128 115 26 128 115 26 128 115 26 128 115 26 128 115 26 128 115 26 128 115 26 128 115 26 128 115 26 128 115 26 128 115 26 128 115 26 128 115 26 128 115 26 128 115 26 128 115 26 128 115 26 128 115 26 128 115 26 128 115 26 128 115 26 128 115 26 128 115 26 128 115 26 128 115 26 128 115 26 128 115 26 128 115 26 128 115 26 128 115 26 128 115 26 128 115 26 128 115 26 128 115 26 128 115 26 128 115 26 128 115 26 128 115 26 128 115 26 128 115 26 128 115 26 128 115 26 128 115 26 128 115 26 128 115 26 128 115 26 128 115 26 128 115 26 128 115 26 128 115 26 128 115 26 128 115 26 128 115 26 128 115 26 128 115 26 128 115 26 128 115 26 128 115 26 128 115 26 128 115 26 128 115 26 128 115 26 128 115 26 128 115 26 128 115 26 128 115 26 128 115 26 128 115 26 128 115 26 128 115 26 128 115 26 128 115 26 128 115 26 128 115 26 128 115 26 128 115 26 128 115 26 128 115 26 128 115 26 128 115 26 128 115 26 128 115 26 128 115 26 128 115 26 128 115 26 128 115 26 128 115 26 128 115 26 128 115 26 128 115 26 128 115 26 128 115 26 128 115 26 128 115 26 128 115 26 128 115 26 128 115 26 
64 115 115 64 115 115 64 115 115 64 115 115 64 115 115 64 115 115 64 115 115 64 115 115 64 115 115 64 115 115 64 115 115 64 115 115 64 115 115 64 115 115 64 115 115 64 115 115 64 115 115 64 115 115 64 115 115 64 115 115 64 115 115 64 115 115 64 115 115 64 115 115 64 115 115 64 115 115 64 115 115 64 115 115 64 115 115 64 115 115 64 115 115 64 115 115 64 115 115 64 115 115 64 115 115 64 115 115 64 115 115 64 115 115 64 115 115 64 115 115 64 115 115 64 115 115 64 115 115 64 115 115 64 115 115 64 115 115 64 115 115 64 115 115 64 115 115 64 115 115 64 115 115 64 115 115 64 115 115 64 115 115 64 115 115 64 115 115 64 115 115 64 115 115 64 115 115 64 115 115 64 115 115 64 115 115 64 115 115 64 115 115 64 115 115 64 115 115 64 115 115 64 115 115 64 115 115 64 115 115 64 115 115 64 115 115 64 115 115 64 115 115 64 115 115 64 115 115 64 115 115 64 115 115 64 115 115 64 115 115 64 115 115 64 115 115 64 115 115 64 115 115 64 115 115 64 115 115 64 115 115 64 115 115 64 115 115 64 115 115 64 115 115 64 115 115 64 115 115 64 115 115 64 115 115 64 115 115 64 115 115 64 115 115 64 115 115 64 115 115 128 115 26 128 115 26 128 115 26 128 115 26 128 115 26 128 115 26 128 115 26 128 115 26 128 115 26 128 115 26 128 115 26 128 115 26 128 115 26 128 115 26 128 115 26 128 115 26 128 115 26 128 115 26 128 115 26 128 115 26 128 115 26 128 115 26 128 115 26 128 115 26 128 115 26 128 115 26 128 115 26 128 115 26 128 115 26 128 115 26 128 115 26 128 115 26 128 115 26 128 115 26 128 115 26 128 115 26 128 115 26 128 115 26 128 115 26 128 115 26 128 115 26 128 115 26 128 115 26 128 115 26 128 115 26 128 115 26 128 115 26 128 115 26 128 115 26 128 115 26 128 115 26 128 115 26 128 115 26 128 115 26 128 115 26 128 115 26 128 115 26 128 115 26 128 115 26 128 115 26 128 115 26 128 115 26 128 115 26 128 115 26 128 115 26 128 115 26 128 115 26 128 115 26 128 115 26 128 115 26 128 115 26 128 115 26 128 115 26 128 115 26 128 115 26 128 115 26 128 115 26 128 115 26 128 115 26 128 115 26 128 115 26 128 115 26 128 115 26 128 115 26 128 115 26 128 115 26 128 115 26 128 115 26 128 115 26 128 115 26 128 115 26 128 115 26 128 115 26 128 115 26 128 115 26 128 115 26 128 115 26 128 115 26 128 115 26 128 115 26 
64 115 115 64 115 115 64 115 115 64 115 115 64 115 115 64 115 115 64 115 115 64 115 115 64 115 115 64 115 115 64 115 115 64 115 115 64 115 115 64 115 115 64 115 115 64 115 115 64 115 115 64 115 115 64 115 115 64 115 115 64 115 115 64 115 115 64 115 115 64 115 115 64 115 115 64 115 115 64 115 115 64 115 115 64 115 115 64 115 115 64 115 115 64 115 115 64 115 115 64 115 115 64 115 115 64 115 115 64 115 115 64 115 115 64 115 115 64 115 115 64 115 115 64 115 115 64 115 115 64 115 115 64 115 115 64 115 115 64 115 115 64 115 115 64 115 115 64 115 115 64 115 115 64 115 115 64 115 115 64 115 115 64 115 115 64 115 115 64 115 115 64 115 115 64 115 115 64 115 115 64 115 115 64 115 115 64 115 115 64 115 115 64 115 115 64 115 115 64 115 115 64 115 115 64 115 115 64 115 115 64 115 115 64 115 115 64 115 115 64 115 115 64 115 115 64 115 115 64 115 115 64 115 115 64 115 115 64 115 115 64 115 115 64 115 115 64 115 115 64 115 115 64 115 115 64 115 115 64 115 115 64 115 115 64 115 115 64 115 115 64 115 115 64 115 115 64 115 115 64 115 115 64 115 115 64 115 115 64 115 115 64 115 115 64 115 115 64 115 115 128 115 26 128 115 26 128 115 26 128 115 26 128 115 26 128 115 26 128 115 26 128 115 26 128 115 26 128 115 26 128 115 26 128 115 26 128 115 26 128 115 26 128 115 26 128 115 26 128 115 26 128 115 26 128 115 26 128 115 26 128 115 26 128 115 26 128 115 26 128 115 26 128 115 26 128 115 26 128 115 26 128 115 26 128 115 26 128 115 26 128 115 26 128 115 26 128 115 26 128 115 26 128 115 26 128 115 26 128 115 26 128 115 26 128 115 26 128 115 26 128 115 26 128 115 26 128 115 26 128 115 26 128 115 26 128 115 26 128 115 26 128 115 26 128 115 26 128 115 26 128 115 26 128 115 26 128 115 26 128 115 26 128 115 26 128 115 26 128 115 26 128 115 26 128 115 26 128 115 26 128 115 26 128 115 26 128 115 26 128 115 26 128 115 26 128 115 26 128 115 26 128 115 26 128 115 26 128 115 26 128 115 26 128 115 26 128 115 26 128 115 26 128 115 26 128 115 26 128 115 26 128 115 26 128 115 26 128 115 26 128 115 26 128 115 26 128 115 26 128 115 26 128 115 26 128 115 26 128 115 26 128 115 26 128 115 26 128 115 26 128 115 26 128 115 26 128 115 26 128 115 26 128 115 26 128 115 26 128 115 26 128 115 26 128 115 26 128 115 26 
64 115 115 64 115 115 64 115 115 64 115 115 64 115 115 64 115 115 64 115 115 64 115 115 64 115 115 64 115 115 64 115 115 64 115 115 64 115 115 64 115 115 64 115 115 64 115 115 64 115 115 64 115 115 64 115 115 64 115 115 64 115 115 64 115 115 64 115 115 64 115 115 64 115 115 64 115 115 64 115 115 64 115 115 64 115 115 64 115 115 64 115 115 64 115 115 64 115 115 64 115 115 64 115 115 64 115 115 64 115 115 64 115 115 64 115 115 64 115 115 64 115 115 64 115 115 64 115 115 64 115 115 64 115 115 64 115 115 64 115 115 64 115 115 64 115 115 64 115 115 64 115 115 64 115 115 64 115 115 64 115 115 64 115 115 64 115 115 64 115 115 64 115 115 64 115 115 64 115 115 64 115 115 64 115 115 64 115 115 64 115 115 64 115 115 64 115 115 64 115 115 64 115 115 64 115 115 64 115 115 64 115 115 64 115 115 64 115 115 64 115 115 64 115 115 64 115 115 64 115 115 64 115 115 64 115 115 64 115 115 64 115 115 64 115 115 64 115 115 64 115 115 64 115 115 64 115 115 64 115 115 64 115 115 64 115 115 64 115 115 64 115 115 64 115 115 64 115 115 64 115 115 64 115 115 64 115 115 64 115 115 64 115 115 64 115 115 64 115 115 128 115 26 128 115 26 128 115 26 128 115 26 128 115 26 128 115 26 128 115 26 128 115 26 128 115 26 128 115 26 128 115 26 128 115 26 128 115 26 128 115 26 128 115 26 128 115 26 128 115 26 128 115 26 128 115 26 128 115 26 128 115 26 128 115 26 128 115 26 128 115 26 128 115 26 128 115 26 128 115 26 128 115 26 128 115 26 128 115 26 128 115 26 128 115 26 128 115 26 128 115 26 128 115 26 128 115 26 128 115 26 128 115 26 128 115 26 128 115 26 128 115 26 128 115 26 128 115 26 128 115 26 128 115 26 128 115 26 128 115 26 128 115 26 128 115 26 128 115 26 128 115 26 128 115 26 128 115 26 128 115 26 128 115 26 128 115 26 128 115 26 128 115 26 128 115 26 128 115 26 128 115 26 128 115 26 128 115 26 128 115 26 128 115 26 128 115 26 128 115 26 128 115 26 128 115 26 128 115 26 128 115 26 128 115 26 128 115 26 128 115 26 128 115 26 128 115 26 128 115 26 128 115 26 128 115 26 128 115 26 128 115 26 128 115 26 128 115 26 128 115 26 128 115 26 128 115 26 128 115 26 128 115 26 128 115 26 128 115 26 128 115 26 128 115 26 128 115 26 128 115 26 128 115 26 128 115 26 128 115 26 128 115 26 128 115 26 128 115 26 
64 115 115 64 115 115 64 115 115 64 115 115 64 115 115 64 115 115 64 115 115 64 115 115 64 115 115 64 115 115 64 115 115 64 115 115 64 115 115 64 115 115 64 115 115 64 115 115 64 115 115 64 115 115 64 115 115 64 115 115 64 115 115 64 115 115 64 115 115 64 115 115 64 115 115 64 115 115 64 115 115 64 115 115 64 115 115 64 115 115 64 115 115 64 115 115 64 115 115 64 115 115 64 115 115 64 115 115 64 115 115 64 115 115 64 115 115 64 115 115 64 115 115 64 115 115 64 115 115 64 115 115 64 115 115 64 115 115 64 115 115 64 115 115 64 115 115 64 115 115 64 115 115 64 115 115 64 115 115 64 115 115 64 115 115 64 115 115 64 115 115 64 115 115 64 115 115 64 115 115 64 115 115 64 115 115 64 115 115 64 115 115 64 115 115 64 115 115 64 115 115 64 115 115 64 115 115 64 115 115 64 115 115 64 115 115 64 115 115 64 115 115 64 115 115 64 115 115 64 115 115 64 115 115 64 115 115 64 115 115 64 115 115 64 115 115 64 115 115 64 115 115 64 115 115 64 115 115 64 115 115 64 115 115 64 115 115 64 115 115 64 115 115 64 115 115 64 115 115 64 115 115 64 115 115 64 115 115 64 115 115 64 115 115 64 115 115 64 115 115 128 115 26 128 115 26 128 115 26 128 115 26 128 115 26 128 115 26 128 115 26 128 115 26 128 115 26 128 115 26 128 115 26 128 115 26 128 115 26 128 115 26 128 115 26 128 115 26 128 115 26 128 115 26 128 115 26 128 115 26 128 115 26 128 115 26 128 115 26 128 115 26 128 115 26 128 115 26 128 115 26 128 115 26 128 115 26 128 115 26 128 115 26 128 115 26 128 115 26 128 115 26 128 115 26 128 115 26 128 115 26 128 115 26 128 115 26 128 115 26 128 115 26 128 115 26 128 115 26 128 115 26 128 115 26 128 115 26 128 115 26 128 115 26 128 115 26 128 115 26 128 115 26 128 115 26 128 115 26 128 115 26 128 115 26 128 115 26 128 115 26 128 115 26 128 115 26 128 115 26 128 115 26 128 115 26 128 115 26 128 115 26 128 115 26 128 115 26 128 115 26 128 115 26 128 115 26 128 115 26 128 115 26 128 115 26 128 115 26 128 115 26 128 115 26 128 115 26 128 115 26 128 115 26 128 115 26 128 115 26 128 115 26 128 115 26 128 115 26 128 115 26 128 115 26 128 115 26 128 115 26 128 115 26 128 115 26 128 115 26 128 115 26 128 115 26 128 115 26 128 115 26 128 115 26 128 115 26 128 115 26 128 115 26 128 115 26 128 115 26 
64 115 115 64 115 115 64 115 115 64 115 115 64 115 115 64 115 115 64 115 115 64 115 115 64 115 115 64 115 115 64 115 115 64 115 115 64 115 115 64 115 115 64 115 115 64 115 115 64 115 115 64 115 115 64 115 115 64 115 115 64 115 115 64 115 115 64 115 115 64 115 115 64 115 115 64 115 115 64 115 115 64 115 115 64 115 115 64 115 115 64 115 115 64 115 115 64 115 115 64 115 115 64 115 115 64 115 115 64 115 115 64 115 115 64 115 115 64 115 115 64 115 115 64 115 115 64 115 115 64 115 115 64 115 115 64 115 115 64 115 115 64 115 115 64 115 115 64 115 115 64 115 115 64 115 115 64 115 115 64 115 115 64 115 115 64 115 115 64 115 115 64 115 115 64 115 115 64 115 115 64 115 115 64 115 115 64 115 115 64 115 115 64 115 115 64 115 115 64 115 115 64 115 115 64 115 115 64 115 115 64 115 115 64 115 115 64 115 115 64 115 115 64 115 115 64 115 115 64 115 115 64 115 115 64 115 115 64 115 115 64 115 115 64 115 115 64 115 115 64 115 115 64 115 115 64 115 115 64 115 115 64 115 115 64 115 115 64 115 115 64 115 115 64 115 115 64 115 115 64 115 115 64 115 115 64 115 115 64 115 115 64 115 115 64 115 115 64 115 115 128 115 26 128 115 26 128 115 26 128 115 26 128 115 26 128 115 26 128 115 26 128 115 26 128 115 26 128 115 26 128 115 26 128 115 26 128 115 26 128 115 26 128 115 26 128 115 26 128 115 26 128 115 26 128 115 26 128 115 26 128 115 26 128 115 26 128 115 26 128 115 26 128 115 26 128 115 26 128 115 26 128 115 26 128 115 26 128 115 26 128 115 26 128 115 26 128 115 26 128 115 26 128 115 26 128 115 26 128 115 26 128 115 26 128 115 26 128 115 26 128 115 26 128 115 26 128 115 26 128 115 26 128 115 26 128 115 26 128 115 26 128 115 26 128 115 26 128 115 26 128 115 26 128 115 26 128 115 26 128 115 26 128 115 26 128 115 26 128 115 26 128 115 26 128 115 26 128 115 26 128 115 26 128 115 26 128 115 26 128 115 26 128 115 26 128 115 26 128 115 26 128 115 26 128 115 26 128 115 26 128 115 26 128 115 26 128 115 26 128 115 26 128 115 26 128 115 26 128 115 26 128 115 26 128 115 26 128 115 26 128 115 26 128 115 26 128 115 26 128 115 26 128 115 26 128 115 26 128 115 26 128 115 26 128 115 26 128 115 26 128 115 26 128 115 26 128 115 26 128 115 26 128 115 26 128 115 26 128 115 26 128 115 26 128 115 26 128 115 26 
64 115 115 64 115 115 64 115 115 64 115 115 64 115 115 64 115 115 64 115 115 64 115 115 64 115 115 64 115 115 64 115 115 64 115 115 64 115 115 64 115 115 64 115 115 64 115 115 64 115 115 64 115 115 64 115 115 64 115 115 64 115 115 64 115 115 64 115 115 64 115 115 64 115 115 64 115 115 64 115 115 64 115 115 64 115 115 64 115 115 64 115 115 64 115 115 64 115 115 64 115 115 64 115 115 64 115 115 64 115 115 64 115 115 64 115 115 64 115 115 64 115 115 64 115 115 64 115 115 64 115 115 64 115 115 64 115 115 64 115 115 64 115 115 64 115 115 64 115 115 64 115 115 64 115 115 64 115 115 64 115 115 64 115 115 64 115 115 64 115 115 64 115 115 64 115 115 64 115 115 64 115 115 64 115 115 64 115 115 64 115 115 64 115 115 64 115 115 64 115 115 64 115 115 64 115 115 64 115 115 64 115 115 64 115 115 64 115 115 64 115 115 64 115 115 64 115 115 64 115 115 64 115 115 64 115 115 64 115 115 64 115 115 64 115 115 64 115 115 64 115 115 64 115 115 64 115 115 64 115 115 64 115 115 64 115 115 64 115 115 64 115 115 64 115 115 64 115 115 64 115 115 64 115 115 64 115 115 64 115 115 64 115 115 64 115 115 64 115 115 128 115 26 128 115 26 128 115 26 128 115 26 128 115 26 128 115 26 128 115 26 128 115 26 128 115 26 128 115 26 128 115 26 128 115 26 128 115 26 128 115 26 128 115 26 128 115 26 128 115 26 128 115 26 128 115 26 128 115 26 128 115 26 128 115 26 128 115 26 128 115 26 128 115 26 128 115 26 128 115 26 128 115 26 128 115 26 128 115 26 128 115 26 128 115 26 128 115 26 128 115 26 128 115 26 128 115 26 128 115 26 128 115 26 128 115 26 128 115 26 128 115 26 128 115 26 128 115 26 128 115 26 128 115 26 128 115 26 128 115 26 128 115 26 128 115 26 128 115 26 128 115 26 128 115 26 128 115 26 128 115 26 128 115 26 128 115 26 128 115 26 128 115 26 128 115 26 128 115 26 128 115 26 128 115 26 128 115 26 128 115 26 128 115 26 128 115 26 128 115 26 128 115 26 128 115 26 128 115 26 128 115 26 128 115 26 128 115 26 128 115 26 128 115 26 128 115 26 128 115 26 128 115 26 128 115 26 128 115 26 128 115 26 128 115 26 128 115 26 128 115 26 128 115 26 128 115 26 128 115 26 128 115 26 128 115 26 128 115 26 128 115 26 128 115 26 128 115 26 128 115 26 128 115 26 128 115 26 128 115 26 128 115 26 128 115 26 128 115 26 
64 115 115 64 115 115 64 115 115 64 115 115 64 115 115 64 115 115 64 115 115 64 115 115 64 115 115 64 115 115 64 115 115 64 115 115 64 115 115 64 115 115 64 115 115 64 115 115 64 115 115 64 115 115 64 115 115 64 115 115 64 115 115 64 115 115 64 115 115 64 115 115 64 115 115 64 115 115 64 115 115 64 115 115 64 115 115 64 115 115 64 115 115 64 115 115 64 115 115 64 115 115 64 115 115 64 115 115 64 115 115 64 115 115 64 115 115 64 115 115 64 115 115 64 115 115 64 115 115 64 115 115 64 115 115 64 115 115 64 115 115 64 115 115 64 115 115 64 115 115 64 115 115 64 115 115 64 115 115 64 115 115 64 115 115 64 115 115 64 115 115 64 115 115 64 115 115 64 115 115 64 115 115 64 115 115 64 115 115 64 115 115 64 115 115 64 115 115 64 115 115 64 115 115 64 115 115 64 115 115 64 115 115 64 115 115 64 115 115 64 115 115 64 115 115 64 115 115 64 115 115 64 115 115 64 115 115 64 115 115 64 115 115 64 115 115 64 115 115 64 115 115 64 115 115 64 115 115 64 115 115 64 115 115 64 115 115 64 115 115 64 115 115 64 115 115 64 115 115 64 115 115 64 115 115 64 115 115 64 115 115 64 115 115 64 115 115 64 115 115 128 115 26 128 115 26 128 115 26 128 115 26 128 115 26 128 115 26 128 115 26 128 115 26 128 115 26 128 115 26 128 115 26 128 115 26 128 115 26 128 115 26 128 115 26 128 115 26 128 115 26 128 115 26 128 115 26 128 115 26 128 115 26 128 115 26 128 115 26 128 115 26 128 115 26 128 115 26 128 115 26 128 115 26 128 115 26 128 115 26 128 115 26 128 115 26 128 115 26 128 115 26 128 115 26 128 115 26 128 115 26 128 115 26 128 115 26 128 115 26 128 115 26 128 115 26 128 115 26 128 115 26 128 115 26 128 115 26 128 115 26 128 115 26 128 115 26 128 115 26 128 115 26 128 115 26 128 115 26 128 115 26 128 115 26 128 115 26 128 115 26 128 115 26 128 115 26 128 115 26 128 115 26 128 115 26 128 115 26 128 115 26 128 115 26 128 115 26 128 115 26 128 115 26 128 115 26 128 115 26 128 115 26 128 115 26 128 115 26 128 115 26 128 115 26 128 115 26 128 115 26 128 115 26 128 115 26 128 115 26 128 115 26 128 115 26 128 115 26 128 115 26 128 115 26 128 115 26 128 115 26 128 115 26 128 115 26 128 115 26 128 115 26 128 115 26 128 115 26 128 115 26 128 115 26 128 115 26 128 115 26 128 115 26 128 115 26 128 115 26 
64 115 115 64 115 115 64 115 115 64 115 115 64 115 115 64 115 115 64 115 115 64 115 115 64 115 115 64 115 115 64 115 115 64 115 115 64 115 115 64 115 115 64 115 115 64 115 115 64 115 115 64 115 115 64 115 115 64 115 115 64 115 115 64 115 115 64 115 115 64 115 115 64 115 115 64 115 115 64 115 115 64 115 115 64 115 115 64 115 115 64 115 115 64 115 115 64 115 115 64 115 115 64 115 115 64 115 115 64 115 115 64 115 115 64 115 115 64 115 115 64 115 115 64 115 115 64 115 115 64 115 115 64 115 115 64 115 115 64 115 115 64 115 115 64 115 115 64 115 115 64 115 115 64 115 115 64 115 115 64 115 115 64 115 115 64 115 115 64 115 115 64 115 115 64 115 115 64 115 115 64 115 115 64 115 115 64 115 115 64 115 115 64 115 115 64 115 115 64 115 115 64 115 115 64 115 115 64 115 115 64 115 115 64 115 115 64 115 115 64 115 115 64 115 115 64 115 115 64 115 115 64 115 115 64 115 115 64 115 115 64 115 115 64 115 115 64 115 115 64 115 115 64 115 115 64 115 115 64 115 115 64 115 115 64 115 115 64 115 115 64 115 115 64 115 115 64 115 115 64 115 115 64 115 115 64 115 115 64 115 115 64 115 115 64 115 115 64 115 115 128 115 26 128 115 26 128 115 26 128 115 26 128 115 26 128 115 26 128 115 26 128 115 26 128 115 26 128 115 26 128 115 26 128 115 26 128 115 26 128 115 26 128 115 26 128 115 26 128 115 26 128 115 26 128 115 26 128 115 26 128 115 26 128 115 26 128 115 26 128 115 26 128 115 26 128 115 26 128 115 26 128 115 26 128 115 26 128 115 26 128 115 26 128 115 26 128 115 26 128 115 26 128 115 26 128 115 26 128 115 26 128 115 26 128 115 26 128 115 26 128 115 26 128 115 26 128 115 26 128 115 26 128 115 26 128 115 26 128 115 26 128 115 26 128 115 26 128 115 26 128 115 26 128 115 26 128 115 26 128 115 26 128 115 26 128 115 26 128 115 26 128 115 26 128 115 26 128 115 26 128 115 26 128 115 26 128 115 26 128 115 26 128 115 26 128 115 26 128 115 26 128 115 26 128 115 26 128 115 26 128 115 26 128 115 26 128 115 26 128 115 26 128 115 26 128 115 26 128 115 26 128 115 26 128 115 26 128 115 26 128 115 26 128 115 26 128 115 26 128 115 26 128 115 26 128 115 26 128 115 26 128 115 26 128 115 26 128 115 26 128 115 26 128 115 26 128 115 26 128 115 26 128 115 26 128 115 26 128 115 26 128 115 26 128 115 26 128 115 26 
64 115 115 64 115 115 64 115 115 64 115 115 64 115 115 64 115 115 64 115 115 64 115 115 64 115 115 64 115 115 64 115 115 64 115 115 64 115 115 64 115 115 64 115 115 64 115 115 64 115 115 64 115 115 64 115 115 64 115 115 64 115 115 64 115 115 64 115 115 64 115 115 64 115 115 64 115 115 64 115 115 64 115 115 64 115 115 64 115 115 64 115 115 64 115 115 64 115 115 64 115 115 64 115 115 64 115 115 64 115 115 64 115 115 64 115 115 64 115 115 64 115 115 64 115 115 64 115 115 64 115 115 64 115 115 64 115 115 64 115 115 64 115 115 64 115 115 64 115 115 64 115 115 64 115 115 64 115 115 64 115 115 64 115 115 64 115 115 64 115 115 64 115 115 64 115 115 64 115 115 64 115 115 64 115 115 64 115 115 64 115 115 64 115 115 64 115 115 64 115 115 64 115 115 64 115 115 64 115 115 64 115 115 64 115 115 64 115 115 64 115 115 64 115 115 64 115 115 64 115 115 64 115 115 64 115 115 64 115 115 64 115 115 64 115 115 64 115 115 64 115 115 64 115 115 64 115 115 64 115 115 64 115 115 64 115 115 64 115 115 64 115 115 64 115 115 64 115 115 64 115 115 64 115 115 64 115 115 64 115 115 64 115 115 64 115 115 64 115 115 128 115 26 128 115 26 128 115 26 128 115 26 128 115 26 128 115 26 128 115 26 128 115 26 128 115 26 128 115 26 128 115 26 128 115 26 128 115 26 128 115 26 128 115 26 128 115 26 128 115 26 128 115 26 128 115 26 128 115 26 128 115 26 128 115 26 128 115 26 128 115 26 128 115 26 128 115 26 128 115 26 128 115 26 128 115 26 128 115 26 128 115 26 128 115 26 128 115 26 128 115 26 128 115 26 128 115 26 128 115 26 128 115 26 128 115 26 128 115 26 128 115 26 128 115 26 128 115 26 128 115 26 128 115 26 128 115 26 128 115 26 128 115 26 128 115 26 128 115 26 128 115 26 128 115 26 128 115 26 128 115 26 128 115 26 128 115 26 128 115 26 128 115 26 128 115 26 128 115 26 128 115 26 128 115 26 128 115 26 128 115 26 128 115 26 128 115 26 128 115 26 128 115 26 128 115 26 128 115 26 128 115 26 128 115 26 128 115 26 128 115 26 128 115 26 128 115 26 128 115 26 128 115 26 128 115 26 128 115 26 128 115 26 128 115 26 128 115 26 128 115 26 128 115 26 128 115 26 128 115 26 128 115 26 128 115 26 128 115 26 128 115 26 128 115 26 128 115 26 128 115 26 128 115 26 128 115 26 128 115 26 128 115 26 128 115 26 128 115 26 
64 115 115 64 115 115 64 115 115 64 115 115 64 115 115 64 115 115 64 115 115 64 115 115 64 115 115 64 115 115 64 115 115 64 115 115 64 115 115 64 115 115 64 115 115 64 115 115 64 115 115 64 115 115 64 115 115 64 115 115 64 115 115 64 115 115 64 115 115 64 115 115 64 115 115 64 115 115 64 115 115 64 115 115 64 115 115 64 115 115 64 115 115 64 115 115 64 115 115 64 115 115 64 115 115 64 115 115 64 115 115 64 115 115 64 115 115 64 115 115 64 115 115 64 115 115 64 115 115 64 115 115 64 115 115 64 115 115 64 115 115 64 115 115 64 115 115 64 115 115 64 115 115 64 115 115 64 115 115 64 115 115 64 115 115 64 115 115 64 115 115 64 115 115 64 115 115 64 115 115 64 115 115 64 115 115 64 115 115 64 115 115 64 115 115 64 115 115 64 115 115 64 115 115 64 115 115 64 115 115 64 115 115 64 115 115 64 115 115 64 115 115 64 115 115 64 115 115 64 115 115 64 115 115 64 115 115 64 115 115 64 115 115 64 115 115 64 115 115 64 115 115 64 115 115 64 115 115 64 115 115 64 115 115 64 115 115 64 115 115 64 115 115 64 115 115 64 115 115 64 115 115 64 115 115 64 115 115 64 115 115 64 115 115 64 115 115 64 115 115 128 115 26 128 115 26 128 115 26 128 115 26 128 115 26 128 115 26 128 115 26 128 115 26 128 115 26 128 115 26 128 115 26 128 115 26 128 115 26 128 115 26 128 115 26 128 115 26 128 115 26 128 115 26 128 115 26 128 115 26 128 115 26 128 115 26 128 115 26 128 115 26 128 115 26 128 115 26 128 115 26 128 115 26 128 115 26 128 115 26 128 115 26 128 115 26 128 115 26 128 115 26 128 115 26 128 115 26 128 115 26 128 115 26 128 115 26 128 115 26 128 115 26 128 115 26 128 115 26 128 115 26 128 115 26 128 115 26 128 115 26 128 115 26 128 115 26 128 115 26 128 115 26 128 115 26 128 115 26 128 115 26 128 115 26 128 115 26 128 115 26 128 115 26 128 115 26 128 115 26 128 115 26 128 115 26 128 115 26 128 115 26 128 115 26 128 115 26 128 115 26 128 115 26 128 115 26 128 115 26 128 115 26 128 115 26 128 115 26 128 115 26 128 115 26 128 115 26 128 115 26 128 115 26 128 115 26 128 115 26 128 115 26 128 115 26 128 115 26 128 115 26 128 115 26 128 115 26 128 115 26 128 115 26 128 115 26 128 115 26 128 115 26 128 115 26 128 115 26 128 115 26 128 115 26 128 115 26 128 115 26 128 115 26 128 115 26 128 115 26 
64 115 115 64 115 115 64 115 115 64 115 115 64 115 115 64 115 115 64 115 115 64 115 115 64 115 115 64 115 115 64 115 115 64 115 115 64 115 115 64 115 115 64 115 115 64 115 115 64 115 115 64 115 115 64 115 115 64 115 115 64 115 115 64 115 115 64 115 115 64 115 115 64 115 115 64 115 115 64 115 115 64 115 115 64 115 115 64 115 115 64 115 115 64 115 115 64 115 115 64 115 115 64 115 115 64 115 115 64 115 115 64 115 115 64 115 115 64 115 115 64 115 115 64 115 115 64 115 115 64 115 115 64 115 115 64 115 115 64 115 115 64 115 115 64 115 115 64 115 115 64 115 115 64 115 115 64 115 115 64 115 115 64 115 115 64 115 115 64 115 115 64 115 115 64 115 115 64 115 115 64 115 115 64 115 115 64 115 115 64 115 115 64 115 115 64 115 115 64 115 115 64 115 115 64 115 115 64 115 115 64 115 115 64 115 115 64 115 115 64 115 115 64 115 115 64 115 115 64 115 115 64 115 115 64 115 115 64 115 115 64 115 115 64 115 115 64 115 115 64 115 115 64 115 115 64 115 115 64 115 115 64 115 115 64 115 115 64 115 115 64 115 115 64 115 115 64 115 115 64 115 115 64 115 115 64 115 115 64 115 115 64 115 115 64 115 115 64 115 115 128 115 26 128 115 26 128 115 26 128 115 26 128 115 26 128 115 26 128 115 26 128 115 26 128 115 26 128 115 26 128 115 26 128 115 26 128 115 26 128 115 26 128 115 26 128 115 26 128 115 26 128 115 26 128 115 26 128 115 26 128 115 26 128 115 26 128 115 26 128 115 26 128 115 26 128 115 26 128 115 26 128 115 26 128 115 26 128 115 26 128 115 26 128 115 26 128 115 26 128 115 26 128 115 26 128 115 26 128 115 26 128 115 26 128 115 26 128 115 26 128 115 26 128 115 26 128 115 26 128 115 26 128 115 26 128 115 26 128 115 26 128 115 26 128 115 26 128 115 26 128 115 26 128 115 26 128 115 26 128 115 26 128 115 26 128 115 26 128 115 26 128 115 26 128 115 26 128 115 26 128 115 26 128 115 26 128 115 26 128 115 26 128 115 26 128 115 26 128 115 26 128 115 26 128 115 26 128 115 26 128 115 26 128 115 26 128 115 26 128 115 26 128 115 26 128 115 26 128 115 26 128 115 26 128 115 26 128 115 26 128 115 26 128 115 26 128 115 26 128 115 26 128 115 26 128 115 26 128 115 26 128 115 26 128 115 26 128 115 26 128 115 26 128 115 26 128 115 26 128 115 26 128 115 26 128 115 26 128 115 26 128 115 26 128 115 26 128 115 26 
64 115 115 64 115 115 64 115 115 64 115 115 64 115 115 64 115 115 64 115 115 64 115 115 64 115 115 64 115 115 64 115 115 64 115 115 64 115 115 64 115 115 64 115 115 64 115 115 64 115 115 64 115 115 64 115 115 64 115 115 64 115 115 64 115 115 64 115 115 64 115 115 64 115 115 64 115 115 64 115 115 64 115 115 64 115 115 64 115 115 64 115 115 64 115 115 64 115 115 64 115 115 64 115 115 64 115 115 64 115 115 64 115 115 64 115 115 64 115 115 64 115 115 64 115 115 64 115 115 64 115 115 64 115 115 64 115 115 64 115 115 64 115 115 64 115 115 64 115 115 64 115 115 64 115 115 64 115 115 64 115 115 64 115 115 64 115 115 64 115 115 64 115 115 64 115 115 64 115 115 64 115 115 64 115 115 64 115 115 64 115 115 64 115 115 64 115 115 64 115 115 64 115 115 64 115 115 64 115 115 64 115 115 64 115 115 64 115 115 64 115 115 64 115 115 64 115 115 64 115 115 64 115 115 64 115 115 64 115 115 64 115 115 64 115 115 64 115 115 64 115 115 64 115 115 64 115 115 64 115 115 64 115 115 64 115 115 64 115 115 64 115 115 64 115 115 64 115 115 64 115 115 64 115 115 64 115 115 64 115 115 64 115 115 64 115 115 64 115 115 128 115 26 128 115 26 128 115 26 128 115 26 128 115 26 128 115 26 128 115 26 128 115 26 128 115 26 128 115 26 128 115 26 128 115 26 128 115 26 128 115 26 128 115 26 128 115 26 128 115 26 128 115 26 128 115 26 128 115 26 128 115 26 128 115 26 128 115 26 128 115 26 128 115 26 128 115 26 128 115 26 128 115 26 128 115 26 128 115 26 128 115 26 128 115 26 128 115 26 128 115 26 128 115 26 128 115 26 128 115 26 128 115 26 128 115 26 128 115 26 128 115 26 128 115 26 128 115 26 128 115 26 128 115 26 128 115 26 128 115 26 128 115 26 128 115 26 128 115 26 128 115 26 128 115 26 128 115 26 128 115 26 128 115 26 128 115 26 128 115 26 128 115 26 128 115 26 128 115 26 128 115 26 128 115 26 128 115 26 128 115 26 128 115 26 128 115 26 128 115 26 128 115 26 128 115 26 128 115 26 128 115 26 128 115 26 128 115 26 128 115 26 128 115 26 128 115 26 128 115 26 128 115 26 128 115 26 128 115 26 128 115 26 128 115 26 128 115 26 128 115 26 128 115 26 128 115 26 128 115 26 128 115 26 128 115 26 128 115 26 128 115 26 128 115 26 128 115 26 128 115 26 128 115 26 128 115 26 128 115 26 128 115 26 128 115 26 128 115 26 
64 115 115 64 115 115 64 115 115 64 115 115 64 115 115 64 115 115 64 115 115 64 115 115 64 115 115 64 115 115 64 115 115 64 115 115 64 115 115 64 115 115 64 115 115 64 115 115 64 115 115 64 115 115 64 115 115 64 115 115 64 115 115 64 115 115 64 115 115 64 115 115 64 115 115 64 115 115 64 115 115 64 115 115 64 115 115 64 115 115 64 115 115 64 115 115 64 115 115 64 115 115 64 115 115 64 115 115 64 115 115 64 115 115 64 115 115 64 115 115 64 115 115 64 115 115 64 115 115 64 115 115 64 115 115 64 115 115 64 115 115 64 115 115 64 115 115 64 115 115 64 115 115 64 115 115 64 115 115 64 115 115 64 115 115 64 115 115 64 115 115 64 115 115 64 115 115 64 115 115 64 115 115 64 115 115 64 115 115 64 115 115 64 115 115 64 115 115 64 115 115 64 115 115 64 115 115 64 115 115 64 115 115 64 115 115 64 115 115 64 115 115 64 115 115 64 115 115 64 115 115 64 115 115 64 115 115 64 115 115 64 115 115 64 115 115 64 115 115 64 115 115 64 115 115 64 115 115 64 115 115 64 115 115 64 115 115 64 115 115 64 115 115 64 115 115 64 115 115 64 115 115 64 115 115 64 115 115 64 115 115 64 115 115 64 115 115 64 115 115 128 115 26 128 115 26 128 115 26 128 115 26 128 115 26 128 115 26 128 115 26 128 115 26 128 115 26 128 115 26 128 115 26 128 115 26 128 115 26 128 115 26 128 115 26 128 115 26 128 115 26 128 115 26 128 115 26 128 115 26 128 115 26 128 115 26 128 115 26 128 115 26 128 115 26 128 115 26 128 115 26 128 115 26 128 115 26 128 115 26 128 115 26 128 115 26 128 115 26 128 115 26 128 115 26 128 115 26 128 115 26 128 115 26 128 115 26 128 115 26 128 115 26 128 115 26 128 115 26 128 115 26 128 115 26 128 115 26 128 115 26 128 115 26 128 115 26 128 115 26 128 115 26 128 115 26 128 115 26 128 115 26 128 115 26 128 115 26 128 115 26 128 115 26 128 115 26 128 115 26 128 115 26 128 115 26 128 115 26 128 115 26 128 115 26 128 115 26 128 115 26 128 115 26 128 115 26 128 115 26 128 115 26 128 115 26 128 115 26 128 115 26 128 115 26 128 115 26 128 115 26 128 115 26 128 115 26 128 115 26 128 115 26 128 115 26 128 115 26 128 115 26 128 115 26 128 115 26 128 115 26 128 115 26 128 115 26 128 115 26 128 115 26 128 115 26 128 115 26 128 115 26 128 115 26 128 115 26 128 115 26 128 115 26 128 115 26 128 115 26 
64 115 115 64 115 115 64 115 115 64 115 115 64 115 115 64 115 115 64 115 115 64 115 115 64 115 115 64 115 115 64 115 115 64 115 115 64 115 115 64 115 115 64 115 115 64 115 115 64 115 115 64 115 115 64 115 115 64 115 115 64 115 115 64 115 115 64 115 115 64 115 115 64 115 115 64 115 115 64 115 115 64 115 115 64 115 115 64 115 115 64 115 115 64 115 115 64 115 115 64 115 115 64 115 115 64 115 115 64 115 115 64 115 115 64 115 115 64 115 115 64 115 115 64 115 115 64 115 115 64 115 115 64 115 115 64 115 115 64 115 115 64 115 115 64 115 115 64 115 115 64 115 115 64 115 115 64 115 115 64 115 115 64 115 115 64 115 115 64 115 115 64 115 115 64 115 115 64 115 115 64 115 115 64 115 115 64 115 115 64 115 115 64 115 115 64 115 115 64 115 115 64 115 115 64 115 115 64 115 115 64 115 115 64 115 115 64 115 115 64 115 115 64 115 115 64 115 115 64 115 115 64 115 115 64 115 115 64 115 115 64 115 115 64 115 115 64 115 115 64 115 115 64 115 115 64 115 115 64 115 115 64 115 115 64 115 115 64 115 115 64 115 115 64 115 115 64 115 115 64 115 115 64 115 115 64 115 115 64 115 115 64 115 115 64 115 115 64 115 115 128 115 26 128 115 26 128 115 26 128 115 26 128 115 26 128 115 26 128 115 26 128 115 26 128 115 26 128 115 26 128 115 26 128 115 26 128 115 26 128 115 26 128 115 26 128 115 26 128 115 26 128 115 26 128 115 26 128 115 26 128 115 26 128 115 26 128 115 26 128 115 26 128 115 26 128 115 26 128 115 26 128 115 26 128 115 26 128 115 26 128 115 26 128 115 26 128 115 26 128 115 26 128 115 26 128 115 26 128 115 26 128 115 26 128 115 26 128 115 26 128 115 26 128 115 26 128 115 26 128 115 26 128 115 26 128 115 26 128 115 26 128 115 26 128 115 26 128 115 26 128 115 26 128 115 26 128 115 26 128 115 26 128 115 26 128 115 26 128 115 26 128 115 26 128 115 26 128 115 26 128 115 26 128 115 26 128 115 26 128 115 26 128 115 26 128 115 26 128 115 26 128 115 26 128 115 26 128 115 26 128 115 26 128 115 26 128 115 26 128 115 26 128 115 26 128 115 26 128 115 26 128 115 26 128 115 26 128 115 26 128 115 26 128 115 26 128 115 26 128 115 26 128 115 26 128 115 26 128 115 26 128 115 26 128 115 26 128 115 26 128 115 26 128 115 26 128 115 26 128 115 26 128 115 26 128 115 26 128 115 26 128 115 26 128 115 26 128 115 26 
64 115 115 64 115 115 64 115 115 64 115 115 64 115 115 64 115 115 64 115 115 64 115 115 64 115 115 64 115 115 64 115 115 64 115 115 64 115 115 64 115 115 64 115 115 64 115 115 64 115 115 64 115 115 64 115 115 64 115 115 64 115 115 64 115 115 64 115 115 64 115 115 64 115 115 64 115 115 64 115 115 64 115 115 64 115 115 64 115 115 64 115 115 64 115 115 64 115 115 64 115 115 64 115 115 64 115 115 64 115 115 64 115 115 64 115 115 64 115 115 64 115 115 64 115 115 64 115 115 64 115 115 64 115 115 64 115 115 64 115 115 64 115 115 64 115 115 64 115 115 64 115 115 64 115 115 64 115 115 64 115 115 64 115 115 64 115 115 64 115 115 64 115 115 64 115 115 64 115 115 64 115 115 64 115 115 64 115 115 64 115 115 64 115 115 64 115 115 64 115 115 64 115 115 64 115 115 64 115 115 64 115 115 64 115 115 64 115 115 64 115 115 64 115 115 64 115 115 64 115 115 64 115 115 64 115 115 64 115 115 64 115 115 64 115 115 64 115 115 64 115 115 64 115 115 64 115 115 64 115 115 64 115 115 64 115 115 64 115 115 64 115 115 64 115 115 64 115 115 64 115 115 64 115 115 64 115 115 64 115 115 64 115 115 64 115 115 64 115 115 128 115 26 128 115 26 128 115 26 128 115 26 128 115 26 128 115 26 128 115 26 128 115 26 128 115 26 128 115 26 128 115 26 128 115 26 128 115 26 128 115 26 128 115 26 128 115 26 128 115 26 128 115 26 128 115 26 128 115 26 128 115 26 128 115 26 128 115 26 128 115 26 128 115 26 128 115 26 128 115 26 128 115 26 128 115 26 128 115 26 128 115 26 128 115 26 128 115 26 128 115 26 128 115 26 128 115 26 128 115 26 128 115 26 128 115 26 128 115 26 128 115 26 128 115 26 128 115 26 128 115 26 128 115 26 128 115 26 128 115 26 128 115 26 128 115 26 128 115 26 128 115 26 128 115 26 128 115 26 128 115 26 128 115 26 128 115 26 128 115 26 128 115 26 128 115 26 128 115 26 128 115 26 128 115 26 128 115 26 128 115 26 128 115 26 128 115 26 128 115 26 128 115 26 128 115 26 128 115 26 128 115 26 128 115 26 128 115 26 128 115 26 128 115 26 128 115 26 128 115 26 128 115 26 128 115 26 128 115 26 128 115 26 128 115 26 128 115 26 128 115 26 128 115 26 128 115 26 128 115 26 128 115 26 128 115 26 128 115 26 128 115 26 128 115 26 128 115 26 128 115 26 128 115 26 128 115 26 128 115 26 128 115 26 128 115 26 128 115 26 
64 115 115 64 115 115 64 115 115 64 115 115 64 115 115 64 115 115 64 115 115 64 115 115 64 115 115 64 115 115 64 115 115 64 115 115 64 115 115 64 115 115 64 115 115 64 115 115 64 115 115 64 115 115 64 115 115 64 115 115 64 115 115 64 115 115 64 115 115 64 115 115 64 115 115 64 115 115 64 115 115 64 115 115 64 115 115 64 115 115 64 115 115 64 115 115 64 115 115 64 115 115 64 115 115 64 115 115 64 115 115 64 115 115 64 115 115 64 115 115 64 115 115 64 115 115 64 115 115 64 115 115 64 115 115 64 115 115 64 115 115 64 115 115 64 115 115 64 115 115 64 115 115 64 115 115 64 115 115 64 115 115 64 115 115 64 115 115 64 115 115 64 115 115 64 115 115 64 115 115 64 115 115 64 115 115 64 115 115 64 115 115 64 115 115 64 115 115 64 115 115 64 115 115 64 115 115 64 115 115 64 115 115 64 115 115 64 115 115 64 115 115 64 115 115 64 115 115 64 115 115 64 115 115 64 115 115 64 115 115 64 115 115 64 115 115 64 115 115 64 115 115 64 115 115 64 115 115 64 115 115 64 115 115 64 115 115 64 115 115 64 115 115 64 115 115 64 115 115 64 115 115 64 115 115 64 115 115 64 115 115 64 115 115 64 115 115 64 115 115 128 115 26 128 115 26 128 115 26 128 115 26 128 115 26 128 115 26 128 115 26 128 115 26 128 115 26 128 115 26 128 115 26 128 115 26 128 115 26 128 115 26 128 115 26 128 115 26 128 115 26 128 115 26 128 115 26 128 115 26 128 115 26 128 115 26 128 115 26 128 115 26 128 115 26 128 115 26 128 115 26 128 115 26 128 115 26 128 115 26 128 115 26 128 115 26 128 115 26 128 115 26 128 115 26 128 115 26 128 115 26 128 115 26 128 115 26 128 115 26 128 115 26 128 115 26 128 115 26 128 115 26 128 115 26 128 115 26 128 115 26 128 115 26 128 115 26 128 115 26 128 115 26 128 115 26 128 115 26 128 115 26 128 115 26 128 115 26 128 115 26 128 115 26 128 115 26 128 115 26 128 115 26 128 115 26 128 115 26 128 115 26 128 115 26 128 115 26 128 115 26 128 115 26 128 115 26 128 115 26 128 115 26 128 115 26 128 115 26 128 115 26 128 115 26 128 115 26 128 115 26 128 115 26 128 115 26 128 115 26 128 115 26 128 115 26 128 115 26 128 115 26 128 115 26 128 115 26 128 115 26 128 115 26 128 115 26 128 115 26 128 115 26 128 115 26 128 115 26 128 115 26 128 115 26 128 115 26 128 115 26 128 115 26 128 115 26 128 115 26 
64 115 115 64 115 115 64 115 115 64 115 115 64 115 115 64 115 115 64 115 115 64 115 115 64 115 115 64 115 115 64 115 115 64 115 115 64 115 115 64 115 115 64 115 115 64 115 115 64 115 115 64 115 115 64 115 115 64 115 115 64 115 115 64 115 115 64 115 115 64 115 115 64 115 115 64 115 115 64 115 115 64 115 115 64 115 115 64 115 115 64 115 115 64 115 115 64 115 115 64 115 115 64 115 115 64 115 115 64 115 115 64 115 115 64 115 115 64 115 115 64 115 115 64 115 115 64 115 115 64 115 115 64 115 115 64 115 115 64 115 115 64 115 115 64 115 115 64 115 115 64 115 115 64 115 115 64 115 115 64 115 115 64 115 115 64 115 115 64 115 115 64 115 115 64 115 115 64 115 115 64 115 115 64 115 115 64 115 115 64 115 115 64 115 115 64 115 115 64 115 115 64 115 115 64 115 115 64 115 115 64 115 115 64 115 115 64 115 115 64 115 115 64 115 115 64 115 115 64 115 115 64 115 115 64 115 115 64 115 115 64 115 115 64 115 115 64 115 115 64 115 115 64 115 115 64 115 115 64 115 115 64 115 115 64 115 115 64 115 115 64 115 115 64 115 115 64 115 115 64 115 115 64 115 115 64 115 115 64 115 115 64 115 115 64 115 115 64 115 115 128 115 26 128 115 26 128 115 26 128 115 26 128 115 26 128 115 26 128 115 26 128 115 26 128 115 26 128 115 26 128 115 26 128 115 26 128 115 26 128 115 26 128 115 26 128 115 26 128 115 26 128 115 26 128 115 26 128 115 26 128 115 26 128 115 26 128 115 26 128 115 26 128 115 26 128 115 26 128 115 26 128 115 26 128 115 26 128 115 26 128 115 26 128 115 26 128 115 26 128 115 26 128 115 26 128 115 26 128 115 26 128 115 26 128 115 26 128 115 26 128 115 26 128 115 26 128 115 26 128 115 26 128 115 26 128 115 26 128 115 26 128 115 26 128 115 26 128 115 26 128 115 26 128 115 26 128 115 26 128 115 26 128 115 26 128 115 26 128 115 26 128 115 26 128 115 26 128 115 26 128 115 26 128 115 26 128 115 26 128 115 26 128 115 26 128 115 26 128 115 26 128 115 26 128 115 26 128 115 26 128 115 26 128 115 26 128 115 26 128 115 26 128 115 26 128 115 26 128 115 26 128 115 26 128 115 26 128 115 26 128 115 26 128 115 26 128 115 26 128 115 26 128 115 26 128 115 26 128 115 26 128 115 26 128 115 26 128 115 26 128 115 26 128 115 26 128 115 26 128 115 26 128 115 26 128 115 26 128 115 26 128 115 26 128 115 26 128 115 26 
64 115 115 64 115 115 64 115 115 64 115 115 64 115 115 64 115 115 64 115 115 64 115 115 64 115 115 64 115 115 64 115 115 64 115 115 64 115 115 64 115 115 64 115 115 64 115 115 64 115 115 64 115 115 64 115 115 64 115 115 64 115 115 64 115 115 64 115 115 64 115 115 64 115 115 64 115 115 64 115 115 64 115 115 64 115 115 64 115 115 64 115 115 64 115 115 64 115 115 64 115 115 64 115 115 64 115 115 64 115 115 64 115 115 64 115 115 64 115 115 64 115 115 64 115 115 64 115 115 64 115 115 64 115 115 64 115 115 64 115 115 64 115 115 64 115 115 64 115 115 64 115 115 64 115 115 64 115 115 64 115 115 64 115 115 64 115 115 64 115 115 64 115 115 64 115 115 64 115 115 64 115 115 64 115 115 64 115 115 64 115 115 64 115 115 64 115 115 64 115 115 64 115 115 64 115 115 64 115 115 64 115 115 64 115 115 64 115 115 64 115 115 64 115 115 64 115 115 64 115 115 64 115 115 64 115 115 64 115 115 64 115 115 64 115 115 64 115 115 64 115 115 64 115 115 64 115 115 64 115 115 64 115 115 64 115 115 64 115 115 64 115 115 64 115 115 64 115 115 64 115 115 64 115 115 64 115 115 64 115 115 64 115 115 64 115 115 64 115 115 128 115 26 128 115 26 128 115 26 128 115 26 128 115 26 128 115 26 128 115 26 128 115 26 128 115 26 128 115 26 128 115 26 128 115 26 128 115 26 128 115 26 128 115 26 128 115 26 128 115 26 128 115 26 128 115 26 128 115 26 128 115 26 128 115 26 128 115 26 128 115 26 128 115 26 128 115 26 128 115 26 128 115 26 128 115 26 128 115 26 128 115 26 128 115 26 128 115 26 128 115 26 128 115 26 128 115 26 128 115 26 128 115 26 128 115 26 128 115 26 128 115 26 128 115 26 128 115 26 128 115 26 128 115 26 128 115 26 128 115 26 128 115 26 128 115 26 128 115 26 128 115 26 128 115 26 128 115 26 128 115 26 128 115 26 128 115 26 128 115 26 128 115 26 128 115 26 128 115 26 128 115 26 128 115 26 128 115 26 128 115 26 128 115 26 128 115 26 128 115 26 128 115 26 128 115 26 128 115 26 128 115 26 128 115 26 128 115 26 128 115 26 128 115 26 128 115 26 128 115 26 128 115 26 128 115 26 128 115 26 128 115 26 128 115 26 128 115 26 128 115 26 128 115 26 128 115 26 128 115 26 128 115 26 128 115 26 128 115 26 128 115 26 128 115 26 128 115 26 128 115 26 128 115 26 128 115 26 128 115 26 128 115 26 128 115 26 128 115 26 
64 115 115 64 115 115 64 115 115 64 115 115 64 115 115 64 115 115 64 115 115 64 115 115 64 115 115 64 115 115 64 115 115 64 115 115 64 115 115 64 115 115 64 115 115 64 115 115 64 115 115 64 115 115 64 115 115 64 115 115 64 115 115 64 115 115 64 115 115 64 115 115 64 115 115 64 115 115 64 115 115 64 115 115 64 115 115 64 115 115 64 115 115 64 115 115 64 115 115 64 115 115 64 115 115 64 115 115 64 115 115 64 115 115 64 115 115 64 115 115 64 115 115 64 115 115 64 115 115 64 115 115 64 115 115 64 115 115 64 115 115 64 115 115 64 115 115 64 115 115 64 115 115 64 115 115 64 115 115 64 115 115 64 115 115 64 115 115 64 115 115 64 115 115 64 115 115 64 115 115 64 115 115 64 115 115 64 115 115 64 115 115 64 115 115 64 115 115 64 115 115 64 115 115 64 115 115 64 115 115 64 115 115 64 115 115 64 115 115 64 115 115 64 115 115 64 115 115 64 115 115 64 115 115 64 115 115 64 115 115 64 115 115 64 115 115 64 115 115 64 115 115 64 115 115 64 115 115 64 115 115 64 115 115 64 115 115 64 115 115 64 115 115 64 115 115 64 115 115 64 115 115 64 115 115 64 115 115 64 115 115 64 115 115 64 115 115 64 115 115 128 115 26 128 115 26 128 115 26 128 115 26 128 115 26 128 115 26 128 115 26 128 115 26 128 115 26 128 115 26 128 115 26 128 115 26 128 115 26 128 115 26 128 115 26 128 115 26 128 115 26 128 115 26 128 115 26 128 115 26 128 115 26 128 115 26 128 115 26 128 115 26 128 115 26 128 115 26 128 115 26 128 115 26 128 115 26 128 115 26 128 115 26 128 115 26 128 115 26 128 115 26 128 115 26 128 115 26 128 115 26 128 115 26 128 115 26 128 115 26 128 115 26 128 115 26 128 115 26 128 115 26 128 115 26 128 115 26 128 115 26 128 115 26 128 115 26 128 115 26 128 115 26 128 115 26 128 115 26 128 115 26 128 115 26 128 115 26 128 115 26 128 115 26 128 115 26 128 115 26 128 115 26 128 115 26 128 115 26 128 115 26 128 115 26 128 115 26 128 115 26 128 115 26 128 115 26 128 115 26 128 115 26 128 115 26 128 115 26 128 115 26 128 115 26 128 115 26 128 115 26 128 115 26 128 115 26 128 115 26 128 115 26 128 115 26 128 115 26 128 115 26 128 115 26 128 115 26 128 115 26 128 115 26 128 115 26 128 115 26 128 115 26 128 115 26 128 115 26 128 115 26 128 115 26 128 115 26 128 115 26 128 115 26 128 115 26 128 115 26 
64 115 115 64 115 115 64 115 115 64 115 115 64 115 115 64 115 115 64 115 115 64 115 115 64 115 115 64 115 115 64 115 115 64 115 115 64 115 115 64 115 115 64 115 115 64 115 115 64 115 115 64 115 115 64 115 115 64 115 115 64 115 115 64 115 115 64 115 115 64 115 115 64 115 115 64 115 115 64 115 115 64 115 115 64 115 115 64 115 115 64 115 115 64 115 115 64 115 115 64 115 115 64 115 115 64 115 115 64 115 115 64 115 115 64 115 115 64 115 115 64 115 115 64 115 115 64 115 115 64 115 115 64 115 115 64 115 115 64 115 115 64 115 115 64 115 115 64 115 115 64 115 115 64 115 115 64 115 115 64 115 115 64 115 115 64 115 115 64 115 115 64 115 115 64 115 115 64 115 115 64 115 115 64 115 115 64 115 115 64 115 115 64 115 115 64 115 115 64 115 115 64 115 115 64 115 115 64 115 115 64 115 115 64 115 115 64 115 115 64 115 115 64 115 115 64 115 115 64 115 115 64 115 115 64 115 115 64 115 115 64 115 115 64 115 115 64 115 115 64 115 115 64 115 115 64 115 115 64 115 115 64 115 115 64 115 115 64 115 115 64 115 115 64 115 115 64 115 115 64 115 115 64 115 115 64 115 115 64 115 115 64 115 115 64 115 115 64 115 115 128 115 26 128 115 26 128 115 26 128 115 26 128 115 26 128 115 26 128 115 26 128 115 26 128 115 26 128 115 26 128 115 26 128 115 26 128 115 26 128 115 26 128 115 26 128 115 26 128 115 26 128 115 26 128 115 26 128 115 26 128 115 26 128 115 26 128 115 26 128 115 26 128 115 26 128 115 26 128 115 26 128 115 26 128 115 26 128 115 26 128 115 26 128 115 26 128 115 26 128 115 26 128 115 26 128 115 26 128 115 26 128 115 26 128 115 26 128 115 26 128 115 26 128 115 26 128 115 26 128 115 26 128 115 26 128 115 26 128 115 26 128 115 26 128 115 26 128 115 26 128 115 26 128 115 26 128 115 26 128 115 26 128 115 26 128 115 26 128 115 26 128 115 26 128 115 26 128 115 26 128 115 26 128 115 26 128 115 26 128 115 26 128 115 26 128 115 26 128 115 26 128 115 26 128 115 26 128 115 26 128 115 26 128 115 26 128 115 26 128 115 26 128 115 26 128 115 26 128 115 26 128 115 26 128 115 26 128 115 26 128 115 26 128 115 26 128 115 26 128 115 26 128 115 26 128 115 26 128 115 26 128 115 26 128 115 26 128 115 26 128 115 26 128 115 26 128 115 26 128 115 26 128 115 26 128 115 26 128 115 26 128 115 26 128 115 26 128 115 26 
64 115 115 64 115 115 64 115 115 64 115 115 64 115 115 64 115 115 64 115 115 64 115 115 64 115 115 64 115 115 64 115 115 64 115 115 64 115 115 64 115 115 64 115 115 64 115 115 64 115 115 64 115 115 64 115 115 64 115 115 64 115 115 64 115 115 64 115 115 64 115 115 64 115 115 64 115 115 64 115 115 64 115 115 64 115 115 64 115 115 64 115 115 64 115 115 64 115 115 64 115 115 64 115 115 64 115 115 64 115 115 64 115 115 64 115 115 64 115 115 64 115 115 64 115 115 64 115 115 64 115 115 64 115 115 64 115 115 64 115 115 64 115 115 64 115 115 64 115 115 64 115 115 64 115 115 64 115 115 64 115 115 64 115 115 64 115 115 64 115 115 64 115 115 64 115 115 64 115 115 64 115 115 64 115 115 64 115 115 64 115 115 64 115 115 64 115 115 64 115 115 64 115 115 64 115 115 64 115 115 64 115 115 64 115 115 64 115 115 64 115 115 64 115 115 64 115 115 64 115 115 64 115 115 64 115 115 64 115 115 64 115 115 64 115 115 64 115 115 64 115 115 64 115 115 64 115 115 64 115 115 64 115 115 64 115 115 64 115 115 64 115 115 64 115 115 64 115 115 64 115 115 64 115 115 64 115 115 64 115 115 64 115 115 64 115 115 64 115 115 128 115 26 128 115 26 128 115 26 128 115 26 128 115 26 128 115 26 128 115 26 128 115 26 128 115 26 128 115 26 128 115 26 128 115 26 128 115 26 128 115 26 128 115 26 128 115 26 128 115 26 128 115 26 128 115 26 128 115 26 128 115 26 128 115 26 128 115 26 128 115 26 128 115 26 128 115 26 128 115 26 128 115 26 128 115 26 128 115 26 128 115 26 128 115 26 128 115 26 128 115 26 128 115 26 128 115 26 128 115 26 128 115 26 128 115 26 128 115 26 128 115 26 128 115 26 128 115 26 128 115 26 128 115 26 128 115 26 128 115 26 128 115 26 128 115 26 128 115 26 128 115 26 128 115 26 128 115 26 128 115 26 128 115 26 128 115 26 128 115 26 128 115 26 128 115 26 128 115 26 128 115 26 128 115 26 128 115 26 128 115 26 128 115 26 128 115 26 128 115 26 128 115 26 128 115 26 128 115 26 128 115 26 128 115 26 128 115 26 128 115 26 128 115 26 128 115 26 128 115 26 128 115 26 128 115 26 128 115 26 128 115 26 128 115 26 128 115 26 128 115 26 128 115 26 128 115 26 128 115 26 128 115 26 128 115 26 128 115 26 128 115 26 128 115 26 128 115 26 128 115 26 128 115 26 128 115 26 128 115 26 128 115 26 128 115 26 128 115 26 
64 115 115 64 115 115 64 115 115 64 115 115 64 115 115 64 115 115 64 115 115 64 115 115 64 115 115 64 115 115 64 115 115 64 115 115 64 115 115 64 115 115 64 115 115 64 115 115 64 115 115 64 115 115 64 115 115 64 115 115 64 115 115 64 115 115 64 115 115 64 115 115 64 115 115 64 115 115 64 115 115 64 115 115 64 115 115 64 115 115 64 115 115 64 115 115 64 115 115 64 115 115 64 115 115 64 115 115 64 115 115 64 115 115 64 115 115 64 115 115 64 115 115 64 115 115 64 115 115 64 115 115 64 115 115 64 115 115 64 115 115 64 115 115 64 115 115 64 115 115 64 115 115 64 115 115 64 115 115 64 115 115 64 115 115 64 115 115 64 115 115 64 115 115 64 115 115 64 115 115 64 115 115 64 115 115 64 115 115 64 115 115 64 115 115 64 115 115 64 115 115 64 115 115 64 115 115 64 115 115 64 115 115 64 115 115 64 115 115 64 115 115 64 115 115 64 115 115 64 115 115 64 115 115 64 115 115 64 115 115 64 115 115 64 115 115 64 115 115 64 115 115 64 115 115 64 115 115 64 115 115 64 115 115 64 115 115 64 115 115 64 115 115 64 115 115 64 115 115 64 115 115 64 115 115 64 115 115 64 115 115 64 115 115 64 115 115 64 115 115 128 115 26 128 115 26 128 115 26 128 115 26 128 115 26 128 115 26 128 115 26 128 115 26 128 115 26 128 115 26 128 115 26 128 115 26 128 115 26 128 115 26 128 115 26 128 115 26 128 115 26 128 115 26 128 115 26 128 115 26 128 115 26 128 115 26 128 115 26 128 115 26 128 115 26 128 115 26 128 115 26 128 115 26 128 115 26 128 115 26 128 115 26 128 115 26 128 115 26 128 115 26 128 115 26 128 115 26 128 115 26 128 115 26 128 115 26 128 115 26 128 115 26 128 115 26 128 115 26 128 115 26 128 115 26 128 115 26 128 115 26 128 115 26 128 115 26 128 115 26 128 115 26 128 115 26 128 115 26 128 115 26 128 115 26 128 115 26 128 115 26 128 115 26 128 115 26 128 115 26 128 115 26 128 115 26 128 115 26 128 115 26 128 115 26 128 115 26 128 115 26 128 115 26 128 115 26 128 115 26 128 115 26 128 115 26 128 115 26 128 115 26 128 115 26 128 115 26 128 115 26 128 115 26 128 115 26 128 115 26 128 115 26 128 115 26 128 115 26 128 115 26 128 115 26 128 115 26 128 115 26 128 115 26 128 115 26 128 115 26 128 115 26 128 115 26 128 115 26 128 115 26 128 115 26 128 115 26 128 115 26 128 115 26 128 115 26 128 115 26 
64 115 115 64 115 115 64 115 115 64 115 115 64 115 115 64 115 115 64 115 115 64 115 115 64 115 115 64 115 115 64 115 115 64 115 115 64 115 115 64 115 115 64 115 115 64 115 115 64 115 115 64 115 115 64 115 115 64 115 115 64 115 115 64 115 115 64 115 115 64 115 115 64 115 115 64 115 115 64 115 115 64 115 115 64 115 115 64 115 115 64 115 115 64 115 115 64 115 115 64 115 115 64 115 115 64 115 115 64 115 115 64 115 115 64 115 115 64 115 115 64 115 115 64 115 115 64 115 115 64 115 115 64 115 115 64 115 115 64 115 115 64 115 115 64 115 115 64 115 115 64 115 115 64 115 115 64 115 115 64 115 115 64 115 115 64 115 115 64 115 115 64 115 115 64 115 115 64 115 115 64 115 115 64 115 115 64 115 115 64 115 115 64 115 115 64 115 115 64 115 115 64 115 115 64 115 115 64 115 115 64 115 115 64 115 115 64 115 115 64 115 115 64 115 115 64 115 115 64 115 115 64 115 115 64 115 115 64 115 115 64 115 115 64 115 115 64 115 115 64 115 115 64 115 115 64 115 115 64 115 115 64 115 115 64 115 115 64 115 115 64 115 115 64 115 115 64 115 115 64 115 115 64 115 115 64 115 115 64 115 115 64 115 115 64 115 115 64 115 115 128 115 26 128 115 26 128 115 26 128 115 26 128 115 26 128 115 26 128 115 26 128 115 26 128 115 26 128 115 26 128 115 26 128 115 26 128 115 26 128 115 26 128 115 26 128 115 26 128 115 26 128 115 26 128 115 26 128 115 26 128 115 26 128 115 26 128 115 26 128 115 26 128 115 26 128 115 26 128 115 26 128 115 26 128 115 26 128 115 26 128 115 26 128 115 26 128 115 26 128 115 26 128 115 26 128 115 26 128 115 26 128 115 26 128 115 26 128 115 26 128 115 26 128 115 26 128 115 26 128 115 26 128 115 26 128 115 26 128 115 26 128 115 26 128 115 26 128 115 26 128 115 26 128 115 26 128 115 26 128 115 26 128 115 26 128 115 26 128 115 26 128 115 26 128 115 26 128 115 26 128 115 26 128 115 26 128 115 26 128 115 26 128 115 26 128 115 26 128 115 26 128 115 26 128 115 26 128 115 26 128 115 26 128 115 26 128 115 26 128 115 26 128 115 26 128 115 26 128 115 26 128 115 26 128 115 26 128 115 26 128 115 26 128 115 26 128 115 26 128 115 26 128 115 26 128 115 26 128 115 26 128 115 26 128 115 26 128 115 26 128 115 26 128 115 26 128 115 26 128 115 26 128 115 26 128 115 26 128 115 26 128 115 26 128 115 26 128 115 26 
64 115 115 64 115 115 64 115 115 64 115 115 64 115 115 64 115 115 64 115 115 64 115 115 64 115 115 64 115 115 64 115 115 64 115 115 64 115 115 64 115 115 64 115 115 64 115 115 64 115 115 64 115 115 64 115 115 64 115 115 64 115 115 64 115 115 64 115 115 64 115 115 64 115 115 64 115 115 64 115 115 64 115 115 64 115 115 64 115 115 64 115 115 64 115 115 64 115 115 64 115 115 64 115 115 64 115 115 64 115 115 64 115 115 64 115 115 64 115 115 64 115 115 64 115 115 64 115 115 64 115 115 64 115 115 64 115 115 64 115 115 64 115 115 64 115 115 64 115 115 64 115 115 64 115 115 64 115 115 64 115 115 64 115 115 64 115 115 64 115 115 64 115 115 64 115 115 64 115 115 64 115 115 64 115 115 64 115 115 64 115 115 64 115 115 64 115 115 64 115 115 64 115 115 64 115 115 64 115 115 64 115 115 64 115 115 64 115 115 64 115 115 64 115 115 64 115 115 64 115 115 64 115 115 64 115 115 64 115 115 64 115 115 64 115 115 64 115 115 64 115 115 64 115 115 64 115 115 64 115 115 64 115 115 64 115 115 64 115 115 64 115 115 64 115 115 64 115 115 64 115 115 64 115 115 64 115 115 64 115 115 64 115 115 64 115 115 64 115 115 128 115 26 128 115 26 128 115 26 128 115 26 128 115 26 128 115 26 128 115 26 128 115 26 128 115 26 128 115 26 128 115 26 128 115 26 128 115 26 128 115 26 128 115 26 128 115 26 128 115 26 128 115 26 128 115 26 128 115 26 128 115 26 128 115 26 128 115 26 128 115 26 128 115 26 128 115 26 128 115 26 128 115 26 128 115 26 128 115 26 128 115 26 128 115 26 128 115 26 128 115 26 128 115 26 128 115 26 128 115 26 128 115 26 128 115 26 128 115 26 128 115 26 128 115 26 128 115 26 128 115 26 128 115 26 128 115 26 128 115 26 128 115 26 128 115 26 128 115 26 128 115 26 128 115 26 128 115 26 128 115 26 128 115 26 128 115 26 128 115 26 128 115 26 128 115 26 128 115 26 128 115 26 128 115 26 128 115 26 128 115 26 128 115 26 128 115 26 128 115 26 128 115 26 128 115 26 128 115 26 128 115 26 128 115 26 128 115 26 128 115 26 128 115 26 128 115 26 128 115 26 128 115 26 128 115 26 128 115 26 128 115 26 128 115 26 128 115 26 128 115 26 128 115 26 128 115 26 128 115 26 128 115 26 128 115 26 128 115 26 128 115 26 128 115 26 128 115 26 128 115 26 128 115 26 128 115 26 128 115 26 128 115 26 128 115 26 128 115 26 
64 115 115 64 115 115 64 115 115 64 115 115 64 115 115 64 115 115 64 115 115 64 115 115 64 115 115 64 115 115 64 115 115 64 115 115 64 115 115 64 115 115 64 115 115 64 115 115 64 115 115 64 115 115 64 115 115 64 115 115 64 115 115 64 115 115 64 115 115 64 115 115 64 115 115 64 115 115 64 115 115 64 115 115 64 115 115 64 115 115 64 115 115 64 115 115 64 115 115 64 115 115 64 115 115 64 115 115 64 115 115 64 115 115 64 115 115 64 115 115 64 115 115 64 115 115 64 115 115 64 115 115 64 115 115 64 115 115 64 115 115 64 115 115 64 115 115 64 115 115 64 115 115 64 115 115 64 115 115 64 115 115 64 115 115 64 115 115 64 115 115 64 115 115 64 115 115 64 115 115 64 115 115 64 115 115 64 115 115 64 115 115 64 115 115 64 115 115 64 115 115 64 115 115 64 115 115 64 115 115 64 115 115 64 115 115 64 115 115 64 115 115 64 115 115 64 115 115 64 115 115 64 115 115 64 115 115 64 115 115 64 115 115 64 115 115 64 115 115 64 115 115 64 115 115 64 115 115 64 115 115 64 115 115 64 115 115 64 115 115 64 115 115 64 115 115 64 115 115 64 115 115 64 115 115 64 115 115 64 115 115 64 115 115 64 115 115 64 115 115 128 115 26 128 115 26 128 115 26 128 115 26 128 115 26 128 115 26 128 115 26 128 115 26 128 115 26 128 115 26 128 115 26 128 115 26 128 115 26 128 115 26 128 115 26 128 115 26 128 115 26 128 115 26 128 115 26 128 115 26 128 115 26 128 115 26 128 115 26 128 115 26 128 115 26 128 115 26 128 115 26 128 115 26 128 115 26 128 115 26 128 115 26 128 115 26 128 115 26 128 115 26 128 115 26 128 115 26 128 115 26 128 115 26 128 115 26 128 115 26 128 115 26 128 115 26 128 115 26 128 115 26 128 115 26 128 115 26 128 115 26 128 115 26 128 115 26 128 115 26 128 115 26 128 115 26 128 115 26 128 115 26 128 115 26 128 115 26 128 115 26 128 115 26 128 115 26 128 115 26 128 115 26 128 115 26 128 115 26 128 115 26 128 115 26 128 115 26 128 115 26 128 115 26 128 115 26 128 115 26 128 115 26 128 115 26 128 115 26 128 115 26 128 115 26 128 115 26 128 115 26 128 115 26 128 115 26 128 115 26 128 115 26 128 115 26 128 115 26 128 115 26 128 115 26 128 115 26 128 115 26 128 115 26 128 115 26 128 115 26 128 115 26 128 115 26 128 115 26 128 115 26 128 115 26 128 115 26 128 115 26 128 115 26 128 115 26 128 115 26 
64 115 115 64 115 115 64 115 115 64 115 115 64 115 115 64 115 115 64 115 115 64 115 115 64 115 115 64 115 115 64 115 115 64 115 115 64 115 115 64 115 115 64 115 115 64 115 115 64 115 115 64 115 115 64 115 115 64 115 115 64 115 115 64 115 115 64 115 115 64 115 115 64 115 115 64 115 115 64 115 115 64 115 115 64 115 115 64 115 115 64 115 115 64 115 115 64 115 115 64 115 115 64 115 115 64 115 115 64 115 115 64 115 115 64 115 115 64 115 115 64 115 115 64 115 115 64 115 115 64 115 115 64 115 115 64 115 115 64 115 115 64 115 115 64 115 115 64 115 115 64 115 115 64 115 115 64 115 115 64 115 115 64 115 115 64 115 115 64 115 115 64 115 115 64 115 115 64 115 115 64 115 115 64 115 115 64 115 115 64 115 115 64 115 115 64 115 115 64 115 115 64 115 115 64 115 115 64 115 115 64 115 115 64 115 115 64 115 115 64 115 115 64 115 115 64 115 115 64 115 115 64 115 115 64 115 115 64 115 115 64 115 115 64 115 115 64 115 115 64 115 115 64 115 115 64 115 115 64 115 115 64 115 115 64 115 115 64 115 115 64 115 115 64 115 115 64 115 115 64 115 115 64 115 115 64 115 115 64 115 115 64 115 115 64 115 115 64 115 115 128 115 26 128 115 26 128 115 26 128 115 26 128 115 26 128 115 26 128 115 26 128 115 26 128 115 26 128 115 26 128 115 26 128 115 26 128 115 26 128 115 26 128 115 26 128 115 26 128 115 26 128 115 26 128 115 26 128 115 26 128 115 26 128 115 26 128 115 26 128 115 26 128 115 26 128 115 26 128 115 26 128 115 26 128 115 26 128 115 26 128 115 26 128 115 26 128 115 26 128 115 26 128 115 26 128 115 26 128 115 26 128 115 26 128 115 26 128 115 26 128 115 26 128 115 26 128 115 26 128 115 26 128 115 26 128 115 26 128 115 26 128 115 26 128 115 26 128 115 26 128 115 26 128 115 26 128 115 26 128 115 26 128 115 26 128 115 26 128 115 26 128 115 26 128 115 26 128 115 26 128 115 26 128 115 26 128 115 26 128 115 26 128 115 26 128 115 26 128 115 26 128 115 26 128 115 26 128 115 26 128 115 26 128 115 26 128 115 26 128 115 26 128 115 26 128 115 26 128 115 26 128 115 26 128 115 26 128 115 26 128 115 26 128 115 26 128 115 26 128 115 26 128 115 26 128 115 26 128 115 26 128 115 26 128 115 26 128 115 26 128 115 26 128 115 26 128 115 26 128 115 26 128 115 26 128 115 26 128 115 26 128 115 26 128 115 26 128 115 26 
64 115 115 64 115 115 64 115 115 64 115 115 64 115 115 64 115 115 64 115 115 64 115 115 64 115 115 64 115 115 64 115 115 64 115 115 64 115 115 64 115 115 64 115 115 64 115 115 64 115 115 64 115 115 64 115 115 64 115 115 64 115 115 64 115 115 64 115 115 64 115 115 64 115 115 64 115 115 64 115 115 64 115 115 64 115 115 64 115 115 64 115 115 64 115 115 64 115 115 64 115 115 64 115 115 64 115 115 64 115 115 64 115 115 64 115 115 64 115 115 64 115 115 64 115 115 64 115 115 64 115 115 64 115 115 64 115 115 64 115 115 64 115 115 64 115 115 64 115 115 64 115 115 64 115 115 64 115 115 64 115 115 64 115 115 64 115 115 64 115 115 64 115 115 64 115 115 64 115 115 64 115 115 64 115 115 64 115 115 64 115 115 64 115 115 64 115 115 64 115 115 64 115 115 64 115 115 64 115 115 64 115 115 64 115 115 64 115 115 64 115 115 64 115 115 64 115 115 64 115 115 64 115 115 64 115 115 64 115 115 64 115 115 64 115 115 64 115 115 64 115 115 64 115 115 64 115 115 64 115 115 64 115 115 64 115 115 64 115 115 64 115 115 64 115 115 64 115 115 64 115 115 64 115 115 64 115 115 64 115 115 64 115 115 64 115 115 64 115 115 128 115 26 128 115 26 128 115 26 128 115 26 128 115 26 128 115 26 128 115 26 128 115 26 128 115 26 128 115 26 128 115 26 128 115 26 128 115 26 128 115 26 128 115 26 128 115 26 128 115 26 128 115 26 128 115 26 128 115 26 128 115 26 128 115 26 128 115 26 128 115 26 128 115 26 128 115 26 128 115 26 128 115 26 128 115 26 128 115 26 128 115 26 128 115 26 128 115 26 128 115 26 128 115 26 128 115 26 128 115 26 128 115 26 128 115 26 128 115 26 128 115 26 128 115 26 128 115 26 128 115 26 128 115 26 128 115 26 128 115 26 128 115 26 128 115 26 128 115 26 128 115 26 128 115 26 128 115 26 128 115 26 128 115 26 128 115 26 128 115 26 128 115 26 128 115 26 128 115 26 128 115 26 128 115 26 128 115 26 128 115 26 128 115 26 128 115 26 128 115 26 128 115 26 128 115 26 128 115 26 128 115 26 128 115 26 128 115 26 128 115 26 128 115 26 128 115 26 128 115 26 128 115 26 128 115 26 128 115 26 128 115 26 128 115 26 128 115 26 128 115 26 128 115 26 128 115 26 128 115 26 128 115 26 128 115 26 128 115 26 128 115 26 128 115 26 128 115 26 128 115 26 128 115 26 128 115 26 128 115 26 128 115 26 128 115 26 128 115 26 
64 115 115 64 115 115 64 115 115 64 115 115 64 115 115 64 115 115 64 115 115 64 115 115 64 115 115 64 115 115 64 115 115 64 115 115 64 115 115 64 115 115 64 115 115 64 115 115 64 115 115 64 115 115 64 115 115 64 115 115 64 115 115 64 115 115 64 115 115 64 115 115 64 115 115 64 115 115 64 115 115 64 115 115 64 115 115 64 115 115 64 115 115 64 115 115 64 115 115 64 115 115 64 115 115 64 115 115 64 115 115 64 115 115 64 115 115 64 115 115 64 115 115 64 115 115 64 115 115 64 115 115 64 115 115 64 115 115 64 115 115 64 115 115 64 115 115 64 115 115 64 115 115 64 115 115 64 115 115 64 115 115 64 115 115 64 115 115 64 115 115 64 115 115 64 115 115 64 115 115 64 115 115 64 115 115 64 115 115 64 115 115 64 115 115 64 115 115 64 115 115 64 115 115 64 115 115 64 115 115 64 115 115 64 115 115 64 115 115 64 115 115 64 115 115 64 115 115 64 115 115 64 115 115 64 115 115 64 115 115 64 115 115 64 115 115 64 115 115 64 115 115 64 115 115 64 115 115 64 115 115 64 115 115 64 115 115 64 115 115 64 115 115 64 115 115 64 115 115 64 115 115 64 115 115 64 115 115 64 115 115 64 115 115 64 115 115 64 115 115 128 115 26 128 115 26 128 115 26 128 115 26 128 115 26 128 115 26 128 115 26 128 115 26 128 115 26 128 115 26 128 115 26 128 115 26 128 115 26 128 115 26 128 115 26 128 115 26 128 115 26 128 115 26 128 115 26 128 115 26 128 115 26 128 115 26 128 115 26 128 115 26 128 115 26 128 115 26 128 115 26 128 115 26 128 115 26 128 115 26 128 115 26 128 115 26 128 115 26 128 115 26 128 115 26 128 115 26 128 115 26 128 115 26 128 115 26 128 115 26 128 115 26 128 115 26 128 115 26 128 115 26 128 115 26 128 115 26 128 115 26 128 115 26 128 115 26 128 115 26 128 115 26 128 115 26 128 115 26 128 115 26 128 115 26 128 115 26 128 115 26 128 115 26 128 115 26 128 115 26 128 115 26 128 115 26 128 115 26 128 115 26 128 115 26 128 115 26 128 115 26 128 115 26 128 115 26 128 115 26 128 115 26 128 115 26 128 115 26 128 115 26 128 115 26 128 115 26 128 115 26 128 115 26 128 115 26 128 115 26 128 115 26 128 115 26 128 115 26 128 115 26 128 115 26 128 115 26 128 115 26 128 115 26 128 115 26 128 115 26 128 115 26 128 115 26 128 115 26 128 115 26 128 115 26 128 115 26 128 115 26 128 115 26 128 115 26 128 115 26 
64 115 115 64 115 115 64 115 115 64 115 115 64 115 115 64 115 115 64 115 115 64 115 115 64 115 115 64 115 115 64 115 115 64 115 115 64 115 115 64 115 115 64 115 115 64 115 115 64 115 115 64 115 115 64 115 115 64 115 115 64 115 115 64 115 115 64 115 115 64 115 115 64 115 115 64 115 115 64 115 115 64 115 115 64 115 115 64 115 115 64 115 115 64 115 115 64 115 115 64 115 115 64 115 115 64 115 115 64 115 115 64 115 115 64 115 115 64 115 115 64 115 115 64 115 115 64 115 115 64 115 115 64 115 115 64 115 115 64 115 115 64 115 115 64 115 115 64 115 115 64 115 115 64 115 115 64 115 115 64 115 115 64 115 115 64 115 115 64 115 115 64 115 115 64 115 115 64 115 115 64 115 115 64 115 115 64 115 115 64 115 115 64 115 115 64 115 115 64 115 115 64 115 115 64 115 115 64 115 115 64 115 115 64 115 115 64 115 115 64 115 115 64 115 115 64 115 115 64 115 115 64 115 115 64 115 115 64 115 115 64 115 115 64 115 115 64 115 115 64 115 115 64 115 115 64 115 115 64 115 115 64 115 115 64 115 115 64 115 115 64 115 115 64 115 115 64 115 115 64 115 115 64 115 115 64 115 115 64 115 115 64 115 115 64 115 115 64 115 115 128 115 26 128 115 26 128 115 26 128 115 26 128 115 26 128 115 26 128 115 26 128 115 26 128 115 26 128 115 26 128 115 26 128 115 26 128 115 26 128 115 26 128 115 26 128 115 26 128 115 26 128 115 26 128 115 26 128 115 26 128 115 26 128 115 26 128 115 26 128 115 26 128 115 26 128 115 26 128 115 26 128 115 26 128 115 26 128 115 26 128 115 26 128 115 26 128 115 26 128 115 26 128 115 26 128 115 26 128 115 26 128 115 26 128 115 26 128 115 26 128 115 26 128 115 26 128 115 26 128 115 26 128 115 26 128 115 26 128 115 26 128 115 26 128 115 26 128 115 26 128 115 26 128 115 26 128 115 26 128 115 26 128 115 26 128 115 26 128 115 26 128 115 26 128 115 26 128 115 26 128 115 26 128 115 26 128 115 26 128 115 26 128 115 26 128 115 26 128 115 26 128 115 26 128 115 26 128 115 26 128 115 26 128 115 26 128 115 26 128 115 26 128 115 26 128 115 26 128 115 26 128 115 26 128 115 26 128 115 26 128 115 26 128 115 26 128 115 26 128 115 26 128 115 26 128 115 26 128 115 26 128 115 26 128 115 26 128 115 26 128 115 26 128 115 26 128 115 26 128 115 26 128 115 26 128 115 26 128 115 26 128 115 26 128 115 26 128 115 26 
64 115 115 64 115 115 64 115 115 64 115 115 64 115 115 64 115 115 64 115 115 64 115 115 64 115 115 64 115 115 64 115 115 64 115 115 64 115 115 64 115 115 64 115 115 64 115 115 64 115 115 64 115 115 64 115 115 64 115 115 64 115 115 64 115 115 64 115 115 64 115 115 64 115 115 64 115 115 64 115 115 64 115 115 64 115 115 64 115 115 64 115 115 64 115 115 64 115 115 64 115 115 64 115 115 64 115 115 64 115 115 64 115 115 64 115 115 64 115 115 64 115 115 64 115 115 64 115 115 64 115 115 64 115 115 64 115 115 64 115 115 64 115 115 64 115 115 64 115 115 64 115 115 64 115 115 64 115 115 64 115 115 64 115 115 64 115 115 64 115 115 64 115 115 64 115 115 64 115 115 64 115 115 64 115 115 64 115 115 64 115 115 64 115 115 64 115 115 64 115 115 64 115 115 64 115 115 64 115 115 64 115 115 64 115 115 64 115 115 64 115 115 64 115 115 64 115 115 64 115 115 64 115 115 64 115 115 64 115 115 64 115 115 64 115 115 64 115 115 64 115 115 64 115 115 64 115 115 64 115 115 64 115 115 64 115 115 64 115 115 64 115 115 64 115 115 64 115 115 64 115 115 64 115 115 64 115 115 64 115 115 64 115 115 64 115 115 64 115 115 128 115 26 128 115 26 128 115 26 128 115 26 128 115 26 128 115 26 128 115 26 128 115 26 128 115 26 128 115 26 128 115 26 128 115 26 128 115 26 128 115 26 128 115 26 128 115 26 128 115 26 128 115 26 128 115 26 128 115 26 128 115 26 128 115 26 128 115 26 128 115 26 128 115 26 128 115 26 128 115 26 128 115 26 128 115 26 128 115 26 128 115 26 128 115 26 128 115 26 128 115 26 128 115 26 128 115 26 128 115 26 128 115 26 128 115 26 128 115 26 128 115 26 128 115 26 128 115 26 128 115 26 128 115 26 128 115 26 128 115 26 128 115 26 128 115 26 128 115 26 128 115 26 128 115 26 128 115 26 128 115 26 128 115 26 128 115 26 128 115 26 128 115 26 128 115 26 128 115 26 128 115 26 128 115 26 128 115 26 128 115 26 128 115 26 128 115 26 128 115 26 128 115 26 128 115 26 128 115 26 128 115 26 128 115 26 128 115 26 128 115 26 128 115 26 128 115 26 128 115 26 128 115 26 128 115 26 128 115 26 128 115 26 128 115 26 128 115 26 128 115 26 128 115 26 128 115 26 128 115 26 128 115 26 128 115 26 128 115 26 128 115 26 128 115 26 128 115 26 128 115 26 128 115 26 128 115 26 128 115 26 128 115 26 128 115 26 128 115 26 
64 115 115 64 115 115 64 115 115 64 115 115 64 115 115 64 115 115 64 115 115 64 115 115 64 115 115 64 115 115 64 115 115 64 115 115 64 115 115 64 115 115 64 115 115 64 115 115 64 115 115 64 115 115 64 115 115 64 115 115 64 115 115 64 115 115 64 115 115 64 115 115 64 115 115 64 115 115 64 115 115 64 115 115 64 115 115 64 115 115 64 115 115 64 115 115 64 115 115 64 115 115 64 115 115 64 115 115 64 115 115 64 115 115 64 115 115 64 115 115 64 115 115 64 115 115 64 115 115 64 115 115 64 115 115 64 115 115 64 115 115 64 115 115 64 115 115 64 115 115 64 115 115 64 115 115 64 115 115 64 115 115 64 115 115 64 115 115 64 115 115 64 115 115 64 115 115 64 115 115 64 115 115 64 115 115 64 115 115 64 115 115 64 115 115 64 115 115 64 115 115 64 115 115 64 115 115 64 115 115 64 115 115 64 115 115 64 115 115 64 115 115 64 115 115 64 115 115 64 115 115 64 115 115 64 115 115 64 115 115 64 115 115 64 115 115 64 115 115 64 115 115 64 115 115 64 115 115 64 115 115 64 115 115 64 115 115 64 115 115 64 115 115 64 115 115 64 115 115 64 115 115 64 115 115 64 115 115 64 115 115 64 115 115 64 115 115 64 115 115 128 115 26 128 115 26 128 115 26 128 115 26 128 115 26 128 115 26 128 115 26 128 115 26 128 115 26 128 115 26 128 115 26 128 115 26 128 115 26 128 115 26 128 115 26 128 115 26 128 115 26 128 115 26 128 115 26 128 115 26 128 115 26 128 115 26 128 115 26 128 115 26 128 115 26 128 115 26 128 115 26 128 115 26 128 115 26 128 115 26 128 115 26 128 115 26 128 115 26 128 115 26 128 115 26 128 115 26 128 115 26 128 115 26 128 115 26 128 115 26 128 115 26 128 115 26 128 115 26 128 115 26 128 115 26 128 115 26 128 115 26 128 115 26 128 115 26 128 115 26 128 115 26 128 115 26 128 115 26 128 115 26 128 115 26 128 115 26 128 115 26 128 115 26 128 115 26 128 115 26 128 115 26 128 115 26 128 115 26 128 115 26 128 115 26 128 115 26 128 115 26 128 115 26 128 115 26 128 115 26 128 115 26 128 115 26 128 115 26 128 115 26 128 115 26 128 115 26 128 115 26 128 115 26 128 115 26 128 115 26 128 115 26 128 115 26 128 115 26 128 115 26 128 115 26 128 115 26 128 115 26 128 115 26 128 115 26 128 115 26 128 115 26 128 115 26 128 115 26 128 115 26 128 115 26 128 115 26 128 115 26 128 115 26 128 115 26 128 115 26 
64 115 115 64 115 115 64 115 115 64 115 115 64 115 115 64 115 115 64 115 115 64 115 115 64 115 115 64 115 115 64 115 115 64 115 115 64 115 115 64 115 115 64 115 115 64 115 115 64 115 115 64 115 115 64 115 115 64 115 115 64 115 115 64 115 115 64 115 115 64 115 115 64 115 115 64 115 115 64 115 115 64 115 115 64 115 115 64 115 115 64 115 115 64 115 115 64 115 115 64 115 115 64 115 115 64 115 115 64 115 115 64 115 115 64 115 115 64 115 115 64 115 115 64 115 115 64 115 115 64 115 115 64 115 115 64 115 115 64 115 115 64 115 115 64 115 115 64 115 115 64 115 115 64 115 115 64 115 115 64 115 115 64 115 115 64 115 115 64 115 115 64 115 115 64 115 115 64 115 115 64 115 115 64 115 115 64 115 115 64 115 115 64 115 115 64 115 115 64 115 115 64 115 115 64 115 115 64 115 115 64 115 115 64 115 115 64 115 115 64 115 115 64 115 115 64 115 115 64 115 115 64 115 115 64 115 115 64 115 115 64 115 115 64 115 115 64 115 115 64 115 115 64 115 115 64 115 115 64 115 115 64 115 115 64 115 115 64 115 115 64 115 115 64 115 115 64 115 115 64 115 115 64 115 115 64 115 115 64 115 115 64 115 115 64 115 115 64 115 115 128 115 26 128 115 26 128 115 26 128 115 26 128 115 26 128 115 26 128 115 26 128 115 26 128 115 26 128 115 26 128 115 26 128 115 26 128 115 26 128 115 26 128 115 26 128 115 26 128 115 26 128 115 26 128 115 26 128 115 26 128 115 26 128 115 26 128 115 26 128 115 26 128 115 26 128 115 26 128 115 26 128 115 26 128 115 26 128 115 26 128 115 26 128 115 26 128 115 26 128 115 26 128 115 26 128 115 26 128 115 26 128 115 26 128 115 26 128 115 26 128 115 26 128 115 26 128 115 26 128 115 26 128 115 26 128 115 26 128 115 26 128 115 26 128 115 26 128 115 26 128 115 26 128 115 26 128 115 26 128 115 26 128 115 26 128 115 26 128 115 26 128 115 26 128 115 26 128 115 26 128 115 26 128 115 26 128 115 26 128 115 26 128 115 26 128 115 26 128 115 26 128 115 26 128 115 26 128 115 26 128 115 26 128 115 26 128 115 26 128 115 26 128 115 26 128 115 26 128 115 26 128 115 26 128 115 26 128 115 26 128 115 26 128 115 26 128 115 26 128 115 26 128 115 26 128 115 26 128 115 26 128 115 26 128 115 26 128 115 26 128 115 26 128 115 26 128 115 26 128 115 26 128 115 26 128 115 26 128 115 26 128 115 26 128 115 26 128 115 26 
64 115 115 64 115 115 64 115 115 64 115 115 64 115 115 64 115 115 64 115 115 64 115 115 64 115 115 64 115 115 64 115 115 64 115 115 64 115 115 64 115 115 64 115 115 64 115 115 64 115 115 64 115 115 64 115 115 64 115 115 64 115 115 64 115 115 64 115 115 64 115 115 64 115 115 64 115 115 64 115 115 64 115 115 64 115 115 64 115 115 64 115 115 64 115 115 64 115 115 64 115 115 64 115 115 64 115 115 64 115 115 64 115 115 64 115 115 64 115 115 64 115 115 64 115 115 64 115 115 64 115 115 64 115 115 64 115 115 64 115 115 64 115 115 64 115 115 64 115 115 64 115 115 64 115 115 64 115 115 64 115 115 64 115 115 64 115 115 64 115 115 64 115 115 64 115 115 64 115 115 64 115 115 64 115 115 64 115 115 64 115 115 64 115 115 64 115 115 64 115 115 64 115 115 64 115 115 64 115 115 64 115 115 64 115 115 64 115 115 64 115 115 64 115 115 64 115 115 64 115 115 64 115 115 64 115 115 64 115 115 64 115 115 64 115 115 64 115 115 64 115 115 64 115 115 64 115 115 64 115 115 64 115 115 64 115 115 64 115 115 64 115 115 64 115 115 64 115 115 64 115 115 64 115 115 64 115 115 64 115 115 64 115 115 64 115 115 64 115 115 128 115 26 128 115 26 128 115 26 128 115 26 128 115 26 128 115 26 128 115 26 128 115 26 128 115 26 128 115 26 128 115 26 128 115 26 128 115 26 128 115 26 128 115 26 128 115 26 128 115 26 128 115 26 128 115 26 128 115 26 128 115 26 128 115 26 128 115 26 128 115 26 128 115 26 128 115 26 128 115 26 128 115 26 128 115 26 128 115 26 128 115 26 128 115 26 128 115 26 128 115 26 128 115 26 128 115 26 128 115 26 128 115 26 128 115 26 128 115 26 128 115 26 128 115 26 128 115 26 128 115 26 128 115 26 128 115 26 128 115 26 128 115 26 128 115 26 128 115 26 128 115 26 128 115 26 128 115 26 128 115 26 128 115 26 128 115 26 128 115 26 128 115 26 128 115 26 128 115 26 128 115 26 128 115 26 128 115 26 128 115 26 128 115 26 128 115 26 128 115 26 128 115 26 128 115 26 128 115 26 128 115 26 128 115 26 128 115 26 128 115 26 128 115 26 128 115 26 128 115 26 128 115 26 128 115 26 128 115 26 128 115 26 128 115 26 128 115 26 128 115 26 128 115 26 128 115 26 128 115 26 128 115 26 128 115 26 128 115 26 128 115 26 128 115 26 128 115 26 128 115 26 128 115 26 128 115 26 128 115 26 128 115 26 128 115 26 128 115 26 
64 115 115 64 115 115 64 115 115 64 115 115 64 115 115 64 115 115 64 115 115 64 115 115 64 115 115 64 115 115 64 115 115 64 115 115 64 115 115 64 115 115 64 115 115 64 115 115 64 115 115 64 115 115 64 115 115 64 115 115 64 115 115 64 115 115 64 115 115 64 115 115 64 115 115 64 115 115 64 115 115 64 115 115 64 115 115 64 115 115 64 115 115 64 115 115 64 115 115 64 115 115 64 115 115 64 115 115 64 115 115 64 115 115 64 115 115 64 115 115 64 115 115 64 115 115 64 115 115 64 115 115 64 115 115 64 115 115 64 115 115 64 115 115 64 115 115 64 115 115 64 115 115 64 115 115 64 115 115 64 115 115 64 115 115 64 115 115 64 115 115 64 115 115 64 115 115 64 115 115 64 115 115 64 115 115 64 115 115 64 115 115 64 115 115 64 115 115 64 115 115 64 115 115 64 115 115 64 115 115 64 115 115 64 115 115 64 115 115 64 115 115 64 115 115 64 115 115 64 115 115 64 115 115 64 115 115 64 115 115 64 115 115 64 115 115 64 115 115 64 115 115 64 115 115 64 115 115 64 115 115 64 115 115 64 115 115 64 115 115 64 115 115 64 115 115 64 115 115 64 115 115 64 115 115 64 115 115 64 115 115 64 115 115 64 115 115 64 115 115 128 115 26 128 115 26 128 115 26 128 115 26 128 115 26 128 115 26 128 115 26 128 115 26 128 115 26 128 115 26 128 115 26 128 115 26 128 115 26 128 115 26 128 115 26 128 115 26 128 115 26 128 115 26 128 115 26 128 115 26 128 115 26 128 115 26 128 115 26 128 115 26 128 115 26 128 115 26 128 115 26 128 115 26 128 115 26 128 115 26 128 115 26 128 115 26 128 115 26 128 115 26 128 115 26 128 115 26 128 115 26 128 115 26 128 115 26 128 115 26 128 115 26 128 115 26 128 115 26 128 115 26 128 115 26 128 115 26 128 115 26 128 115 26 128 115 26 128 115 26 128 115 26 128 115 26 128 115 26 128 115 26 128 115 26 128 115 26 128 115 26 128 115 26 128 115 26 128 115 26 128 115 26 128 115 26 128 115 26 128 115 26 128 115 26 128 115 26 128 115 26 128 115 26 128 115 26 128 115 26 128 115 26 128 115 26 128 115 26 128 115 26 128 115 26 128 115 26 128 115 26 128 115 26 128 115 26 128 115 26 128 115 26 128 115 26 128 115 26 128 115 26 128 115 26 128 115 26 128 115 26 128 115 26 128 115 26 128 115 26 128 115 26 128 115 26 128 115 26 128 115 26 128 115 26 128 115 26 128 115 26 128 115 26 128 115 26 128 115 26 
64 115 115 64 115 115 64 115 115 64 115 115 64 115 115 64 115 115 64 115 115 64 115 115 64 115 115 64 115 115 64 115 115 64 115 115 64 115 115 64 115 115 64 115 115 64 115 115 64 115 115 64 115 115 64 115 115 64 115 115 64 115 115 64 115 115 64 115 115 64 115 115 64 115 115 64 115 115 64 115 115 64 115 115 64 115 115 64 115 115 64 115 115 64 115 115 64 115 115 64 115 115 64 115 115 64 115 115 64 115 115 64 115 115 64 115 115 64 115 115 64 115 115 64 115 115 64 115 115 64 115 115 64 115 115 64 115 115 64 115 115 64 115 115 64 115 115 64 115 115 64 115 115 64 115 115 64 115 115 64 115 115 64 115 115 64 115 115 64 115 115 64 115 115 64 115 115 64 115 115 64 115 115 64 115 115 64 115 115 64 115 115 64 115 115 64 115 115 64 115 115 64 115 115 64 115 115 64 115 115 64 115 115 64 115 115 64 115 115 64 115 115 64 115 115 64 115 115 64 115 115 64 115 115 64 115 115 64 115 115 64 115 115 64 115 115 64 115 115 64 115 115 64 115 115 64 115 115 64 115 115 64 115 115 64 115 115 64 115 115 64 115 115 64 115 115 64 115 115 64 115 115 64 115 115 64 115 115 64 115 115 64 115 115 64 115 115 64 115 115 128 115 26 128 115 26 128 115 26 128 115 26 128 115 26 128 115 26 128 115 26 128 115 26 128 115 26 128 115 26 128 115 26 128 115 26 128 115 26 128 115 26 128 115 26 128 115 26 128 115 26 128 115 26 128 115 26 128 115 26 128 115 26 128 115 26 128 115 26 128 115 26 128 115 26 128 115 26 128 115 26 128 115 26 128 115 26 128 115 26 128 115 26 128 115 26 128 115 26 128 115 26 128 115 26 128 115 26 128 115 26 128 115 26 128 115 26 128 115 26 128 115 26 128 115 26 128 115 26 128 115 26 128 115 26 128 115 26 128 115 26 128 115 26 128 115 26 128 115 26 128 115 26 128 115 26 128 115 26 128 115 26 128 115 26 128 115 26 128 115 26 128 115 26 128 115 26 128 115 26 128 115 26 128 115 26 128 115 26 128 115 26 128 115 26 128 115 26 128 115 26 128 115 26 128 115 26 128 115 26 128 115 26 128 115 26 128 115 26 128 115 26 128 115 26 128 115 26 128 115 26 128 115 26 128 115 26 128 115 26 128 115 26 128 115 26 128 115 26 128 115 26 128 115 26 128 115 26 128 115 26 128 115 26 128 115 26 128 115 26 128 115 26 128 115 26 128 115 26 128 115 26 128 115 26 128 115 26 128 115 26 128 115 26 128 115 26 128 115 26 
64 115 115 64 115 115 64 115 115 64 115 115 64 115 115 64 115 115 64 115 115 64 115 115 64 115 115 64 115 115 64 115 115 64 115 115 64 115 115 64 115 115 64 115 115 64 115 115 64 115 115 64 115 115 64 115 115 64 115 115 64 115 115 64 115 115 64 115 115 64 115 115 64 115 115 64 115 115 64 115 115 64 115 115 64 115 115 64 115 115 64 115 115 64 115 115 64 115 115 64 115 115 64 115 115 64 115 115 64 115 115 64 115 115 64 115 115 64 115 115 64 115 115 64 115 115 64 115 115 64 115 115 64 115 115 64 115 115 64 115 115 64 115 115 64 115 115 64 115 115 64 115 115 64 115 115 64 115 115 64 115 115 64 115 115 64 115 115 64 115 115 64 115 115 64 115 115 64 115 115 64 115 115 64 115 115 64 115 115 64 115 115 64 115 115 64 115 115 64 115 115 64 115 115 64 115 115 64 115 115 64 115 115 64 115 115 64 115 115 64 115 115 64 115 115 64 115 115 64 115 115 64 115 115 64 115 115 64 115 115 64 115 115 64 115 115 64 115 115 64 115 115 64 115 115 64 115 115 64 115 115 64 115 115 64 115 115 64 115 115 64 115 115 64 115 115 64 115 115 64 115 115 64 115 115 64 115 115 64 115 115 64 115 115 64 115 115 64 115 115 128 115 26 128 115 26 128 115 26 128 115 26 128 115 26 128 115 26 128 115 26 128 115 26 128 115 26 128 115 26 128 115 26 128 115 26 128 115 26 128 115 26 128 115 26 128 115 26 128 115 26 128 115 26 128 115 26 128 115 26 128 115 26 128 115 26 128 115 26 128 115 26 128 115 26 128 115 26 128 115 26 128 115 26 128 115 26 128 115 26 128 115 26 128 115 26 128 115 26 128 115 26 128 115 26 128 115 26 128 115 26 128 115 26 128 115 26 128 115 26 128 115 26 128 115 26 128 115 26 128 115 26 128 115 26 128 115 26 128 115 26 128 115 26 128 115 26 128 115 26 128 115 26 128 115 26 128 115 26 128 115 26 128 115 26 128 115 26 128 115 26 128 115 26 128 115 26 128 115 26 128 115 26 128 115 26 128 115 26 128 115 26 128 115 26 128 115 26 128 115 26 128 115 26 128 115 26 128 115 26 128 115 26 128 115 26 128 115 26 128 115 26 128 115 26 128 115 26 128 115 26 128 115 26 128 115 26 128 115 26 128 115 26 128 115 26 128 115 26 128 115 26 128 115 26 128 115 26 128 115 26 128 115 26 128 115 26 128 115 26 128 115 26 128 115 26 128 115 26 128 115 26 128 115 26 128 115 26 128 115 26 128 115 26 128 115 26 128 115 26 
64 115 115 64 115 115 64 115 115 64 115 115 64 115 115 64 115 115 64 115 115 64 115 115 64 115 115 64 115 115 64 115 115 64 115 115 64 115 115 64 115 115 64 115 115 64 115 115 64 115 115 64 115 115 64 115 115 64 115 115 64 115 115 64 115 115 64 115 115 64 115 115 64 115 115 64 115 115 64 115 115 64 115 115 64 115 115 64 115 115 64 115 115 64 115 115 64 115 115 64 115 115 64 115 115 64 115 115 64 115 115 64 115 115 64 115 115 64 115 115 64 115 115 64 115 115 64 115 115 64 115 115 64 115 115 64 115 115 64 115 115 64 115 115 64 115 115 64 115 115 64 115 115 64 115 115 64 115 115 64 115 115 64 115 115 64 115 115 64 115 115 64 115 115 64 115 115 64 115 115 64 115 115 64 115 115 64 115 115 64 115 115 64 115 115 64 115 115 64 115 115 64 115 115 64 115 115 64 115 115 64 115 115 64 115 115 64 115 115 64 115 115 64 115 115 64 115 115 64 115 115 64 115 115 64 115 115 64 115 115 64 115 115 64 115 115 64 115 115 64 115 115 64 115 115 64 115 115 64 115 115 64 115 115 64 115 115 64 115 115 64 115 115 64 115 115 64 115 115 64 115 115 64 115 115 64 115 115 64 115 115 64 115 115 64 115 115 64 115 115 128 115 26 128 115 26 128 115 26 128 115 26 128 115 26 128 115 26 128 115 26 128 115 26 128 115 26 128 115 26 128 115 26 128 115 26 128 115 26 128 115 26 128 115 26 128 115 26 128 115 26 128 115 26 128 115 26 128 115 26 128 115 26 128 115 26 128 115 26 128 115 26 128 115 26 128 115 26 128 115 26 128 115 26 128 115 26 128 115 26 128 115 26 128 115 26 128 115 26 128 115 26 128 115 26 128 115 26 128 115 26 128 115 26 128 115 26 128 115 26 128 115 26 128 115 26 128 115 26 128 115 26 128 115 26 128 115 26 128 115 26 128 115 26 128 115 26 128 115 26 128 115 26 128 115 26 128 115 26 128 115 26 128 115 26 128 115 26 128 115 26 128 115 26 128 115 26 128 115 26 128 115 26 128 115 26 128 115 26 128 115 26 128 115 26 128 115 26 128 115 26 128 115 26 128 115 26 128 115 26 128 115 26 128 115 26 128 115 26 128 115 26 128 115 26 128 115 26 128 115 26 128 115 26 128 115 26 128 115 26 128 115 26 128 115 26 128 115 26 128 115 26 128 115 26 128 115 26 128 115 26 128 115 26 128 115 26 128 115 26 128 115 26 128 115 26 128 115 26 128 115 26 128 115 26 128 115 26 128 115 26 128 115 26 128 115 26 128 115 26 
64 115 115 64 115 115 64 115 115 64 115 115 64 115 115 64 115 115 64 115 115 64 115 115 64 115 115 64 115 115 64 115 115 64 115 115 64 115 115 64 115 115 64 115 115 64 115 115 64 115 115 64 115 115 64 115 115 64 115 115 64 115 115 64 115 115 64 115 115 64 115 115 64 115 115 64 115 115 64 115 115 64 115 115 64 115 115 64 115 115 64 115 115 64 115 115 64 115 115 64 115 115 64 115 115 64 115 115 64 115 115 64 115 115 64 115 115 64 115 115 64 115 115 64 115 115 64 115 115 64 115 115 64 115 115 64 115 115 64 115 115 64 115 115 64 115 115 64 115 115 64 115 115 64 115 115 64 115 115 64 115 115 64 115 115 64 115 115 64 115 115 64 115 115 64 115 115 64 115 115 64 115 115 64 115 115 64 115 115 64 115 115 64 115 115 64 115 115 64 115 115 64 115 115 64 115 115 64 115 115 64 115 115 64 115 115 64 115 115 64 115 115 64 115 115 64 115 115 64 115 115 64 115 115 64 115 115 64 115 115 64 115 115 64 115 115 64 115 115 64 115 115 64 115 115 64 115 115 64 115 115 64 115 115 64 115 115 64 115 115 64 115 115 64 115 115 64 115 115 64 115 115 64 115 115 64 115 115 64 115 115 64 115 115 64 115 115 64 115 115 128 115 26 128 115 26 128 115 26 128 115 26 128 115 26 128 115 26 128 115 26 128 115 26 128 115 26 128 115 26 128 115 26 128 115 26 128 115 26 128 115 26 128 115 26 128 115 26 128 115 26 128 115 26 128 115 26 128 115 26 128 115 26 128 115 26 128 115 26 128 115 26 128 115 26 128 115 26 128 115 26 128 115 26 128 115 26 128 115 26 128 115 26 128 115 26 128 115 26 128 115 26 128 115 26 128 115 26 128 115 26 128 115 26 128 115 26 128 115 26 128 115 26 128 115 26 128 115 26 128 115 26 128 115 26 128 115 26 128 115 26 128 115 26 128 115 26 128 115 26 128 115 26 128 115 26 128 115 26 128 115 26 128 115 26 128 115 26 128 115 26 128 115 26 128 115 26 128 115 26 128 115 26 128 115 26 128 115 26 128 115 26 128 115 26 128 115 26 128 115 26 128 115 26 128 115 26 128 115 26 128 115 26 128 115 26 128 115 26 128 115 26 128 115 26 128 115 26 128 115 26 128 115 26 128 115 26 128 115 26 128 115 26 128 115 26 128 115 26 128 115 26 128 115 26 128 115 26 128 115 26 128 115 26 128 115 26 128 115 26 128 115 26 128 115 26 128 115 26 128 115 26 128 115 26 128 115 26 128 115 26 128 115 26 128 115 26 128 115 26 
64 115 115 64 115 115 64 115 115 64 115 115 64 115 115 64 115 115 64 115 115 64 115 115 64 115 115 64 115 115 64 115 115 64 115 115 64 115 115 64 115 115 64 115 115 64 115 115 64 115 115 64 115 115 64 115 115 64 115 115 64 115 115 64 115 115 64 115 115 64 115 115 64 115 115 64 115 115 64 115 115 64 115 115 64 115 115 64 115 115 64 115 115 64 115 115 64 115 115 64 115 115 64 115 115 64 115 115 64 115 115 64 115 115 64 115 115 64 115 115 64 115 115 64 115 115 64 115 115 64 115 115 64 115 115 64 115 115 64 115 115 64 115 115 64 115 115 64 115 115 64 115 115 64 115 115 64 115 115 64 115 115 64 115 115 64 115 115 64 115 115 64 115 115 64 115 115 64 115 115 64 115 115 64 115 115 64 115 115 64 115 115 64 115 115 64 115 115 64 115 115 64 115 115 64 115 115 64 115 115 64 115 115 64 115 115 64 115 115 64 115 115 64 115 115 64 115 115 64 115 115 64 115 115 64 115 115 64 115 115 64 115 115 64 115 115 64 115 115 64 115 115 64 115 115 64 115 115 64 115 115 64 115 115 64 115 115 64 115 115 64 115 115 64 115 115 64 115 115 64 115 115 64 115 115 64 115 115 64 115 115 64 115 115 64 115 115 64 115 115 128 115 26 128 115 26 128 115 26 128 115 26 128 115 26 128 115 26 128 115 26 128 115 26 128 115 26 128 115 26 128 115 26 128 115 26 128 115 26 128 115 26 128 115 26 128 115 26 128 115 26 128 115 26 128 115 26 128 115 26 128 115 26 128 115 26 128 115 26 128 115 26 128 115 26 128 115 26 128 115 26 128 115 26 128 115 26 128 115 26 128 115 26 128 115 26 128 115 26 128 115 26 128 115 26 128 115 26 128 115 26 128 115 26 128 115 26 128 115 26 128 115 26 128 115 26 128 115 26 128 115 26 128 115 26 128 115 26 128 115 26 128 115 26 128 115 26 128 115 26 128 115 26 128 115 26 128 115 26 128 115 26 128 115 26 128 115 26 128 115 26 128 115 26 128 115 26 128 115 26 128 115 26 128 115 26 128 115 26 128 115 26 128 115 26 128 115 26 128 115 26 128 115 26 128 115 26 128 115 26 128 115 26 128 115 26 128 115 26 128 115 26 128 115 26 128 115 26 128 115 26 128 115 26 128 115 26 128 115 26 128 115 26 128 115 26 128 115 26 128 115 26 128 115 26 128 115 26 128 115 26 128 115 26 128 115 26 128 115 26 128 115 26 128 115 26 128 115 26 128 115 26 128 115 26 128 115 26 128 115 26 128 115 26 128 115 26 128 115 26 
64 115 115 64 115 115 64 115 115 64 115 115 64 115 115 64 115 115 64 115 115 64 115 115 64 115 115 64 115 115 64 115 115 64 115 115 64 115 115 64 115 115 64 115 115 64 115 115 64 115 115 64 115 115 64 115 115 64 115 115 64 115 115 64 115 115 64 115 115 64 115 115 64 115 115 64 115 115 64 115 115 64 115 115 64 115 115 64 115 115 64 115 115 64 115 115 64 115 115 64 115 115 64 115 115 64 115 115 64 115 115 64 115 115 64 115 115 64 115 115 64 115 115 64 115 115 64 115 115 64 115 115 64 115 115 64 115 115 64 115 115 64 115 115 64 115 115 64 115 115 64 115 115 64 115 115 64 115 115 64 115 115 64 115 115 64 115 115 64 115 115 64 115 115 64 115 115 64 115 115 64 115 115 64 115 115 64 115 115 64 115 115 64 115 115 64 115 115 64 115 115 64 115 115 64 115 115 64 115 115 64 115 115 64 115 115 64 115 115 64 115 115 64 115 115 64 115 115 64 115 115 64 115 115 64 115 115 64 115 115 64 115 115 64 115 115 64 115 115 64 115 115 64 115 115 64 115 115 64 115 115 64 115 115 64 115 115 64 115 115 64 115 115 64 115 115 64 115 115 64 115 115 64 115 115 64 115 115 64 115 115 64 115 115 64 115 115 64 115 115 128 115 26 128 115 26 128 115 26 128 115 26 128 115 26 128 115 26 128 115 26 128 115 26 128 115 26 128 115 26 128 115 26 128 115 26 128 115 26 128 115 26 128 115 26 128 115 26 128 115 26 128 115 26 128 115 26 128 115 26 128 115 26 128 115 26 128 115 26 128 115 26 128 115 26 128 115 26 128 115 26 128 115 26 128 115 26 128 115 26 128 115 26 128 115 26 128 115 26 128 115 26 128 115 26 128 115 26 128 115 26 128 115 26 128 115 26 128 115 26 128 115 26 128 115 26 128 115 26 128 115 26 128 115 26 128 115 26 128 115 26 128 115 26 128 115 26 128 115 26 128 115 26 128 115 26 128 115 26 128 115 26 128 115 26 128 115 26 128 115 26 128 115 26 128 115 26 128 115 26 128 115 26 128 115 26 128 115 26 128 115 26 128 115 26 128 115 26 128 115 26 128 115 26 128 115 26 128 115 26 128 115 26 128 115 26 128 115 26 128 115 26 128 115 26 128 115 26 128 115 26 128 115 26 128 115 26 128 115 26 128 115 26 128 115 26 128 115 26 128 115 26 128 115 26 128 115 26 128 115 26 128 115 26 128 115 26 128 115 26 128 115 26 128 115 26 128 115 26 128 115 26 128 115 26 128 115 26 128 115 26 128 115 26 128 115 26 128 115 26 
64 115 115 64 115 115 64 115 115 64 115 115 64 115 115 64 115 115 64 115 115 64 115 115 64 115 115 64 115 115 64 115 115 64 115 115 64 115 115 64 115 115 64 115 115 64 115 115 64 115 115 64 115 115 64 115 115 64 115 115 64 115 115 64 115 115 64 115 115 64 115 115 64 115 115 64 115 115 64 115 115 64 115 115 64 115 115 64 115 115 64 115 115 64 115 115 64 115 115 64 115 115 64 115 115 64 115 115 64 115 115 64 115 115 64 115 115 64 115 115 64 115 115 64 115 115 64 115 115 64 115 115 64 115 115 64 115 115 64 115 115 64 115 115 64 115 115 64 115 115 64 115 115 64 115 115 64 115 115 64 115 115 64 115 115 64 115 115 64 115 115 64 115 115 64 115 115 64 115 115 64 115 115 64 115 115 64 115 115 64 115 115 64 115 115 64 115 115 64 115 115 64 115 115 64 115 115 64 115 115 64 115 115 64 115 115 64 115 115 64 115 115 64 115 115 64 115 115 64 115 115 64 115 115 64 115 115 64 115 115 64 115 115 64 115 115 64 115 115 64 115 115 64 115 115 64 115 115 64 115 115 64 115 115 64 115 115 64 115 115 64 115 115 64 115 115 64 115 115 64 115 115 64 115 115 64 115 115 64 115 115 64 115 115 64 115 115 64 115 115 128 115 26 128 115 26 128 115 26 128 115 26 128 115 26 128 115 26 128 115 26 128 115 26 128 115 26 128 115 26 128 115 26 128 115 26 128 115 26 128 115 26 128 115 26 128 115 26 128 115 26 128 115 26 128 115 26 128 115 26 128 115 26 128 115 26 128 115 26 128 115 26 128 115 26 128 115 26 128 115 26 128 115 26 128 115 26 128 115 26 128 115 26 128 115 26 128 115 26 128 115 26 128 115 26 128 115 26 128 115 26 128 115 26 128 115 26 128 115 26 128 115 26 128 115 26 128 115 26 128 115 26 128 115 26 128 115 26 128 115 26 128 115 26 128 115 26 128 115 26 128 115 26 128 115 26 128 115 26 128 115 26 128 115 26 128 115 26 128 115 26 128 115 26 128 115 26 128 115 26 128 115 26 128 115 26 128 115 26 128 115 26 128 115 26 128 115 26 128 115 26 128 115 26 128 115 26 128 115 26 128 115 26 128 115 26 128 115 26 128 115 26 128 115 26 128 115 26 128 115 26 128 115 26 128 115 26 128 115 26 128 115 26 128 115 26 128 115 26 128 115 26 128 115 26 128 115 26 128 115 26 128 115 26 128 115 26 128 115 26 128 115 26 128 115 26 128 115 26 128 115 26 128 115 26 128 115 26 128 115 26 128 115 26 128 115 26 128 115 26 
64 115 115 64 115 115 64 115 115 64 115 115 64 115 115 64 115 115 64 115 115 64 115 115 64 115 115 64 115 115 64 115 115 64 115 115 64 115 115 64 115 115 64 115 115 64 115 115 64 115 115 64 115 115 64 115 115 64 115 115 64 115 115 64 115 115 64 115 115 64 115 115 64 115 115 64 115 115 64 115 115 64 115 115 64 115 115 64 115 115 64 115 115 64 115 115 64 115 115 64 115 115 64 115 115 64 115 115 64 115 115 64 115 115 64 115 115 64 115 115 64 115 115 64 115 115 64 115 115 64 115 115 64 115 115 64 115 115 64 115 115 64 115 115 64 115 115 64 115 115 64 115 115 64 115 115 64 115 115 64 115 115 64 115 115 64 115 115 64 115 115 64 115 115 64 115 115 64 115 115 64 115 115 64 115 115 64 115 115 64 115 115 64 115 115 64 115 115 64 115 115 64 115 115 64 115 115 64 115 115 64 115 115 64 115 115 64 115 115 64 115 115 64 115 115 64 115 115 64 115 115 64 115 115 64 115 115 64 115 115 64 115 115 64 115 115 64 115 115 64 115 115 64 115 115 64 115 115 64 115 115 64 115 115 64 115 115 64 115 115 64 115 115 64 115 115 64 115 115 64 115 115 64 115 115 64 115 115 64 115 115 64 115 115 64 115 115 64 115 115 128 115 26 128 115 26 128 115 26 128 115 26 128 115 26 128 115 26 128 115 26 128 115 26 128 115 26 128 115 26 128 115 26 128 115 26 128 115 26 128 115 26 128 115 26 128 115 26 128 115 26 128 115 26 128 115 26 128 115 26 128 115 26 128 115 26 128 115 26 128 115 26 128 115 26 128 115 26 128 115 26 128 115 26 128 115 26 128 115 26 128 115 26 128 115 26 128 115 26 128 115 26 128 115 26 128 115 26 128 115 26 128 115 26 128 115 26 128 115 26 128 115 26 128 115 26 128 115 26 128 115 26 128 115 26 128 115 26 128 115 26 128 115 26 128 115 26 128 115 26 128 115 26 128 115 26 128 115 26 128 115 26 128 115 26 128 115 26 128 115 26 128 115 26 128 115 26 128 115 26 128 115 26 128 115 26 128 115 26 128 115 26 128 115 26 128 115 26 128 115 26 128 115 26 128 115 26 128 115 26 128 115 26 128 115 26 128 115 26 128 115 26 128 115 26 128 115 26 128 115 26 128 115 26 128 115 26 128 115 26 128 115 26 128 115 26 128 115 26 128 115 26 128 115 26 128 115 26 128 115 26 128 115 26 128 115 26 128 115 26 128 115 26 128 115 26 128 115 26 128 115 26 128 115 26 128 115 26 128 115 26 128 115 26 128 115 26 128 115 26 
64 115 115 64 115 115 64 115 115 64 115 115 64 115 115 64 115 115 64 115 115 64 115 115 64 115 115 64 115 115 64 115 115 64 115 115 64 115 115 64 115 115 64 115 115 64 115 115 64 115 115 64 115 115 64 115 115 64 115 115 64 115 115 64 115 115 64 115 115 64 115 115 64 115 115 64 115 115 64 115 115 64 115 115 64 115 115 64 115 115 64 115 115 64 115 115 64 115 115 64 115 115 64 115 115 64 115 115 64 115 115 64 115 115 64 115 115 64 115 115 64 115 115 64 115 115 64 115 115 64 115 115 64 115 115 64 115 115 64 115 115 64 115 115 64 115 115 64 115 115 64 115 115 64 115 115 64 115 115 64 115 115 64 115 115 64 115 115 64 115 115 64 115 115 64 115 115 64 115 115 64 115 115 64 115 115 64 115 115 64 115 115 64 115 115 64 115 115 64 115 115 64 115 115 64 115 115 64 115 115 64 115 115 64 115 115 64 115 115 64 115 115 64 115 115 64 115 115 64 115 115 64 115 115 64 115 115 64 115 115 64 115 115 64 115 115 64 115 115 64 115 115 64 115 115 64 115 115 64 115 115 64 115 115 64 115 115 64 115 115 64 115 115 64 115 115 64 115 115 64 115 115 64 115 115 64 115 115 64 115 115 64 115 115 64 115 115 64 115 115 128 115 26 128 115 26 128 115 26 128 115 26 128 115 26 128 115 26 128 115 26 128 115 26 128 115 26 128 115 26 128 115 26 128 115 26 128 115 26 128 115 26 128 115 26 128 115 26 128 115 26 128 115 26 128 115 26 128 115 26 128 115 26 128 115 26 128 115 26 128 115 26 128 115 26 128 115 26 128 115 26 128 115 26 128 115 26 128 115 26 128 115 26 128 115 26 128 115 26 128 115 26 128 115 26 128 115 26 128 115 26 128 115 26 128 115 26 128 115 26 128 115 26 128 115 26 128 115 26 128 115 26 128 115 26 128 115 26 128 115 26 128 115 26 128 115 26 128 115 26 128 115 26 128 115 26 128 115 26 128 115 26 128 115 26 128 115 26 128 115 26 128 115 26 128 115 26 128 115 26 128 115 26 128 115 26 128 115 26 128 115 26 128 115 26 128 115 26 128 115 26 128 115 26 128 115 26 128 115 26 128 115 26 128 115 26 128 115 26 128 115 26 128 115 26 128 115 26 128 115 26 128 115 26 128 115 26 128 115 26 128 115 26 128 115 26 128 115 26 128 115 26 128 115 26 128 115 26 128 115 26 128 115 26 128 115 26 128 115 26 128 115 26 128 115 26 128 115 26 128 115 26 128 115 26 128 115 26 128 115 26 128 115 26 128 115 26 128 115 26 
64 115 115 64 115 115 64 115 115 64 115 115 64 115 115 64 115 115 64 115 115 64 115 115 64 115 115 64 115 115 64 115 115 64 115 115 64 115 115 64 115 115 64 115 115 64 115 115 64 115 115 64 115 115 64 115 115 64 115 115 64 115 115 64 115 115 64 115 115 64 115 115 64 115 115 64 115 115 64 115 115 64 115 115 64 115 115 64 115 115 64 115 115 64 115 115 64 115 115 64 115 115 64 115 115 64 115 115 64 115 115 64 115 115 64 115 115 64 115 115 64 115 115 64 115 115 64 115 115 64 115 115 64 115 115 64 115 115 64 115 115 64 115 115 64 115 115 64 115 115 64 115 115 64 115 115 64 115 115 64 115 115 64 115 115 64 115 115 64 115 115 64 115 115 64 115 115 64 115 115 64 115 115 64 115 115 64 115 115 64 115 115 64 115 115 64 115 115 64 115 115 64 115 115 64 115 115 64 115 115 64 115 115 64 115 115 64 115 115 64 115 115 64 115 115 64 115 115 64 115 115 64 115 115 64 115 115 64 115 115 64 115 115 64 115 115 64 115 115 64 115 115 64 115 115 64 115 115 64 115 115 64 115 115 64 115 115 64 115 115 64 115 115 64 115 115 64 115 115 64 115 115 64 115 115 64 115 115 64 115 115 64 115 115 64 115 115 64 115 115 128 115 26 128 115 26 128 115 26 128 115 26 128 115 26 128 115 26 128 115 26 128 115 26 128 115 26 128 115 26 128 115 26 128 115 26 128 115 26 128 115 26 128 115 26 128 115 26 128 115 26 128 115 26 128 115 26 128 115 26 128 115 26 128 115 26 128 115 26 128 115 26 128 115 26 128 115 26 128 115 26 128 115 26 128 115 26 128 115 26 128 115 26 128 115 26 128 115 26 128 115 26 128 115 26 128 115 26 128 115 26 128 115 26 128 115 26 128 115 26 128 115 26 128 115 26 128 115 26 128 115 26 128 115 26 128 115 26 128 115 26 128 115 26 128 115 26 128 115 26 128 115 26 128 115 26 128 115 26 128 115 26 128 115 26 128 115 26 128 115 26 128 115 26 128 115 26 128 115 26 128 115 26 128 115 26 128 115 26 128 115 26 128 115 26 128 115 26 128 115 26 128 115 26 128 115 26 128 115 26 128 115 26 128 115 26 128 115 26 128 115 26 128 115 26 128 115 26 128 115 26 128 115 26 128 115 26 128 115 26 128 115 26 128 115 26 128 115 26 128 115 26 128 115 26 128 115 26 128 115 26 128 115 26 128 115 26 128 115 26 128 115 26 128 115 26 128 115 26 128 115 26 128 115 26 128 115 26 128 115 26 128 115 26 128 115 26 128 115 26 
64 115 115 64 115 115 64 115 115 64 115 115 64 115 115 64 115 115 64 115 115 64 115 115 64 115 115 64 115 115 64 115 115 64 115 115 64 115 115 64 115 115 64 115 115 64 115 115 64 115 115 64 115 115 64 115 115 64 115 115 64 115 115 64 115 115 64 115 115 64 115 115 64 115 115 64 115 115 64 115 115 64 115 115 64 115 115 64 115 115 64 115 115 64 115 115 64 115 115 64 115 115 64 115 115 64 115 115 64 115 115 64 115 115 64 115 115 64 115 115 64 115 115 64 115 115 64 115 115 64 115 115 64 115 115 64 115 115 64 115 115 64 115 115 64 115 115 64 115 115 64 115 115 64 115 115 64 115 115 64 115 115 64 115 115 64 115 115 64 115 115 64 115 115 64 115 115 64 115 115 64 115 115 64 115 115 64 115 115 64 115 115 64 115 115 64 115 115 64 115 115 64 115 115 64 115 115 64 115 115 64 115 115 64 115 115 64 115 115 64 115 115 64 115 115 64 115 115 64 115 115 64 115 115 64 115 115 64 115 115 64 115 115 64 115 115 64 115 115 64 115 115 64 115 115 64 115 115 64 115 115 64 115 115 64 115 115 64 115 115 64 115 115 64 115 115 64 115 115 64 115 115 64 115 115 64 115 115 64 115 115 64 115 115 64 115 115 64 115 115 128 115 26 128 115 26 128 115 26 128 115 26 128 115 26 128 115 26 128 115 26 128 115 26 128 115 26 128 115 26 128 115 26 128 115 26 128 115 26 128 115 26 128 115 26 128 115 26 128 115 26 128 115 26 128 115 26 128 115 26 128 115 26 128 115 26 128 115 26 128 115 26 128 115 26 128 115 26 128 115 26 128 115 26 128 115 26 128 115 26 128 115 26 128 115 26 128 115 26 128 115 26 128 115 26 128 115 26 128 115 26 128 115 26 128 115 26 128 115 26 128 115 26 128 115 26 128 115 26 128 115 26 128 115 26 128 115 26 128 115 26 128 115 26 128 115 26 128 115 26 128 115 26 128 115 26 128 115 26 128 115 26 128 115 26 128 115 26 128 115 26 128 115 26 128 115 26 128 115 26 128 115 26 128 115 26 128 115 26 128 115 26 128 115 26 128 115 26 128 115 26 128 115 26 128 115 26 128 115 26 128 115 26 128 115 26 128 115 26 128 115 26 128 115 26 128 115 26 128 115 26 128 115 26 128 115 26 128 115 26 128 115 26 128 115 26 128 115 26 128 115 26 128 115 26 128 115 26 128 115 26 128 115 26 128 115 26 128 115 26 128 115 26 128 115 26 128 115 26 128 115 26 128 115 26 128 115 26 128 115 26 128 115 26 128 115 26 128 115 26 
64 115 115 64 115 115 64 115 115 64 115 115 64 115 115 64 115 115 64 115 115 64 115 115 64 115 115 64 115 115 64 115 115 64 115 115 64 115 115 64 115 115 64 115 115 64 115 115 64 115 115 64 115 115 64 115 115 64 115 115 64 115 115 64 115 115 64 115 115 64 115 115 64 115 115 64 115 115 64 115 115 64 115 115 64 115 115 64 115 115 64 115 115 64 115 115 64 115 115 64 115 115 64 115 115 64 115 115 64 115 115 64 115 115 64 115 115 64 115 115 64 115 115 64 115 115 64 115 115 64 115 115 64 115 115 64 115 115 64 115 115 64 115 115 64 115 115 64 115 115 64 115 115 64 115 115 64 115 115 64 115 115 64 115 115 64 115 115 64 115 115 64 115 115 64 115 115 64 115 115 64 115 115 64 115 115 64 115 115 64 115 115 64 115 115 64 115 115 64 115 115 64 115 115 64 115 115 64 115 115 64 115 115 64 115 115 64 115 115 64 115 115 64 115 115 64 115 115 64 115 115 64 115 115 64 115 115 64 115 115 64 115 115 64 115 115 64 115 115 64 115 115 64 115 115 64 115 115 64 115 115 64 115 115 64 115 115 64 115 115 64 115 115 64 115 115 64 115 115 64 115 115 64 115 115 64 115 115 64 115 115 64 115 115 64 115 115 64 115 115 128 115 26 128 115 26 128 115 26 128 115 26 128 115 26 128 115 26 128 115 26 128 115 26 128 115 26 128 115 26 128 115 26 128 115 26 128 115 26 128 115 26 128 115 26 128 115 26 128 115 26 128 115 26 128 115 26 128 115 26 128 115 26 128 115 26 128 115 26 128 115 26 128 115 26 128 115 26 128 115 26 128 115 26 128 115 26 128 115 26 128 115 26 128 115 26 128 115 26 128 115 26 128 115 26 128 115 26 128 115 26 128 115 26 128 115 26 128 115 26 128 115 26 128 115 26 128 115 26 128 115 26 128 115 26 128 115 26 128 115 26 128 115 26 128 115 26 128 115 26 128 115 26 128 115 26 128 115 26 128 115 26 128 115 26 128 115 26 128 115 26 128 115 26 128 115 26 128 115 26 128 115 26 128 115 26 128 115 26 128 115 26 128 115 26 128 115 26 128 115 26 128 115 26 128 115 26 128 115 26 128 115 26 128 115 26 128 115 26 128 115 26 128 115 26 128 115 26 128 115 26 128 115 26 128 115 26 128 115 26 128 115 26 128 115 26 128 115 26 128 115 26 128 115 26 128 115 26 128 115 26 128 115 26 128 115 26 128 115 26 128 115 26 128 115 26 128 115 26 128 115 26 128 115 26 128 115 26 128 115 26 128 115 26 128 115 26 128 115 26 
64 115 115 64 115 115 64 115 115 64 115 115 64 115 115 64 115 115 64 115 115 64 115 115 64 115 115 64 115 115 64 115 115 64 115 115 64 115 115 64 115 115 64 115 115 64 115 115 64 115 115 64 115 115 64 115 115 64 115 115 64 115 115 64 115 115 64 115 115 64 115 115 64 115 115 64 115 115 64 115 115 64 115 115 64 115 115 64 115 115 64 115 115 64 115 115 64 115 115 64 115 115 64 115 115 64 115 115 64 115 115 64 115 115 64 115 115 64 115 115 64 115 115 64 115 115 64 115 115 64 115 115 64 115 115 64 115 115 64 115 115 64 115 115 64 115 115 64 115 115 64 115 115 64 115 115 64 115 115 64 115 115 64 115 115 64 115 115 64 115 115 64 115 115 64 115 115 64 115 115 64 115 115 64 115 115 64 115 115 64 115 115 64 115 115 64 115 115 64 115 115 64 115 115 64 115 115 64 115 115 64 115 115 64 115 115 64 115 115 64 115 115 64 115 115 64 115 115 64 115 115 64 115 115 64 115 115 64 115 115 64 115 115 64 115 115 64 115 115 64 115 115 64 115 115 64 115 115 64 115 115 64 115 115 64 115 115 64 115 115 64 115 115 64 115 115 64 115 115 64 115 115 64 115 115 64 115 115 64 115 115 64 115 115 64 115 115 64 115 115 128 115 26 128 115 26 128 115 26 128 115 26 128 115 26 128 115 26 128 115 26 128 115 26 128 115 26 128 115 26 128 115 26 128 115 26 128 115 26 128 115 26 128 115 26 128 115 26 128 115 26 128 115 26 128 115 26 128 115 26 128 115 26 128 115 26 128 115 26 128 115 26 128 115 26 128 115 26 128 115 26 128 115 26 128 115 26 128 115 26 128 115 26 128 115 26 128 115 26 128 115 26 128 115 26 128 115 26 128 115 26 128 115 26 128 115 26 128 115 26 128 115 26 128 115 26 128 115 26 128 115 26 128 115 26 128 115 26 128 115 26 128 115 26 128 115 26 128 115 26 128 115 26 128 115 26 128 115 26 128 115 26 128 115 26 128 115 26 128 115 26 128 115 26 128 115 26 128 115 26 128 115 26 128 115 26 128 115 26 128 115 26 128 115 26 128 115 26 128 115 26 128 115 26 128 115 26 128 115 26 128 115 26 128 115 26 128 115 26 128 115 26 128 115 26 128 115 26 128 115 26 128 115 26 128 115 26 128 115 26 128 115 26 128 115 26 128 115 26 128 115 26 128 115 26 128 115 26 128 115 26 128 115 26 128 115 26 128 115 26 128 115 26 128 115 26 128 115 26 128 115 26 128 115 26 128 115 26 128 115 26 128 115 26 128 115 26 128 115 26 
64 115 115 64 115 115 64 115 115 64 115 115 64 115 115 64 115 115 64 115 115 64 115 115 64 115 115 64 115 115 64 115 115 64 115 115 64 115 115 64 115 115 64 115 115 64 115 115 64 115 115 64 115 115 64 115 115 64 115 115 64 115 115 64 115 115 64 115 115 64 115 115 64 115 115 64 115 115 64 115 115 64 115 115 64 115 115 64 115 115 64 115 115 64 115 115 64 115 115 64 115 115 64 115 115 64 115 115 64 115 115 64 115 115 64 115 115 64 115 115 64 115 115 64 115 115 64 115 115 64 115 115 64 115 115 64 115 115 64 115 115 64 115 115 64 115 115 64 115 115 64 115 115 64 115 115 64 115 115 64 115 115 64 115 115 64 115 115 64 115 115 64 115 115 64 115 115 64 115 115 64 115 115 64 115 115 64 115 115 64 115 115 64 115 115 64 115 115 64 115 115 64 115 115 64 115 115 64 115 115 64 115 115 64 115 115 64 115 115 64 115 115 64 115 115 64 115 115 64 115 115 64 115 115 64 115 115 64 115 115 64 115 115 64 115 115 64 115 115 64 115 115 64 115 115 64 115 115 64 115 115 64 115 115 64 115 115 64 115 115 64 115 115 64 115 115 64 115 115 64 115 115 64 115 115 64 115 115 64 115 115 64 115 115 64 115 115 64 115 115 128 115 26 128 115 26 128 115 26 128 115 26 128 115 26 128 115 26 128 115 26 128 115 26 128 115 26 128 115 26 128 115 26 128 115 26 128 115 26 128 115 26 128 115 26 128 115 26 128 115 26 128 115 26 128 115 26 128 115 26 128 115 26 128 115 26 128 115 26 128 115 26 128 115 26 128 115 26 128 115 26 128 115 26 128 115 26 128 115 26 128 115 26 128 115 26 128 115 26 128 115 26 128 115 26 128 115 26 128 115 26 128 115 26 128 115 26 128 115 26 128 115 26 128 115 26 128 115 26 128 115 26 128 115 26 128 115 26 128 115 26 128 115 26 128 115 26 128 115 26 128 115 26 128 115 26 128 115 26 128 115 26 128 115 26 128 115 26 128 115 26 128 115 26 128 115 26 128 115 26 128 115 26 128 115 26 128 115 26 128 115 26 128 115 26 128 115 26 128 115 26 128 115 26 128 115 26 128 115 26 128 115 26 128 115 26 128 115 26 128 115 26 128 115 26 128 115 26 128 115 26 128 115 26 128 115 26 128 115 26 128 115 26 128 115 26 128 115 26 128 115 26 128 115 26 128 115 26 128 115 26 128 115 26 128 115 26 128 115 26 128 115 26 128 115 26 128 115 26 128 115 26 128 115 26 128 115 26 128 115 26 128 115 26 128 115 26 128 115 26 
64 115 115 64 115 115 64 115 115 64 115 115 64 115 115 64 115 115 64 115 115 64 115 115 64 115 115 64 115 115 64 115 115 64 115 115 64 115 115 64 115 115 64 115 115 64 115 115 64 115 115 64 115 115 64 115 115 64 115 115 64 115 115 64 115 115 64 115 115 64 115 115 64 115 115 64 115 115 64 115 115 64 115 115 64 115 115 64 115 115 64 115 115 64 115 115 64 115 115 64 115 115 64 115 115 64 115 115 64 115 115 64 115 115 64 115 115 64 115 115 64 115 115 64 115 115 64 115 115 64 115 115 64 115 115 64 115 115 64 115 115 64 115 115 64 115 115 64 115 115 64 115 115 64 115 115 64 115 115 64 115 115 64 115 115 64 115 115 64 115 115 64 115 115 64 115 115 64 115 115 64 115 115 64 115 115 64 115 115 64 115 115 64 115 115 64 115 115 64 115 115 64 115 115 64 115 115 64 115 115 64 115 115 64 115 115 64 115 115 64 115 115 64 115 115 64 115 115 64 115 115 64 115 115 64 115 115 64 115 115 64 115 115 64 115 115 64 115 115 64 115 115 64 115 115 64 115 115 64 115 115 64 115 115 64 115 115 64 115 115 64 115 115 64 115 115 64 115 115 64 115 115 64 115 115 64 115 115 64 115 115 64 115 115 64 115 115 64 115 115 128 115 26 128 115 26 128 115 26 128 115 26 128 115 26 128 115 26 128 115 26 128 115 26 128 115 26 128 115 26 128 115 26 128 115 26 128 115 26 128 115 26 128 115 26 128 115 26 128 115 26 128 115 26 128 115 26 128 115 26 128 115 26 128 115 26 128 115 26 128 115 26 128 115 26 128 115 26 128 115 26 128 115 26 128 115 26 128 115 26 128 115 26 128 115 26 128 115 26 128 115 26 128 115 26 128 115 26 128 115 26 128 115 26 128 115 26 128 115 26 128 115 26 128 115 26 128 115 26 128 115 26 128 115 26 128 115 26 128 115 26 128 115 26 128 115 26 128 115 26 128 115 26 128 115 26 128 115 26 128 115 26 128 115 26 128 115 26 128 115 26 128 115 26 128 115 26 128 115 26 128 115 26 128 115 26 128 115 26 128 115 26 128 115 26 128 115 26 128 115 26 128 115 26 128 115 26 128 115 26 128 115 26 128 115 26 128 115 26 128 115 26 128 115 26 128 115 26 128 115 26 128 115 26 128 115 26 128 115 26 128 115 26 128 115 26 128 115 26 128 115 26 128 115 26 128 115 26 128 115 26 128 115 26 128 115 26 128 115 26 128 115 26 128 115 26 128 115 26 128 115 26 128 115 26 128 115 26 128 115 26 128 115 26 128 115 26 128 115 26 
64 115 115 64 115 115 64 115 115 64 115 115 64 115 115 64 115 115 64 115 115 64 115 115 64 115 115 64 115 115 64 115 115 64 115 115 64 115 115 64 115 115 64 115 115 64 115 115 64 115 115 64 115 115 64 115 115 64 115 115 64 115 115 64 115 115 64 115 115 64 115 115 64 115 115 64 115 115 64 115 115 64 115 115 64 115 115 64 115 115 64 115 115 64 115 115 64 115 115 64 115 115 64 115 115 64 115 115 64 115 115 64 115 115 64 115 115 64 115 115 64 115 115 64 115 115 64 115 115 64 115 115 64 115 115 64 115 115 64 115 115 64 115 115 64 115 115 64 115 115 64 115 115 64 115 115 64 115 115 64 115 115 64 115 115 64 115 115 64 115 115 64 115 115 64 115 115 64 115 115 64 115 115 64 115 115 64 115 115 64 115 115 64 115 115 64 115 115 64 115 115 64 115 115 64 115 115 64 115 115 64 115 115 64 115 115 64 115 115 64 115 115 64 115 115 64 115 115 64 115 115 64 115 115 64 115 115 64 115 115 64 115 115 64 115 115 64 115 115 64 115 115 64 115 115 64 115 115 64 115 115 64 115 115 64 115 115 64 115 115 64 115 115 64 115 115 64 115 115 64 115 115 64 115 115 64 115 115 64 115 115 64 115 115 64 115 115 64 115 115 128 115 26 128 115 26 128 115 26 128 115 26 128 115 26 128 115 26 128 115 26 128 115 26 128 115 26 128 115 26 128 115 26 128 115 26 128 115 26 128 115 26 128 115 26 128 115 26 128 115 26 128 115 26 128 115 26 128 115 26 128 115 26 128 115 26 128 115 26 128 115 26 128 115 26 128 115 26 128 115 26 128 115 26 128 115 26 128 115 26 128 115 26 128 115 26 128 115 26 128 115 26 128 115 26 128 115 26 128 115 26 128 115 26 128 115 26 128 115 26 128 115 26 128 115 26 128 115 26 128 115 26 128 115 26 128 115 26 128 115 26 128 115 26 128 115 26 128 115 26 128 115 26 128 115 26 128 115 26 128 115 26 128 115 26 128 115 26 128 115 26 128 115 26 128 115 26 128 115 26 128 115 26 128 115 26 128 115 26 128 115 26 128 115 26 128 115 26 128 115 26 128 115 26 128 115 26 128 115 26 128 115 26 128 115 26 128 115 26 128 115 26 128 115 26 128 115 26 128 115 26 128 115 26 128 115 26 128 115 26 128 115 26 128 115 26 128 115 26 128 115 26 128 115 26 128 115 26 128 115 26 128 115 26 128 115 26 128 115 26 128 115 26 128 115 26 128 115 26 128 115 26 128 115 26 128 115 26 128 115 26 128 115 26 128 115 26 128 115 26 
64 115 115 64 115 115 64 115 115 64 115 115 64 115 115 64 115 115 64 115 115 64 115 115 64 115 115 64 115 115 64 115 115 64 115 115 64 115 115 64 115 115 64 115 115 64 115 115 64 115 115 64 115 115 64 115 115 64 115 115 64 115 115 64 115 115 64 115 115 64 115 115 64 115 115 64 115 115 64 115 115 64 115 115 64 115 115 64 115 115 64 115 115 64 115 115 64 115 115 64 115 115 64 115 115 64 115 115 64 115 115 64 115 115 64 115 115 64 115 115 64 115 115 64 115 115 64 115 115 64 115 115 64 115 115 64 115 115 64 115 115 64 115 115 64 115 115 64 115 115 64 115 115 64 115 115 64 115 115 64 115 115 64 115 115 64 115 115 64 115 115 64 115 115 64 115 115 64 115 115 64 115 115 64 115 115 64 115 115 64 115 115 64 115 115 64 115 115 64 115 115 64 115 115 64 115 115 64 115 115 64 115 115 64 115 115 64 115 115 64 115 115 64 115 115 64 115 115 64 115 115 64 115 115 64 115 115 64 115 115 64 115 115 64 115 115 64 115 115 64 115 115 64 115 115 64 115 115 64 115 115 64 115 115 64 115 115 64 115 115 64 115 115 64 115 115 64 115 115 64 115 115 64 115 115 64 115 115 64 115 115 64 115 115 64 115 115 64 115 115 128 115 26 128 115 26 128 115 26 128 115 26 128 115 26 128 115 26 128 115 26 128 115 26 128 115 26 128 115 26 128 115 26 128 115 26 128 115 26 128 115 26 128 115 26 128 115 26 128 115 26 128 115 26 128 115 26 128 115 26 128 115 26 128 115 26 128 115 26 128 115 26 128 115 26 128 115 26 128 115 26 128 115 26 128 115 26 128 115 26 128 115 26 128 115 26 128 115 26 128 115 26 128 115 26 128 115 26 128 115 26 128 115 26 128 115 26 128 115 26 128 115 26 128 115 26 128 115 26 128 115 26 128 115 26 128 115 26 128 115 26 128 115 26 128 115 26 128 115 26 128 115 26 128 115 26 128 115 26 128 115 26 128 115 26 128 115 26 128 115 26 128 115 26 128 115 26 128 115 26 128 115 26 128 115 26 128 115 26 128 115 26 128 115 26 128 115 26 128 115 26 128 115 26 128 115 26 128 115 26 128 115 26 128 115 26 128 115 26 128 115 26 128 115 26 128 115 26 128 115 26 128 115 26 128 115 26 128 115 26 128 115 26 128 115 26 128 115 26 128 115 26 128 115 26 128 115 26 128 115 26 128 115 26 128 115 26 128 115 26 128 115 26 128 115 26 128 115 26 128 115 26 128 115 26 128 115 26 128 115 26 128 115 26 128 115 26 128 115 26 
64 115 115 64 115 115 64 115 115 64 115 115 64 115 115 64 115 115 64 115 115 64 115 115 64 115 115 64 115 115 64 115 115 64 115 115 64 115 115 64 115 115 64 115 115 64 115 115 64 115 115 64 115 115 64 115 115 64 115 115 64 115 115 64 115 115 64 115 115 64 115 115 64 115 115 64 115 115 64 115 115 64 115 115 64 115 115 64 115 115 64 115 115 64 115 115 64 115 115 64 115 115 64 115 115 64 115 115 64 115 115 64 115 115 64 115 115 64 115 115 64 115 115 64 115 115 64 115 115 64 115 115 64 115 115 64 115 115 64 115 115 64 115 115 64 115 115 64 115 115 64 115 115 64 115 115 64 115 115 64 115 115 64 115 115 64 115 115 64 115 115 64 115 115 64 115 115 64 115 115 64 115 115 64 115 115 64 115 115 64 115 115 64 115 115 64 115 115 64 115 115 64 115 115 64 115 115 64 115 115 64 115 115 64 115 115 64 115 115 64 115 115 64 115 115 64 115 115 64 115 115 64 115 115 64 115 115 64 115 115 64 115 115 64 115 115 64 115 115 64 115 115 64 115 115 64 115 115 64 115 115 64 115 115 64 115 115 64 115 115 64 115 115 64 115 115 64 115 115 64 115 115 64 115 115 64 115 115 64 115 115 64 115 115 64 115 115 64 115 115 128 115 26 128 115 26 128 115 26 128 115 26 128 115 26 128 115 26 128 115 26 128 115 26 128 115 26 128 115 26 128 115 26 128 115 26 128 115 26 128 115 26 128 115 26 128 115 26 128 115 26 128 115 26 128 115 26 128 115 26 128 115 26 128 115 26 128 115 26 128 115 26 128 115 26 128 115 26 128 115 26 128 115 26 128 115 26 128 115 26 128 115 26 128 115 26 128 115 26 128 115 26 128 115 26 128 115 26 128 115 26 128 115 26 128 115 26 128 115 26 128 115 26 128 115 26 128 115 26 128 115 26 128 115 26 128 115 26 128 115 26 128 115 26 128 115 26 128 115 26 128 115 26 128 115 26 128 115 26 128 115 26 128 115 26 128 115 26 128 115 26 128 115 26 128 115 26 128 115 26 128 115 26 128 115 26 128 115 26 128 115 26 128 115 26 128 115 26 128 115 26 128 115 26 128 115 26 128 115 26 128 115 26 128 115 26 128 115 26 128 115 26 128 115 26 128 115 26 128 115 26 128 115 26 128 115 26 128 115 26 128 115 26 128 115 26 128 115 26 128 115 26 128 115 26 128 115 26 128 115 26 128 115 26 128 115 26 128 115 26 128 115 26 128 115 26 128 115 26 128 115 26 128 115 26 128 115 26 128 115 26 128 115 26 128 115 26 128 115 26 
64 115 115 64 115 115 64 115 115 64 115 115 64 115 115 64 115 115 64 115 115 64 115 115 64 115 115 64 115 115 64 115 115 64 115 115 64 115 115 64 115 115 64 115 115 64 115 115 64 115 115 64 115 115 64 115 115 64 115 115 64 115 115 64 115 115 64 115 115 64 115 115 64 115 115 64 115 115 64 115 115 64 115 115 64 115 115 64 115 115 64 115 115 64 115 115 64 115 115 64 115 115 64 115 115 64 115 115 64 115 115 64 115 115 64 115 115 64 115 115 64 115 115 64 115 115 64 115 115 64 115 115 64 115 115 64 115 115 64 115 115 64 115 115 64 115 115 64 115 115 64 115 115 64 115 115 64 115 115 64 115 115 64 115 115 64 115 115 64 115 115 64 115 115 64 115 115 64 115 115 64 115 115 64 115 115 64 115 115 64 115 115 64 115 115 64 115 115 64 115 115 64 115 115 64 115 115 64 115 115 64 115 115 64 115 115 64 115 115 64 115 115 64 115 115 64 115 115 64 115 115 64 115 115 64 115 115 64 115 115 64 115 115 64 115 115 64 115 115 64 115 115 64 115 115 64 115 115 64 115 115 64 115 115 64 115 115 64 115 115 64 115 115 64 115 115 64 115 115 64 115 115 64 115 115 64 115 115 64 115 115 64 115 115 64 115 115 64 115 115 128 115 26 128 115 26 128 115 26 128 115 26 128 115 26 128 115 26 128 115 26 128 115 26 128 115 26 128 115 26 128 115 26 128 115 26 128 115 26 128 115 26 128 115 26 128 115 26 128 115 26 128 115 26 128 115 26 128 115 26 128 115 26 128 115 26 128 115 26 128 115 26 128 115 26 128 115 26 128 115 26 128 115 26 128 115 26 128 115 26 128 115 26 128 115 26 128 115 26 128 115 26 128 115 26 128 115 26 128 115 26 128 115 26 128 115 26 128 115 26 128 115 26 128 115 26 128 115 26 128 115 26 128 115 26 128 115 26 128 115 26 128 115 26 128 115 26 128 115 26 128 115 26 128 115 26 128 115 26 128 115 26 128 115 26 128 115 26 128 115 26 128 115 26 128 115 26 128 115 26 128 115 26 128 115 26 128 115 26 128 115 26 128 115 26 128 115 26 128 115 26 128 115 26 128 115 26 128 115 26 128 115 26 128 115 26 128 115 26 128 115 26 128 115 26 128 115 26 128 115 26 128 115 26 128 115 26 128 115 26 128 115 26 128 115 26 128 115 26 128 115 26 128 115 26 128 115 26 128 115 26 128 115 26 128 115 26 128 115 26 128 115 26 128 115 26 128 115 26 128 115 26 128 115 26 128 115 26 128 115 26 128 115 26 128 115 26 128 115 26 
64 115 115 64 115 115 64 115 115 64 115 115 64 115 115 64 115 115 64 115 115 64 115 115 64 115 115 64 115 115 64 115 115 64 115 115 64 115 115 64 115 115 64 115 115 64 115 115 64 115 115 64 115 115 64 115 115 64 115 115 64 115 115 64 115 115 64 115 115 64 115 115 64 115 115 64 115 115 64 115 115 64 115 115 64 115 115 64 115 115 64 115 115 64 115 115 64 115 115 64 115 115 64 115 115 64 115 115 64 115 115 64 115 115 64 115 115 64 115 115 64 115 115 64 115 115 64 115 115 64 115 115 64 115 115 64 115 115 64 115 115 64 115 115 64 115 115 64 115 115 64 115 115 64 115 115 64 115 115 64 115 115 64 115 115 64 115 115 64 115 115 64 115 115 64 115 115 64 115 115 64 115 115 64 115 115 64 115 115 64 115 115 64 115 115 64 115 115 64 115 115 64 115 115 64 115 115 64 115 115 64 115 115 64 115 115 64 115 115 64 115 115 64 115 115 64 115 115 64 115 115 64 115 115 64 115 115 64 115 115 64 115 115 64 115 115 64 115 115 64 115 115 64 115 115 64 115 115 64 115 115 64 115 115 64 115 115 64 115 115 64 115 115 64 115 115 64 115 115 64 115 115 64 115 115 64 115 115 64 115 115 64 115 115 64 115 115 64 115 115 128 115 26 128 115 26 128 115 26 128 115 26 128 115 26 128 115 26 128 115 26 128 115 26 128 115 26 128 115 26 128 115 26 128 115 26 128 115 26 128 115 26 128 115 26 128 115 26 128 115 26 128 115 26 128 115 26 128 115 26 128 115 26 128 115 26 128 115 26 128 115 26 128 115 26 128 115 26 128 115 26 128 115 26 128 115 26 128 115 26 128 115 26 128 115 26 128 115 26 128 115 26 128 115 26 128 115 26 128 115 26 128 115 26 128 115 26 128 115 26 128 115 26 128 115 26 128 115 26 128 115 26 128 115 26 128 115 26 128 115 26 128 115 26 128 115 26 128 115 26 128 115 26 128 115 26 128 115 26 128 115 26 128 115 26 128 115 26 128 115 26 128 115 26 128 115 26 128 115 26 128 115 26 128 115 26 128 115 26 128 115 26 128 115 26 128 115 26 128 115 26 128 115 26 128 115 26 128 115 26 128 115 26 128 115 26 128 115 26 128 115 26 128 115 26 128 115 26 128 115 26 128 115 26 128 115 26 128 115 26 128 115 26 128 115 26 128 115 26 128 115 26 128 115 26 128 115 26 128 115 26 128 115 26 128 115 26 128 115 26 128 115 26 128 115 26 128 115 26 128 115 26 128 115 26 128 115 26 128 115 26 128 115 26 128 115 26 128 115 26 
64 115 115 64 115 115 64 115 115 64 115 115 64 115 115 64 115 115 64 115 115 64 115 115 64 115 115 64 115 115 64 115 115 64 115 115 64 115 115 64 115 115 64 115 115 64 115 115 64 115 115 64 115 115 64 115 115 64 115 115 64 115 115 64 115 115 64 115 115 64 115 115 64 115 115 64 115 115 64 115 115 64 115 115 64 115 115 64 115 115 64 115 115 64 115 115 64 115 115 64 115 115 64 115 115 64 115 115 64 115 115 64 115 115 64 115 115 64 115 115 64 115 115 64 115 115 64 115 115 64 115 115 64 115 115 64 115 115 64 115 115 64 115 115 64 115 115 64 115 115 64 115 115 64 115 115 64 115 115 64 115 115 64 115 115 64 115 115 64 115 115 64 115 115 64 115 115 64 115 115 64 115 115 64 115 115 64 115 115 64 115 115 64 115 115 64 115 115 64 115 115 64 115 115 64 115 115 64 115 115 64 115 115 64 115 115 64 115 115 64 115 115 64 115 115 64 115 115 64 115 115 64 115 115 64 115 115 64 115 115 64 115 115 64 115 115 64 115 115 64 115 115 64 115 115 64 115 115 64 115 115 64 115 115 64 115 115 64 115 115 64 115 115 64 115 115 64 115 115 64 115 115 64 115 115 64 115 115 64 115 115 64 115 115 64 115 115 64 115 115 128 115 26 128 115 26 128 115 26 128 115 26 128 115 26 128 115 26 128 115 26 128 115 26 128 115 26 128 115 26 128 115 26 128 115 26 128 115 26 128 115 26 128 115 26 128 115 26 128 115 26 128 115 26 128 115 26 128 115 26 128 115 26 128 115 26 128 115 26 128 115 26 128 115 26 128 115 26 128 115 26 128 115 26 128 115 26 128 115 26 128 115 26 128 115 26 128 115 26 128 115 26 128 115 26 128 115 26 128 115 26 128 115 26 128 115 26 128 115 26 128 115 26 128 115 26 128 115 26 128 115 26 128 115 26 128 115 26 128 115 26 128 115 26 128 115 26 128 115 26 128 115 26 128 115 26 128 115 26 128 115 26 128 115 26 128 115 26 128 115 26 128 115 26 128 115 26 128 115 26 128 115 26 128 115 26 128 115 26 128 115 26 128 115 26 128 115 26 128 115 26 128 115 26 128 115 26 128 115 26 128 115 26 128 115 26 128 115 26 128 115 26 128 115 26 128 115 26 128 115 26 128 115 26 128 115 26 128 115 26 128 115 26 128 115 26 128 115 26 128 115 26 128 115 26 128 115 26 128 115 26 128 115 26 128 115 26 128 115 26 128 115 26 128 115 26 128 115 26 128 115 26 128 115 26 128 115 26 128 115 26 128 115 26 128 115 26 128 115 26 
64 115 115 64 115 115 64 115 115 64 115 115 64 115 115 64 115 115 64 115 115 64 115 115 64 115 115 64 115 115 64 115 115 64 115 115 64 115 115 64 115 115 64 115 115 64 115 115 64 115 115 64 115 115 64 115 115 64 115 115 64 115 115 64 115 115 64 115 115 64 115 115 64 115 115 64 115 115 64 115 115 64 115 115 64 115 115 64 115 115 64 115 115 64 115 115 64 115 115 64 115 115 64 115 115 64 115 115 64 115 115 64 115 115 64 115 115 64 115 115 64 115 115 64 115 115 64 115 115 64 115 115 64 115 115 64 115 115 64 115 115 64 115 115 64 115 115 64 115 115 64 115 115 64 115 115 64 115 115 64 115 115 64 115 115 64 115 115 64 115 115 64 115 115 64 115 115 64 115 115 64 115 115 64 115 115 64 115 115 64 115 115 64 115 115 64 115 115 64 115 115 64 115 115 64 115 115 64 115 115 64 115 115 64 115 115 64 115 115 64 115 115 64 115 115 64 115 115 64 115 115 64 115 115 64 115 115 64 115 115 64 115 115 64 115 115 64 115 115 64 115 115 64 115 115 64 115 115 64 115 115 64 115 115 64 115 115 64 115 115 64 115 115 64 115 115 64 115 115 64 115 115 64 115 115 64 115 115 64 115 115 64 115 115 64 115 115 64 115 115 128 115 26 128 115 26 128 115 26 128 115 26 128 115 26 128 115 26 128 115 26 128 115 26 128 115 26 128 115 26 128 115 26 128 115 26 128 115 26 128 115 26 128 115 26 128 115 26 128 115 26 128 115 26 128 115 26 128 115 26 128 115 26 128 115 26 128 115 26 128 115 26 128 115 26 128 115 26 128 115 26 128 115 26 128 115 26 128 115 26 128 115 26 128 115 26 128 115 26 128 115 26 128 115 26 128 115 26 128 115 26 128 115 26 128 115 26 128 115 26 128 115 26 128 115 26 128 115 26 128 115 26 128 115 26 128 115 26 128 115 26 128 115 26 128 115 26 128 115 26 128 115 26 128 115 26 128 115 26 128 115 26 128 115 26 128 115 26 128 115 26 128 115 26 128 115 26 128 115 26 128 115 26 128 115 26 128 115 26 128 115 26 128 115 26 128 115 26 128 115 26 128 115 26 128 115 26 128 115 26 128 115 26 128 115 26 128 115 26 128 115 26 128 115 26 128 115 26 128 115 26 128 115 26 128 115 26 128 115 26 128 115 26 128 115 26 128 115 26 128 115 26 128 115 26 128 115 26 128 115 26 128 115 26 128 115 26 128 115 26 128 115 26 128 115 26 128 115 26 128 115 26 128 115 26 128 115 26 128 115 26 128 115 26 128 115 26 128 115 26 
64 115 115 64 115 115 64 115 115 64 115 115 64 115 115 64 115 115 64 115 115 64 115 115 64 115 115 64 115 115 64 115 115 64 115 115 64 115 115 64 115 115 64 115 115 64 115 115 64 115 115 64 115 115 64 115 115 64 115 115 64 115 115 64 115 115 64 115 115 64 115 115 64 115 115 64 115 115 64 115 115 64 115 115 64 115 115 64 115 115 64 115 115 64 115 115 64 115 115 64 115 115 64 115 115 64 115 115 64 115 115 64 115 115 64 115 115 64 115 115 64 115 115 64 115 115 64 115 115 64 115 115 64 115 115 64 115 115 64 115 115 64 115 115 64 115 115 64 115 115 64 115 115 64 115 115 64 115 115 64 115 115 64 115 115 64 115 115 64 115 115 64 115 115 64 115 115 64 115 115 64 115 115 64 115 115 64 115 115 64 115 115 64 115 115 64 115 115 64 115 115 64 115 115 64 115 115 64 115 115 64 115 115 64 115 115 64 115 115 64 115 115 64 115 115 64 115 115 64 115 115 64 115 115 64 115 115 64 115 115 64 115 115 64 115 115 64 115 115 64 115 115 64 115 115 64 115 115 64 115 115 64 115 115 64 115 115 64 115 115 64 115 115 64 115 115 64 115 115 64 115 115 64 115 115 64 115 115 64 115 115 64 115 115 64 115 115 64 115 115 128 115 26 128 115 26 128 115 26 128 115 26 128 115 26 128 115 26 128 115 26 128 115 26 128 115 26 128 115 26 128 115 26 128 115 26 128 115 26 128 115 26 128 115 26 128 115 26 128 115 26 128 115 26 128 115 26 128 115 26 128 115 26 128 115 26 128 115 26 128 115 26 128 115 26 128 115 26 128 115 26 128 115 26 128 115 26 128 115 26 128 115 26 128 115 26 128 115 26 128 115 26 128 115 26 128 115 26 128 115 26 128 115 26 128 115 26 128 115 26 128 115 26 128 115 26 128 115 26 128 115 26 128 115 26 128 115 26 128 115 26 128 115 26 128 115 26 128 115 26 128 115 26 128 115 26 128 115 26 128 115 26 128 115 26 128 115 26 128 115 26 128 115 26 128 115 26 128 115 26 128 115 26 128 115 26 128 115 26 128 115 26 128 115 26 128 115 26 128 115 26 128 115 26 128 115 26 128 115 26 128 115 26 128 115 26 128 115 26 128 115 26 128 115 26 128 115 26 128 115 26 128 115 26 128 115 26 128 115 26 128 115 26 128 115 26 128 115 26 128 115 26 128 115 26 128 115 26 128 115 26 128 115 26 128 115 26 128 115 26 128 115 26 128 115 26 128 115 26 128 115 26 128 115 26 128 115 26 128 115 26 128 115 26 128 115 26 128 115 26 
64 115 115 64 115 115 64 115 115 64 115 115 64 115 115 64 115 115 64 115 115 64 115 115 64 115 115 64 115 115 64 115 115 64 115 115 64 115 115 64 115 115 64 115 115 64 115 115 64 115 115 64 115 115 64 115 115 64 115 115 64 115 115 64 115 115 64 115 115 64 115 115 64 115 115 64 115 115 64 115 115 64 115 115 64 115 115 64 115 115 64 115 115 64 115 115 64 115 115 64 115 115 64 115 115 64 115 115 64 115 115 64 115 115 64 115 115 64 115 115 64 115 115 64 115 115 64 115 115 64 115 115 64 115 115 64 115 115 64 115 115 64 115 115 64 115 115 64 115 115 64 115 115 64 115 115 64 115 115 64 115 115 64 115 115 64 115 115 64 115 115 64 115 115 64 115 115 64 115 115 64 115 115 64 115 115 64 115 115 64 115 115 64 115 115 64 115 115 64 115 115 64 115 115 64 115 115 64 115 115 64 115 115 64 115 115 64 115 115 64 115 115 64 115 115 64 115 115 64 115 115 64 115 115 64 115 115 64 115 115 64 115 115 64 115 115 64 115 115 64 115 115 64 115 115 64 115 115 64 115 115 64 115 115 64 115 115 64 115 115 64 115 115 64 115 115 64 115 115 64 115 115 64 115 115 64 115 115 64 115 115 64 115 115 64 115 115 64 115 115 128 115 26 128 115 26 128 115 26 128 115 26 128 115 26 128 115 26 128 115 26 128 115 26 128 115 26 128 115 26 128 115 26 128 115 26 128 115 26 128 115 26 128 115 26 128 115 26 128 115 26 128 115 26 128 115 26 128 115 26 128 115 26 128 115 26 128 115 26 128 115 26 128 115 26 128 115 26 128 115 26 128 115 26 128 115 26 128 115 26 128 115 26 128 115 26 128 115 26 128 115 26 128 115 26 128 115 26 128 115 26 128 115 26 128 115 26 128 115 26 128 115 26 128 115 26 128 115 26 128 115 26 128 115 26 128 115 26 128 115 26 128 115 26 128 115 26 128 115 26 128 115 26 128 115 26 128 115 26 128 115 26 128 115 26 128 115 26 128 115 26 128 115 26 128 115 26 128 115 26 128 115 26 128 115 26 128 115 26 128 115 26 128 115 26 128 115 26 128 115 26 128 115 26 128 115 26 128 115 26 128 115 26 128 115 26 128 115 26 128 115 26 128 115 26 128 115 26 128 115 26 128 115 26 128 115 26 128 115 26 128 115 26 128 115 26 128 115 26 128 115 26 128 115 26 128 115 26 128 115 26 128 115 26 128 115 26 128 115 26 128 115 26 128 115 26 128 115 26 128 115 26 128 115 26 128 115 26 128 115 26 128 115 26 128 115 26 128 115 26 
64 115 115 64 115 115 64 115 115 64 115 115 64 115 115 64 115 115 64 115 115 64 115 115 64 115 115 64 115 115 64 115 115 64 115 115 64 115 115 64 115 115 64 115 115 64 115 115 64 115 115 64 115 115 64 115 115 64 115 115 64 115 115 64 115 115 64 115 115 64 115 115 64 115 115 64 115 115 64 115 115 64 115 115 64 115 115 64 115 115 64 115 115 64 115 115 64 115 115 64 115 115 64 115 115 64 115 115 64 115 115 64 115 115 64 115 115 64 115 115 64 115 115 64 115 115 64 115 115 64 115 115 64 115 115 64 115 115 64 115 115 64 115 115 64 115 115 64 115 115 64 115 115 64 115 115 64 115 115 64 115 115 64 115 115 64 115 115 64 115 115 64 115 115 64 115 115 64 115 115 64 115 115 64 115 115 64 115 115 64 115 115 64 115 115 64 115 115 64 115 115 64 115 115 64 115 115 64 115 115 64 115 115 64 115 115 64 115 115 64 115 115 64 115 115 64 115 115 64 115 115 64 115 115 64 115 115 64 115 115 64 115 115 64 115 115 64 115 115 64 115 115 64 115 115 64 115 115 64 115 115 64 115 115 64 115 115 64 115 115 64 115 115 64 115 115 64 115 115 64 115 115 64 115 115 64 115 115 64 115 115 64 115 115 64 115 115 64 115 115 128 115 26 128 115 26 128 115 26 128 115 26 128 115 26 128 115 26 128 115 26 128 115 26 128 115 26 128 115 26 128 115 26 128 115 26 128 115 26 128 115 26 128 115 26 128 115 26 128 115 26 128 115 26 128 115 26 128 115 26 128 115 26 128 115 26 128 115 26 128 115 26 128 115 26 128 115 26 128 115 26 128 115 26 128 115 26 128 115 26 128 115 26 128 115 26 128 115 26 128 115 26 128 115 26 128 115 26 128 115 26 128 115 26 128 115 26 128 115 26 128 115 26 128 115 26 128 115 26 128 115 26 128 115 26 128 115 26 128 115 26 128 115 26 128 115 26 128 115 26 128 115 26 128 115 26 128 115 26 128 115 26 128 115 26 128 115 26 128 115 26 128 115 26 128 115 26 128 115 26 128 115 26 128 115 26 128 115 26 128 115 26 128 115 26 128 115 26 128 115 26 128 115 26 128 115 26 128 115 26 128 115 26 128 115 26 128 115 26 128 115 26 128 115 26 128 115 26 128 115 26 128 115 26 128 115 26 128 115 26 128 115 26 128 115 26 128 115 26 128 115 26 128 115 26 128 115 26 128 115 26 128 115 26 128 115 26 128 115 26 128 115 26 128 115 26 128 115 26 128 115 26 128 115 26 128 115 26 128 115 26 128 115 26 128 115 26 128 115 26 
64 115 115 64 115 115 64 115 115 64 115 115 64 115 115 64 115 115 64 115 115 64 115 115 64 115 115 64 115 115 64 115 115 64 115 115 64 115 115 64 115 115 64 115 115 64 115 115 64 115 115 64 115 115 64 115 115 64 115 115 64 115 115 64 115 115 64 115 115 64 115 115 64 115 115 64 115 115 64 115 115 64 115 115 64 115 115 64 115 115 64 115 115 64 115 115 64 115 115 64 115 115 64 115 115 64 115 115 64 115 115 64 115 115 64 115 115 64 115 115 64 115 115 64 115 115 64 115 115 64 115 115 64 115 115 64 115 115 64 115 115 64 115 115 64 115 115 64 115 115 64 115 115 64 115 115 64 115 115 64 115 115 64 115 115 64 115 115 64 115 115 64 115 115 64 115 115 64 115 115 64 115 115 64 115 115 64 115 115 64 115 115 64 115 115 64 115 115 64 115 115 64 115 115 64 115 115 64 115 115 64 115 115 64 115 115 64 115 115 64 115 115 64 115 115 64 115 115 64 115 115 64 115 115 64 115 115 64 115 115 64 115 115 64 115 115 64 115 115 64 115 115 64 115 115 64 115 115 64 115 115 64 115 115 64 115 115 64 115 115 64 115 115 64 115 115 64 115 115 64 115 115 64 115 115 64 115 115 64 115 115 64 115 115 64 115 115 64 115 115 128 115 26 128 115 26 128 115 26 128 115 26 128 115 26 128 115 26 128 115 26 128 115 26 128 115 26 128 115 26 128 115 26 128 115 26 128 115 26 128 115 26 128 115 26 128 115 26 128 115 26 128 115 26 128 115 26 128 115 26 128 115 26 128 115 26 128 115 26 128 115 26 128 115 26 128 115 26 128 115 26 128 115 26 128 115 26 128 115 26 128 115 26 128 115 26 128 115 26 128 115 26 128 115 26 128 115 26 128 115 26 128 115 26 128 115 26 128 115 26 128 115 26 128 115 26 128 115 26 128 115 26 128 115 26 128 115 26 128 115 26 128 115 26 128 115 26 128 115 26 128 115 26 128 115 26 128 115 26 128 115 26 128 115 26 128 115 26 128 115 26 128 115 26 128 115 26 128 115 26 128 115 26 128 115 26 128 115 26 128 115 26 128 115 26 128 115 26 128 115 26 128 115 26 128 115 26 128 115 26 128 115 26 128 115 26 128 115 26 128 115 26 128 115 26 128 115 26 128 115 26 128 115 26 128 115 26 128 115 26 128 115 26 128 115 26 128 115 26 128 115 26 128 115 26 128 115 26 128 115 26 128 115 26 128 115 26 128 115 26 128 115 26 128 115 26 128 115 26 128 115 26 128 115 26 128 115 26 128 115 26 128 115 26 128 115 26 128 115 26 
64 115 115 64 115 115 64 115 115 64 115 115 64 115 115 64 115 115 64 115 115 64 115 115 64 115 115 64 115 115 64 115 115 64 115 115 64 115 115 64 115 115 64 115 115 64 115 115 64 115 115 64 115 115 64 115 115 64 115 115 64 115 115 64 115 115 64 115 115 64 115 115 64 115 115 64 115 115 64 115 115 64 115 115 64 115 115 64 115 115 64 115 115 64 115 115 64 115 115 64 115 115 64 115 115 64 115 115 64 115 115 64 115 115 64 115 115 64 115 115 64 115 115 64 115 115 64 115 115 64 115 115 64 115 115 64 115 115 64 115 115 64 115 115 64 115 115 64 115 115 64 115 115 64 115 115 64 115 115 64 115 115 64 115 115 64 115 115 64 115 115 64 115 115 64 115 115 64 115 115 64 115 115 64 115 115 64 115 115 64 115 115 64 115 115 64 115 115 64 115 115 64 115 115 64 115 115 64 115 115 64 115 115 64 115 115 64 115 115 64 115 115 64 115 115 64 115 115 64 115 115 64 115 115 64 115 115 64 115 115 64 115 115 64 115 115 64 115 115 64 115 115 64 115 115 64 115 115 64 115 115 64 115 115 64 115 115 64 115 115 64 115 115 64 115 115 64 115 115 64 115 115 64 115 115 64 115 115 64 115 115 64 115 115 64 115 115 64 115 115 128 115 26 128 115 26 128 115 26 128 115 26 128 115 26 128 115 26 128 115 26 128 115 26 128 115 26 128 115 26 128 115 26 128 115 26 128 115 26 128 115 26 128 115 26 128 115 26 128 115 26 128 115 26 128 115 26 128 115 26 128 115 26 128 115 26 128 115 26 128 115 26 128 115 26 128 115 26 128 115 26 128 115 26 128 115 26 128 115 26 128 115 26 128 115 26 128 115 26 128 115 26 128 115 26 128 115 26 128 115 26 128 115 26 128 115 26 128 115 26 128 115 26 128 115 26 128 115 26 128 115 26 128 115 26 128 115 26 128 115 26 128 115 26 128 115 26 128 115 26 128 115 26 128 115 26 128 115 26 128 115 26 128 115 26 128 115 26 128 115 26 128 115 26 128 115 26 128 115 26 128 115 26 128 115 26 128 115 26 128 115 26 128 115 26 128 115 26 128 115 26 128 115 26 128 115 26 128 115 26 128 115 26 128 115 26 128 115 26 128 115 26 128 115 26 128 115 26 128 115 26 128 115 26 128 115 26 128 115 26 128 115 26 128 115 26 128 115 26 128 115 26 128 115 26 128 115 26 128 115 26 128 115 26 128 115 26 128 115 26 128 115 26 128 115 26 128 115 26 128 115 26 128 115 26 128 115 26 128 115 26 128 115 26 128 115 26 128 115 26 
64 115 115 64 115 115 64 115 115 64 115 115 64 115 115 64 115 115 64 115 115 64 115 115 64 115 115 64 115 115 64 115 115 64 115 115 64 115 115 64 115 115 64 115 115 64 115 115 64 115 115 64 115 115 64 115 115 64 115 115 64 115 115 64 115 115 64 115 115 64 115 115 64 115 115 64 115 115 64 115 115 64 115 115 64 115 115 64 115 115 64 115 115 64 115 115 64 115 115 64 115 115 64 115 115 64 115 115 64 115 115 64 115 115 64 115 115 64 115 115 64 115 115 64 115 115 64 115 115 64 115 115 64 115 115 64 115 115 64 115 115 64 115 115 64 115 115 64 115 115 64 115 115 64 115 115 64 115 115 64 115 115 64 115 115 64 115 115 64 115 115 64 115 115 64 115 115 64 115 115 64 115 115 64 115 115 64 115 115 64 115 115 64 115 115 64 115 115 64 115 115 64 115 115 64 115 115 64 115 115 64 115 115 64 115 115 64 115 115 64 115 115 64 115 115 64 115 115 64 115 115 64 115 115 64 115 115 64 115 115 64 115 115 64 115 115 64 115 115 64 115 115 64 115 115 64 115 115 64 115 115 64 115 115 64 115 115 64 115 115 64 115 115 64 115 115 64 115 115 64 115 115 64 115 115 64 115 115 64 115 115 64 115 115 64 115 115 64 115 115 128 115 26 128 115 26 128 115 26 128 115 26 128 115 26 128 115 26 128 115 26 128 115 26 128 115 26 128 115 26 128 115 26 128 115 26 128 115 26 128 115 26 128 115 26 128 115 26 128 115 26 128 115 26 128 115 26 128 115 26 128 115 26 128 115 26 128 115 26 128 115 26 128 115 26 128 115 26 128 115 26 128 115 26 128 115 26 128 115 26 128 115 26 128 115 26 128 115 26 128 115 26 128 115 26 128 115 26 128 115 26 128 115 26 128 115 26 128 115 26 128 115 26 128 115 26 128 115 26 128 115 26 128 115 26 128 115 26 128 115 26 128 115 26 128 115 26 128 115 26 128 115 26 128 115 26 128 115 26 128 115 26 128 115 26 128 115 26 128 115 26 128 115 26 128 115 26 128 115 26 128 115 26 128 115 26 128 115 26 128 115 26 128 115 26 128 115 26 128 115 26 128 115 26 128 115 26 128 115 26 128 115 26 128 115 26 128 115 26 128 115 26 128 115 26 128 115 26 128 115 26 128 115 26 128 115 26 128 115 26 128 115 26 128 115 26 128 115 26 128 115 26 128 115 26 128 115 26 128 115 26 128 115 26 128 115 26 128 115 26 128 115 26 128 115 26 128 115 26 128 115 26 128 115 26 128 115 26 128 115 26 128 115 26 128 115 26 128 115 26 
64 115 115 64 115 115 64 115 115 64 115 115 64 115 115 64 115 115 64 115 115 64 115 115 64 115 115 64 115 115 64 115 115 64 115 115 64 115 115 64 115 115 64 115 115 64 115 115 64 115 115 64 115 115 64 115 115 64 115 115 64 115 115 64 115 115 64 115 115 64 115 115 64 115 115 64 115 115 64 115 115 64 115 115 64 115 115 64 115 115 64 115 115 64 115 115 64 115 115 64 115 115 64 115 115 64 115 115 64 115 115 64 115 115 64 115 115 64 115 115 64 115 115 64 115 115 64 115 115 64 115 115 64 115 115 64 115 115 64 115 115 64 115 115 64 115 115 64 115 115 64 115 115 64 115 115 64 115 115 64 115 115 64 115 115 64 115 115 64 115 115 64 115 115 64 115 115 64 115 115 64 115 115 64 115 115 64 115 115 64 115 115 64 115 115 64 115 115 64 115 115 64 115 115 64 115 115 64 115 115 64 115 115 64 115 115 64 115 115 64 115 115 64 115 115 64 115 115 64 115 115 64 115 115 64 115 115 64 115 115 64 115 115 64 115 115 64 115 115 64 115 115 64 115 115 64 115 115 64 115 115 64 115 115 64 115 115 64 115 115 64 115 115 64 115 115 64 115 115 64 115 115 64 115 115 64 115 115 64 115 115 64 115 115 64 115 115 64 115 115 128 115 26 128 115 26 128 115 26 128 115 26 128 115 26 128 115 26 128 115 26 128 115 26 128 115 26 128 115 26 128 115 26 128 115 26 128 115 26 128 115 26 128 115 26 128 115 26 128 115 26 128 115 26 128 115 26 128 115 26 128 115 26 128 115 26 128 115 26 128 115 26 128 115 26 128 115 26 128 115 26 128 115 26 128 115 26 128 115 26 128 115 26 128 115 26 128 115 26 128 115 26 128 115 26 128 115 26 128 115 26 128 115 26 128 115 26 128 115 26 128 115 26 128 115 26 128 115 26 128 115 26 128 115 26 128 115 26 128 115 26 128 115 26 128 115 26 128 115 26 128 115 26 128 115 26 128 115 26 128 115 26 128 115 26 128 115 26 128 115 26 128 115 26 128 115 26 128 115 26 128 115 26 128 115 26 128 115 26 128 115 26 128 115 26 128 115 26 128 115 26 128 115 26 128 115 26 128 115 26 128 115 26 128 115 26 128 115 26 128 115 26 128 115 26 128 115 26 128 115 26 128 115 26 128 115 26 128 115 26 128 115 26 128 115 26 128 115 26 128 115 26 128 115 26 128 115 26 128 115 26 128 115 26 128 115 26 128 115 26 128 115 26 128 115 26 128 115 26 128 115 26 128 115 26 128 115 26 128 115 26 128 115 26 128 115 26 128 115 26 
64 115 115 64 115 115 64 115 115 64 115 115 64 115 115 64 115 115 64 115 115 64 115 115 64 115 115 64 115 115 64 115 115 64 115 115 64 115 115 64 115 115 64 115 115 64 115 115 64 115 115 64 115 115 64 115 115 64 115 115 64 115 115 64 115 115 64 115 115 64 115 115 64 115 115 64 115 115 64 115 115 64 115 115 64 115 115 64 115 115 64 115 115 64 115 115 64 115 115 64 115 115 64 115 115 64 115 115 64 115 115 64 115 115 64 115 115 64 115 115 64 115 115 64 115 115 64 115 115 64 115 115 64 115 115 64 115 115 64 115 115 64 115 115 64 115 115 64 115 115 64 115 115 64 115 115 64 115 115 64 115 115 64 115 115 64 115 115 64 115 115 64 115 115 64 115 115 64 115 115 64 115 115 64 115 115 64 115 115 64 115 115 64 115 115 64 115 115 64 115 115 64 115 115 64 115 115 64 115 115 64 115 115 64 115 115 64 115 115 64 115 115 64 115 115 64 115 115 64 115 115 64 115 115 64 115 115 64 115 115 64 115 115 64 115 115 64 115 115 64 115 115 64 115 115 64 115 115 64 115 115 64 115 115 64 115 115 64 115 115 64 115 115 64 115 115 64 115 115 64 115 115 64 115 115 64 115 115 64 115 115 64 115 115 64 115 115 64 115 115 128 115 26 128 115 26 128 115 26 128 115 26 128 115 26 128 115 26 128 115 26 128 115 26 128 115 26 128 115 26 128 115 26 128 115 26 128 115 26 128 115 26 128 115 26 128 115 26 128 115 26 128 115 26 128 115 26 128 115 26 128 115 26 128 115 26 128 115 26 128 115 26 128 115 26 128 115 26 128 115 26 128 115 26 128 115 26 128 115 26 128 115 26 128 115 26 128 115 26 128 115 26 128 115 26 128 115 26 128 115 26 128 115 26 128 115 26 128 115 26 128 115 26 128 115 26 128 115 26 128 115 26 128 115 26 128 115 26 128 115 26 128 115 26 128 115 26 128 115 26 128 115 26 128 115 26 128 115 26 128 115 26 128 115 26 128 115 26 128 115 26 128 115 26 128 115 26 128 115 26 128 115 26 128 115 26 128 115 26 128 115 26 128 115 26 128 115 26 128 115 26 128 115 26 128 115 26 128 115 26 128 115 26 128 115 26 128 115 26 128 115 26 128 115 26 128 115 26 128 115 26 128 115 26 128 115 26 128 115 26 128 115 26 128 115 26 128 115 26 128 115 26 128 115 26 128 115 26 128 115 26 128 115 26 128 115 26 128 115 26 128 115 26 128 115 26 128 115 26 128 115 26 128 115 26 128 115 26 128 115 26 128 115 26 128 115 26 128 115 26 
64 115 115 64 115 115 64 115 115 64 115 115 64 115 115 64 115 115 64 115 115 64 115 115 64 115 115 64 115 115 64 115 115 64 115 115 64 115 115 64 115 115 64 115 115 64 115 115 64 115 115 64 115 115 64 115 115 64 115 115 64 115 115 64 115 115 64 115 115 64 115 115 64 115 115 64 115 115 64 115 115 64 115 115 64 115 115 64 115 115 64 115 115 64 115 115 64 115 115 64 115 115 64 115 115 64 115 115 64 115 115 64 115 115 64 115 115 64 115 115 64 115 115 64 115 115 64 115 115 64 115 115 64 115 115 64 115 115 64 115 115 64 115 115 64 115 115 64 115 115 64 115 115 64 115 115 64 115 115 64 115 115 64 115 115 64 115 115 64 115 115 64 115 115 64 115 115 64 115 115 64 115 115 64 115 115 64 115 115 64 115 115 64 115 115 64 115 115 64 115 115 64 115 115 64 115 115 64 115 115 64 115 115 64 115 115 64 115 115 64 115 115 64 115 115 64 115 115 64 115 115 64 115 115 64 115 115 64 115 115 64 115 115 64 115 115 64 115 115 64 115 115 64 115 115 64 115 115 64 115 115 64 115 115 64 115 115 64 115 115 64 115 115 64 115 115 64 115 115 64 115 115 64 115 115 64 115 115 64 115 115 64 115 115 64 115 115 64 115 115 128 115 26 128 115 26 128 115 26 128 115 26 128 115 26 128 115 26 128 115 26 128 115 26 128 115 26 128 115 26 128 115 26 128 115 26 128 115 26 128 115 26 128 115 26 128 115 26 128 115 26 128 115 26 128 115 26 128 115 26 128 115 26 128 115 26 128 115 26 128 115 26 128 115 26 128 115 26 128 115 26 128 115 26 128 115 26 128 115 26 128 115 26 128 115 26 128 115 26 128 115 26 128 115 26 128 115 26 128 115 26 128 115 26 128 115 26 128 115 26 128 115 26 128 115 26 128 115 26 128 115 26 128 115 26 128 115 26 128 115 26 128 115 26 128 115 26 128 115 26 128 115 26 128 115 26 128 115 26 128 115 26 128 115 26 128 115 26 128 115 26 128 115 26 128 115 26 128 115 26 128 115 26 128 115 26 128 115 26 128 115 26 128 115 26 128 115 26 128 115 26 128 115 26 128 115 26 128 115 26 128 115 26 128 115 26 128 115 26 128 115 26 128 115 26 128 115 26 128 115 26 128 115 26 128 115 26 128 115 26 128 115 26 128 115 26 128 115 26 128 115 26 128 115 26 128 115 26 128 115 26 128 115 26 128 115 26 128 115 26 128 115 26 128 115 26 128 115 26 128 115 26 128 115 26 128 115 26 128 115 26 128 115 26 128 115 26 128 115 26 
64 115 115 64 115 115 64 115 115 64 115 115 64 115 115 64 115 115 64 115 115 64 115 115 64 115 115 64 115 115 64 115 115 64 115 115 64 115 115 64 115 115 64 115 115 64 115 115 64 115 115 64 115 115 64 115 115 64 115 115 64 115 115 64 115 115 64 115 115 64 115 115 64 115 115 64 115 115 64 115 115 64 115 115 64 115 115 64 115 115 64 115 115 64 115 115 64 115 115 64 115 115 64 115 115 64 115 115 64 115 115 64 115 115 64 115 115 64 115 115 64 115 115 64 115 115 64 115 115 64 115 115 64 115 115 64 115 115 64 115 115 64 115 115 64 115 115 64 115 115 64 115 115 64 115 115 64 115 115 64 115 115 64 115 115 64 115 115 64 115 115 64 115 115 64 115 115 64 115 115 64 115 115 64 115 115 64 115 115 64 115 115 64 115 115 64 115 115 64 115 115 64 115 115 64 115 115 64 115 115 64 115 115 64 115 115 64 115 115 64 115 115 64 115 115 64 115 115 64 115 115 64 115 115 64 115 115 64 115 115 64 115 115 64 115 115 64 115 115 64 115 115 64 115 115 64 115 115 64 115 115 64 115 115 64 115 115 64 115 115 64 115 115 64 115 115 64 115 115 64 115 115 64 115 115 64 115 115 64 115 115 64 115 115 64 115 115 64 115 115 128 115 26 128 115 26 128 115 26 128 115 26 128 115 26 128 115 26 128 115 26 128 115 26 128 115 26 128 115 26 128 115 26 128 115 26 128 115 26 128 115 26 128 115 26 128 115 26 128 115 26 128 115 26 128 115 26 128 115 26 128 115 26 128 115 26 128 115 26 128 115 26 128 115 26 128 115 26 128 115 26 128 115 26 128 115 26 128 115 26 128 115 26 128 115 26 128 115 26 128 115 26 128 115 26 128 115 26 128 115 26 128 115 26 128 115 26 128 115 26 128 115 26 128 115 26 128 115 26 128 115 26 128 115 26 128 115 26 128 115 26 128 115 26 128 115 26 128 115 26 128 115 26 128 115 26 128 115 26 128 115 26 128 115 26 128 115 26 128 115 26 128 115 26 128 115 26 128 115 26 128 115 26 128 115 26 128 115 26 128 115 26 128 115 26 128 115 26 128 115 26 128 115 26 128 115 26 128 115 26 128 115 26 128 115 26 128 115 26 128 115 26 128 115 26 128 115 26 128 115 26 128 115 26 128 115 26 128 115 26 128 115 26 128 115 26 128 115 26 128 115 26 128 115 26 128 115 26 128 115 26 128 115 26 128 115 26 128 115 26 128 115 26 128 115 26 128 115 26 128 115 26 128 115 26 128 115 26 128 115 26 128 115 26 128 115 26 128 115 26 
64 115 115 64 115 115 64 115 115 64 115 115 64 115 115 64 115 115 64 115 115 64 115 115 64 115 115 64 115 115 64 115 115 64 115 115 64 115 115 64 115 115 64 115 115 64 115 115 64 115 115 64 115 115 64 115 115 64 115 115 64 115 115 64 115 115 64 115 115 64 115 115 64 115 115 64 115 115 64 115 115 64 115 115 64 115 115 64 115 115 64 115 115 64 115 115 64 115 115 64 115 115 64 115 115 64 115 115 64 115 115 64 115 115 64 115 115 64 115 115 64 115 115 64 115 115 64 115 115 64 115 115 64 115 115 64 115 115 64 115 115 64 115 115 64 115 115 64 115 115 64 115 115 64 115 115 64 115 115 64 115 115 64 115 115 64 115 115 64 115 115 64 115 115 64 115 115 64 115 115 64 115 115 64 115 115 64 115 115 64 115 115 64 115 115 64 115 115 64 115 115 64 115 115 64 115 115 64 115 115 64 115 115 64 115 115 64 115 115 64 115 115 64 115 115 64 115 115 64 115 115 64 115 115 64 115 115 64 115 115 64 115 115 64 115 115 64 115 115 64 115 115 64 115 115 64 115 115 64 115 115 64 115 115 64 115 115 64 115 115 64 115 115 64 115 115 64 115 115 64 115 115 64 115 115 64 115 115 64 115 115 64 115 115 64 115 115 64 115 115 128 115 26 128 115 26 128 115 26 128 115 26 128 115 26 128 115 26 128 115 26 128 115 26 128 115 26 128 115 26 128 115 26 128 115 26 128 115 26 128 115 26 128 115 26 128 115 26 128 115 26 128 115 26 128 115 26 128 115 26 128 115 26 128 115 26 128 115 26 128 115 26 128 115 26 128 115 26 128 115 26 128 115 26 128 115 26 128 115 26 128 115 26 128 115 26 128 115 26 128 115 26 128 115 26 128 115 26 128 115 26 128 115 26 128 115 26 128 115 26 128 115 26 128 115 26 128 115 26 128 115 26 128 115 26 128 115 26 128 115 26 128 115 26 128 115 26 128 115 26 128 115 26 128 115 26 128 115 26 128 115 26 128 115 26 128 115 26 128 115 26 128 115 26 128 115 26 128 115 26 128 115 26 128 115 26 128 115 26 128 115 26 128 115 26 128 115 26 128 115 26 128 115 26 128 115 26 128 115 26 128 115 26 128 115 26 128 115 26 128 115 26 128 115 26 128 115 26 128 115 26 128 115 26 128 115 26 128 115 26 128 115 26 128 115 26 128 115 26 128 115 26 128 115 26 128 115 26 128 115 26 128 115 26 128 115 26 128 115 26 128 115 26 128 115 26 128 115 26 128 115 26 128 115 26 128 115 26 128 115 26 128 115 26 128 115 26 128 115 26 
64 115 115 64 115 115 64 115 115 64 115 115 64 115 115 64 115 115 64 115 115 64 115 115 64 115 115 64 115 115 64 115 115 64 115 115 64 115 115 64 115 115 64 115 115 64 115 115 64 115 115 64 115 115 64 115 115 64 115 115 64 115 115 64 115 115 64 115 115 64 115 115 64 115 115 64 115 115 64 115 115 64 115 115 64 115 115 64 115 115 64 115 115 64 115 115 64 115 115 64 115 115 64 115 115 64 115 115 64 115 115 64 115 115 64 115 115 64 115 115 64 115 115 64 115 115 64 115 115 64 115 115 64 115 115 64 115 115 64 115 115 64 115 115 64 115 115 64 115 115 64 115 115 64 115 115 64 115 115 64 115 115 64 115 115 64 115 115 64 115 115 64 115 115 64 115 115 64 115 115 64 115 115 64 115 115 64 115 115 64 115 115 64 115 115 64 115 115 64 115 115 64 115 115 64 115 115 64 115 115 64 115 115 64 115 115 64 115 115 64 115 115 64 115 115 64 115 115 64 115 115 64 115 115 64 115 115 64 115 115 64 115 115 64 115 115 64 115 115 64 115 115 64 115 115 64 115 115 64 115 115 64 115 115 64 115 115 64 115 115 64 115 115 64 115 115 64 115 115 64 115 115 64 115 115 64 115 115 64 115 115 64 115 115 64 115 115 64 115 115 128 115 26 128 115 26 128 115 26 128 115 26 128 115 26 128 115 26 128 115 26 128 115 26 128 115 26 128 115 26 128 115 26 128 115 26 128 115 26 128 115 26 128 115 26 128 115 26 128 115 26 128 115 26 128 115 26 128 115 26 128 115 26 128 115 26 128 115 26 128 115 26 128 115 26 128 115 26 128 115 26 128 115 26 128 115 26 128 115 26 128 115 26 128 115 26 128 115 26 128 115 26 128 115 26 128 115 26 128 115 26 128 115 26 128 115 26 128 115 26 128 115 26 128 115 26 128 115 26 128 115 26 128 115 26 128 115 26 128 115 26 128 115 26 128 115 26 128 115 26 128 115 26 128 115 26 128 115 26 128 115 26 128 115 26 128 115 26 128 115 26 128 115 26 128 115 26 128 115 26 128 115 26 128 115 26 128 115 26 128 115 26 128 115 26 128 115 26 128 115 26 128 115 26 128 115 26 128 115 26 128 115 26 128 115 26 128 115 26 128 115 26 128 115 26 128 115 26 128 115 26 128 115 26 128 115 26 128 115 26 128 115 26 128 115 26 128 115 26 128 115 26 128 115 26 128 115 26 128 115 26 128 115 26 128 115 26 128 115 26 128 115 26 128 115 26 128 115 26 128 115 26 128 115 26 128 115 26 128 115 26 128 115 26 128 115 26 128 115 26 
64 115 115 64 115 115 64 115 115 64 115 115 64 115 115 64 115 115 64 115 115 64 115 115 64 115 115 64 115 115 64 115 115 64 115 115 64 115 115 64 115 115 64 115 115 64 115 115 64 115 115 64 115 115 64 115 115 64 115 115 64 115 115 64 115 115 64 115 115 64 115 115 64 115 115 64 115 115 64 115 115 64 115 115 64 115 115 64 115 115 64 115 115 64 115 115 64 115 115 64 115 115 64 115 115 64 115 115 64 115 115 64 115 115 64 115 115 64 115 115 64 115 115 64 115 115 64 115 115 64 115 115 64 115 115 64 115 115 64 115 115 64 115 115 64 115 115 64 115 115 64 115 115 64 115 115 64 115 115 64 115 115 64 115 115 64 115 115 64 115 115 64 115 115 64 115 115 64 115 115 64 115 115 64 115 115 64 115 115 64 115 115 64 115 115 64 115 115 64 115 115 64 115 115 64 115 115 64 115 115 64 115 115 64 115 115 64 115 115 64 115 115 64 115 115 64 115 115 64 115 115 64 115 115 64 115 115 64 115 115 64 115 115 64 115 115 64 115 115 64 115 115 64 115 115 64 115 115 64 115 115 64 115 115 64 115 115 64 115 115 64 115 115 64 115 115 64 115 115 64 115 115 64 115 115 64 115 115 64 115 115 64 115 115 64 115 115 64 115 115 128 115 26 128 115 26 128 115 26 128 115 26 128 115 26 128 115 26 128 115 26 128 115 26 128 115 26 128 115 26 128 115 26 128 115 26 128 115 26 128 115 26 128 115 26 128 115 26 128 115 26 128 115 26 128 115 26 128 115 26 128 115 26 128 115 26 128 115 26 128 115 26 128 115 26 128 115 26 128 115 26 128 115 26 128 115 26 128 115 26 128 115 26 128 115 26 128 115 26 128 115 26 128 115 26 128 115 26 128 115 26 128 115 26 128 115 26 128 115 26 128 115 26 128 115 26 128 115 26 128 115 26 128 115 26 128 115 26 128 115 26 128 115 26 128 115 26 128 115 26 128 115 26 128 115 26 128 115 26 128 115 26 128 115 26 128 115 26 128 115 26 128 115 26 128 115 26 128 115 26 128 115 26 128 115 26 128 115 26 128 115 26 128 115 26 128 115 26 128 115 26 128 115 26 128 115 26 128 115 26 128 115 26 128 115 26 128 115 26 128 115 26 128 115 26 128 115 26 128 115 26 128 115 26 128 115 26 128 115 26 128 115 26 128 115 26 128 115 26 128 115 26 128 115 26 128 115 26 128 115 26 128 115 26 128 115 26 128 115 26 128 115 26 128 115 26 128 115 26 128 115 26 128 115 26 128 115 26 128 115 26 128 115 26 128 115 26 128 115 26 
64 115 115 64 115 115 64 115 115 64 115 115 64 115 115 64 115 115 64 115 115 64 115 115 64 115 115 64 115 115 64 115 115 64 115 115 64 115 115 64 115 115 64 115 115 64 115 115 64 115 115 64 115 115 64 115 115 64 115 115 64 115 115 64 115 115 64 115 115 64 115 115 64 115 115 64 115 115 64 115 115 64 115 115 64 115 115 64 115 115 64 115 115 64 115 115 64 115 115 64 115 115 64 115 115 64 115 115 64 115 115 64 115 115 64 115 115 64 115 115 64 115 115 64 115 115 64 115 115 64 115 115 64 115 115 64 115 115 64 115 115 64 115 115 64 115 115 64 115 115 64 115 115 64 115 115 64 115 115 64 115 115 64 115 115 64 115 115 64 115 115 64 115 115 64 115 115 64 115 115 64 115 115 64 115 115 64 115 115 64 115 115 64 115 115 64 115 115 64 115 115 64 115 115 64 115 115 64 115 115 64 115 115 64 115 115 64 115 115 64 115 115 64 115 115 64 115 115 64 115 115 64 115 115 64 115 115 64 115 115 64 115 115 64 115 115 64 115 115 64 115 115 64 115 115 64 115 115 64 115 115 64 115 115 64 115 115 64 115 115 64 115 115 64 115 115 64 115 115 64 115 115 64 115 115 64 115 115 64 115 115 64 115 115 64 115 115 64 115 115 128 115 26 128 115 26 128 115 26 128 115 26 128 115 26 128 115 26 128 115 26 128 115 26 128 115 26 128 115 26 128 115 26 128 115 26 128 115 26 128 115 26 128 115 26 128 115 26 128 115 26 128 115 26 128 115 26 128 115 26 128 115 26 128 115 26 128 115 26 128 115 26 128 115 26 128 115 26 128 115 26 128 115 26 128 115 26 128 115 26 128 115 26 128 115 26 128 115 26 128 115 26 128 115 26 128 115 26 128 115 26 128 115 26 128 115 26 128 115 26 128 115 26 128 115 26 128 115 26 128 115 26 128 115 26 128 115 26 128 115 26 128 115 26 128 115 26 128 115 26 128 115 26 128 115 26 128 115 26 128 115 26 128 115 26 128 115 26 128 115 26 128 115 26 128 115 26 128 115 26 128 115 26 128 115 26 128 115 26 128 115 26 128 115 26 128 115 26 128 115 26 128 115 26 128 115 26 128 115 26 128 115 26 128 115 26 128 115 26 128 115 26 128 115 26 128 115 26 128 115 26 128 115 26 128 115 26 128 115 26 128 115 26 128 115 26 128 115 26 128 115 26 128 115 26 128 115 26 128 115 26 128 115 26 128 115 26 128 115 26 128 115 26 128 115 26 128 115 26 128 115 26 128 115 26 128 115 26 128 115 26 128 115 26 128 115 26 128 115 26 
64 115 115 64 115 115 64 115 115 64 115 115 64 115 115 64 115 115 64 115 115 64 115 115 64 115 115 64 115 115 64 115 115 64 115 115 64 115 115 64 115 115 64 115 115 64 115 115 64 115 115 64 115 115 64 115 115 64 115 115 64 115 115 64 115 115 64 115 115 64 115 115 64 115 115 64 115 115 64 115 115 64 115 115 64 115 115 64 115 115 64 115 115 64 115 115 64 115 115 64 115 115 64 115 115 64 115 115 64 115 115 64 115 115 64 115 115 64 115 115 64 115 115 64 115 115 64 115 115 64 115 115 64 115 115 64 115 115 64 115 115 64 115 115 64 115 115 64 115 115 64 115 115 64 115 115 64 115 115 64 115 115 64 115 115 64 115 115 64 115 115 64 115 115 64 115 115 64 115 115 64 115 115 64 115 115 64 115 115 64 115 115 64 115 115 64 115 115 64 115 115 64 115 115 64 115 115 64 115 115 64 115 115 64 115 115 64 115 115 64 115 115 64 115 115 64 115 115 64 115 115 64 115 115 64 115 115 64 115 115 64 115 115 64 115 115 64 115 115 64 115 115 64 115 115 64 115 115 64 115 115 64 115 115 64 115 115 64 115 115 64 115 115 64 115 115 64 115 115 64 115 115 64 115 115 64 115 115 64 115 115 64 115 115 64 115 115 64 115 115 128 115 26 128 115 26 128 115 26 128 115 26 128 115 26 128 115 26 128 115 26 128 115 26 128 115 26 128 115 26 128 115 26 128 115 26 128 115 26 128 115 26 128 115 26 128 115 26 128 115 26 128 115 26 128 115 26 128 115 26 128 115 26 128 115 26 128 115 26 128 115 26 128 115 26 128 115 26 128 115 26 128 115 26 128 115 26 128 115 26 128 115 26 128 115 26 128 115 26 128 115 26 128 115 26 128 115 26 128 115 26 128 115 26 128 115 26 128 115 26 128 115 26 128 115 26 128 115 26 128 115 26 128 115 26 128 115 26 128 115 26 128 115 26 128 115 26 128 115 26 128 115 26 128 115 26 128 115 26 128 115 26 128 115 26 128 115 26 128 115 26 128 115 26 128 115 26 128 115 26 128 115 26 128 115 26 128 115 26 128 115 26 128 115 26 128 115 26 128 115 26 128 115 26 128 115 26 128 115 26 128 115 26 128 115 26 128 115 26 128 115 26 128 115 26 128 115 26 128 115 26 128 115 26 128 115 26 128 115 26 128 115 26 128 115 26 128 115 26 128 115 26 128 115 26 128 115 26 128 115 26 128 115 26 128 115 26 128 115 26 128 115 26 128 115 26 128 115 26 128 115 26 128 115 26 128 115 26 128 115 26 128 115 26 128 115 26 128 115 26 
64 115 115 64 115 115 64 115 115 64 115 115 64 115 115 64 115 115 64 115 115 64 115 115 64 115 115 64 115 115 64 115 115 64 115 115 64 115 115 64 115 115 64 115 115 64 115 115 64 115 115 64 115 115 64 115 115 64 115 115 64 115 115 64 115 115 64 115 115 64 115 115 64 115 115 64 115 115 64 115 115 64 115 115 64 115 115 64 115 115 64 115 115 64 115 115 64 115 115 64 115 115 64 115 115 64 115 115 64 115 115 64 115 115 64 115 115 64 115 115 64 115 115 64 115 115 64 115 115 64 115 115 64 115 115 64 115 115 64 115 115 64 115 115 64 115 115 64 115 115 64 115 115 64 115 115 64 115 115 64 115 115 64 115 115 64 115 115 64 115 115 64 115 115 64 115 115 64 115 115 64 115 115 64 115 115 64 115 115 64 115 115 64 115 115 64 115 115 64 115 115 64 115 115 64 115 115 64 115 115 64 115 115 64 115 115 64 115 115 64 115 115 64 115 115 64 115 115 64 115 115 64 115 115 64 115 115 64 115 115 64 115 115 64 115 115 64 115 115 64 115 115 64 115 115 64 115 115 64 115 115 64 115 115 64 115 115 64 115 115 64 115 115 64 115 115 64 115 115 64 115 115 64 115 115 64 115 115 64 115 115 64 115 115 64 115 115 64 115 115 128 115 26 128 115 26 128 115 26 128 115 26 128 115 26 128 115 26 128 115 26 128 115 26 128 115 26 128 115 26 128 115 26 128 115 26 128 115 26 128 115 26 128 115 26 128 115 26 128 115 26 128 115 26 128 115 26 128 115 26 128 115 26 128 115 26 128 115 26 128 115 26 128 115 26 128 115 26 128 115 26 128 115 26 128 115 26 128 115 26 128 115 26 128 115 26 128 115 26 128 115 26 128 115 26 128 115 26 128 115 26 128 115 26 128 115 26 128 115 26 128 115 26 128 115 26 128 115 26 128 115 26 128 115 26 128 115 26 128 115 26 128 115 26 128 115 26 128 115 26 128 115 26 128 115 26 128 115 26 128 115 26 128 115 26 128 115 26 128 115 26 128 115 26 128 115 26 128 115 26 128 115 26 128 115 26 128 115 26 128 115 26 128 115 26 128 115 26 128 115 26 128 115 26 128 115 26 128 115 26 128 115 26 128 115 26 128 115 26 128 115 26 128 115 26 128 115 26 128 115 26 128 115 26 128 115 26 128 115 26 128 115 26 128 115 26 128 115 26 128 115 26 128 115 26 128 115 26 128 115 26 128 115 26 128 115 26 128 115 26 128 115 26 128 115 26 128 115 26 128 115 26 128 115 26 128 115 26 128 115 26 128 115 26 128 115 26 128 115 26 
64 115 115 64 115 115 64 115 115 64 115 115 64 115 115 64 115 115 64 115 115 64 115 115 64 115 115 64 115 115 64 115 115 64 115 115 64 115 115 64 115 115 64 115 115 64 115 115 64 115 115 64 115 115 64 115 115 64 115 115 64 115 115 64 115 115 64 115 115 64 115 115 64 115 115 64 115 115 64 115 115 64 115 115 64 115 115 64 115 115 64 115 115 64 115 115 64 115 115 64 115 115 64 115 115 64 115 115 64 115 115 64 115 115 64 115 115 64 115 115 64 115 115 64 115 115 64 115 115 64 115 115 64 115 115 64 115 115 64 115 115 64 115 115 64 115 115 64 115 115 64 115 115 64 115 115 64 115 115 64 115 115 64 115 115 64 115 115 64 115 115 64 115 115 64 115 115 64 115 115 64 115 115 64 115 115 64 115 115 64 115 115 64 115 115 64 115 115 64 115 115 64 115 115 64 115 115 64 115 115 64 115 115 64 115 115 64 115 115 64 115 115 64 115 115 64 115 115 64 115 115 64 115 115 64 115 115 64 115 115 64 115 115 64 115 115 64 115 115 64 115 115 64 115 115 64 115 115 64 115 115 64 115 115 64 115 115 64 115 115 64 115 115 64 115 115 64 115 115 64 115 115 64 115 115 64 115 115 64 115 115 64 115 115 64 115 115 64 115 115 128 115 26 128 115 26 128 115 26 128 115 26 128 115 26 128 115 26 128 115 26 128 115 26 128 115 26 128 115 26 128 115 26 128 115 26 128 115 26 128 115 26 128 115 26 128 115 26 128 115 26 128 115 26 128 115 26 128 115 26 128 115 26 128 115 26 128 115 26 128 115 26 128 115 26 128 115 26 128 115 26 128 115 26 128 115 26 128 115 26 128 115 26 128 115 26 128 115 26 128 115 26 128 115 26 128 115 26 128 115 26 128 115 26 128 115 26 128 115 26 128 115 26 128 115 26 128 115 26 128 115 26 128 115 26 128 115 26 128 115 26 128 115 26 128 115 26 128 115 26 128 115 26 128 115 26 128 115 26 128 115 26 128 115 26 128 115 26 128 115 26 128 115 26 128 115 26 128 115 26 128 115 26 128 115 26 128 115 26 128 115 26 128 115 26 128 115 26 128 115 26 128 115 26 128 115 26 128 115 26 128 115 26 128 115 26 128 115 26 128 115 26 128 115 26 128 115 26 128 115 26 128 115 26 128 115 26 128 115 26 128 115 26 128 115 26 128 115 26 128 115 26 128 115 26 128 115 26 128 115 26 128 115 26 128 115 26 128 115 26 128 115 26 128 115 26 128 115 26 128 115 26 128 115 26 128 115 26 128 115 26 128 115 26 128 115 26 128 115 26 
64 115 115 64 115 115 64 115 115 64 115 115 64 115 115 64 115 115 64 115 115 64 115 115 64 115 115 64 115 115 64 115 115 64 115 115 64 115 115 64 115 115 64 115 115 64 115 115 64 115 115 64 115 115 64 115 115 64 115 115 64 115 115 64 115 115 64 115 115 64 115 115 64 115 115 64 115 115 64 115 115 64 115 115 64 115 115 64 115 115 64 115 115 64 115 115 64 115 115 64 115 115 64 115 115 64 115 115 64 115 115 64 115 115 64 115 115 64 115 115 64 115 115 64 115 115 64 115 115 64 115 115 64 115 115 64 115 115 64 115 115 64 115 115 64 115 115 64 115 115 64 115 115 64 115 115 64 115 115 64 115 115 64 115 115 64 115 115 64 115 115 64 115 115 64 115 115 64 115 115 64 115 115 64 115 115 64 115 115 64 115 115 64 115 115 64 115 115 64 115 115 64 115 115 64 115 115 64 115 115 64 115 115 64 115 115 64 115 115 64 115 115 64 115 115 64 115 115 64 115 115 64 115 115 64 115 115 64 115 115 64 115 115 64 115 115 64 115 115 64 115 115 64 115 115 64 115 115 64 115 115 64 115 115 64 115 115 64 115 115 64 115 115 64 115 115 64 115 115 64 115 115 64 115 115 64 115 115 64 115 115 64 115 115 64 115 115 64 115 115 128 115 26 128 115 26 128 115 26 128 115 26 128 115 26 128 115 26 128 115 26 128 115 26 128 115 26 128 115 26 128 115 26 128 115 26 128 115 26 128 115 26 128 115 26 128 115 26 128 115 26 128 115 26 128 115 26 128 115 26 128 115 26 128 115 26 128 115 26 128 115 26 128 115 26 128 115 26 128 115 26 128 115 26 128 115 26 128 115 26 128 115 26 128 115 26 128 115 26 128 115 26 128 115 26 128 115 26 128 115 26 128 115 26 128 115 26 128 115 26 128 115 26 128 115 26 128 115 26 128 115 26 128 115 26 128 115 26 128 115 26 128 115 26 128 115 26 128 115 26 128 115 26 128 115 26 128 115 26 128 115 26 128 115 26 128 115 26 128 115 26 128 115 26 128 115 26 128 115 26 128 115 26 128 115 26 128 115 26 128 115 26 128 115 26 128 115 26 128 115 26 128 115 26 128 115 26 128 115 26 128 115 26 128 115 26 128 115 26 128 115 26 128 115 26 128 115 26 128 115 26 128 115 26 128 115 26 128 115 26 128 115 26 128 115 26 128 115 26 128 115 26 128 115 26 128 115 26 128 115 26 128 115 26 128 115 26 128 115 26 128 115 26 128 115 26 128 115 26 128 115 26 128 115 26 128 115 26 128 115 26 128 115 26 128 115 26 128 115 26 
64 115 115 64 115 115 64 115 115 64 115 115 64 115 115 64 115 115 64 115 115 64 115 115 64 115 115 64 115 115 64 115 115 64 115 115 64 115 115 64 115 115 64 115 115 64 115 115 64 115 115 64 115 115 64 115 115 64 115 115 64 115 115 64 115 115 64 115 115 64 115 115 64 115 115 64 115 115 64 115 115 64 115 115 64 115 115 64 115 115 64 115 115 64 115 115 64 115 115 64 115 115 64 115 115 64 115 115 64 115 115 64 115 115 64 115 115 64 115 115 64 115 115 64 115 115 64 115 115 64 115 115 64 115 115 64 115 115 64 115 115 64 115 115 64 115 115 64 115 115 64 115 115 64 115 115 64 115 115 64 115 115 64 115 115 64 115 115 64 115 115 64 115 115 64 115 115 64 115 115 64 115 115 64 115 115 64 115 115 64 115 115 64 115 115 64 115 115 64 115 115 64 115 115 64 115 115 64 115 115 64 115 115 64 115 115 64 115 115 64 115 115 64 115 115 64 115 115 64 115 115 64 115 115 64 115 115 64 115 115 64 115 115 64 115 115 64 115 115 64 115 115 64 115 115 64 115 115 64 115 115 64 115 115 64 115 115 64 115 115 64 115 115 64 115 115 64 115 115 64 115 115 64 115 115 64 115 115 64 115 115 64 115 115 64 115 115 64 115 115 128 115 26 128 115 26 128 115 26 128 115 26 128 115 26 128 115 26 128 115 26 128 115 26 128 115 26 128 115 26 128 115 26 128 115 26 128 115 26 128 115 26 128 115 26 128 115 26 128 115 26 128 115 26 128 115 26 128 115 26 128 115 26 128 115 26 128 115 26 128 115 26 128 115 26 128 115 26 128 115 26 128 115 26 128 115 26 128 115 26 128 115 26 128 115 26 128 115 26 128 115 26 128 115 26 128 115 26 128 115 26 128 115 26 128 115 26 128 115 26 128 115 26 128 115 26 128 115 26 128 115 26 128 115 26 128 115 26 128 115 26 128 115 26 128 115 26 128 115 26 128 115 26 128 115 26 128 115 26 128 115 26 128 115 26 128 115 26 128 115 26 128 115 26 128 115 26 128 115 26 128 115 26 128 115 26 128 115 26 128 115 26 128 115 26 128 115 26 128 115 26 128 115 26 128 115 26 128 115 26 128 115 26 128 115 26 128 115 26 128 115 26 128 115 26 128 115 26 128 115 26 128 115 26 128 115 26 128 115 26 128 115 26 128 115 26 128 115 26 128 115 26 128 115 26 128 115 26 128 115 26 128 115 26 128 115 26 128 115 26 128 115 26 128 115 26 128 115 26 128 115 26 128 115 26 128 115 26 128 115 26 128 115 26 128 115 26 128 115 26 
64 115 115 64 115 115 64 115 115 64 115 115 64 115 115 64 115 115 64 115 115 64 115 115 64 115 115 64 115 115 64 115 115 64 115 115 64 115 115 64 115 115 64 115 115 64 115 115 64 115 115 64 115 115 64 115 115 64 115 115 64 115 115 64 115 115 64 115 115 64 115 115 64 115 115 64 115 115 64 115 115 64 115 115 64 115 115 64 115 115 64 115 115 64 115 115 64 115 115 64 115 115 64 115 115 64 115 115 64 115 115 64 115 115 64 115 115 64 115 115 64 115 115 64 115 115 64 115 115 64 115 115 64 115 115 64 115 115 64 115 115 64 115 115 64 115 115 64 115 115 64 115 115 64 115 115 64 115 115 64 115 115 64 115 115 64 115 115 64 115 115 64 115 115 64 115 115 64 115 115 64 115 115 64 115 115 64 115 115 64 115 115 64 115 115 64 115 115 64 115 115 64 115 115 64 115 115 64 115 115 64 115 115 64 115 115 64 115 115 64 115 115 64 115 115 64 115 115 64 115 115 64 115 115 64 115 115 64 115 115 64 115 115 64 115 115 64 115 115 64 115 115 64 115 115 64 115 115 64 115 115 64 115 115 64 115 115 64 115 115 64 115 115 64 115 115 64 115 115 64 115 115 64 115 115 64 115 115 64 115 115 64 115 115 64 115 115 64 115 115 128 115 26 128 115 26 128 115 26 128 115 26 128 115 26 128 115 26 128 115 26 128 115 26 128 115 26 128 115 26 128 115 26 128 115 26 128 115 26 128 115 26 128 115 26 128 115 26 128 115 26 128 115 26 128 115 26 128 115 26 128 115 26 128 115 26 128 115 26 128 115 26 128 115 26 128 115 26 128 115 26 128 115 26 128 115 26 128 115 26 128 115 26 128 115 26 128 115 26 128 115 26 128 115 26 128 115 26 128 115 26 128 115 26 128 115 26 128 115 26 128 115 26 128 115 26 128 115 26 128 115 26 128 115 26 128 115 26 128 115 26 128 115 26 128 115 26 128 115 26 128 115 26 128 115 26 128 115 26 128 115 26 128 115 26 128 115 26 128 115 26 128 115 26 128 115 26 128 115 26 128 115 26 128 115 26 128 115 26 128 115 26 128 115 26 128 115 26 128 115 26 128 115 26 128 115 26 128 115 26 128 115 26 128 115 26 128 115 26 128 115 26 128 115 26 128 115 26 128 115 26 128 115 26 128 115 26 128 115 26 128 115 26 128 115 26 128 115 26 128 115 26 128 115 26 128 115 26 128 115 26 128 115 26 128 115 26 128 115 26 128 115 26 128 115 26 128 115 26 128 115 26 128 115 26 128 115 26 128 115 26 128 115 26 128 115 26 128 115 26 
64 115 115 64 115 115 64 115 115 64 115 115 64 115 115 64 115 115 64 115 115 64 115 115 64 115 115 64 115 115 64 115 115 64 115 115 64 115 115 64 115 115 64 115 115 64 115 115 64 115 115 64 115 115 64 115 115 64 115 115 64 115 115 64 115 115 64 115 115 64 115 115 64 115 115 64 115 115 64 115 115 64 115 115 64 115 115 64 115 115 64 115 115 64 115 115 64 115 115 64 115 115 64 115 115 64 115 115 64 115 115 64 115 115 64 115 115 64 115 115 64 115 115 64 115 115 64 115 115 64 115 115 64 115 115 64 115 115 64 115 115 64 115 115 64 115 115 64 115 115 64 115 115 64 115 115 64 115 115 64 115 115 64 115 115 64 115 115 64 115 115 64 115 115 64 115 115 64 115 115 64 115 115 64 115 115 64 115 115 64 115 115 64 115 115 64 115 115 64 115 115 64 115 115 64 115 115 64 115 115 64 115 115 64 115 115 64 115 115 64 115 115 64 115 115 64 115 115 64 115 115 64 115 115 64 115 115 64 115 115 64 115 115 64 115 115 64 115 115 64 115 115 64 115 115 64 115 115 64 115 115 64 115 115 64 115 115 64 115 115 64 115 115 64 115 115 64 115 115 64 115 115 64 115 115 64 115 115 64 115 115 64 115 115 64 115 115 64 115 115 128 115 26 128 115 26 128 115 26 128 115 26 128 115 26 128 115 26 128 115 26 128 115 26 128 115 26 128 115 26 128 115 26 128 115 26 128 115 26 128 115 26 128 115 26 128 115 26 128 115 26 128 115 26 128 115 26 128 115 26 128 115 26 128 115 26 128 115 26 128 115 26 128 115 26 128 115 26 128 115 26 128 115 26 128 115 26 128 115 26 128 115 26 128 115 26 128 115 26 128 115 26 128 115 26 128 115 26 128 115 26 128 115 26 128 115 26 128 115 26 128 115 26 128 115 26 128 115 26 128 115 26 128 115 26 128 115 26 128 115 26 128 115 26 128 115 26 128 115 26 128 115 26 128 115 26 128 115 26 128 115 26 128 115 26 128 115 26 128 115 26 128 115 26 128 115 26 128 115 26 128 115 26 128 115 26 128 115 26 128 115 26 128 115 26 128 115 26 128 115 26 128 115 26 128 115 26 128 115 26 128 115 26 128 115 26 128 115 26 128 115 26 128 115 26 128 115 26 128 115 26 128 115 26 128 115 26 128 115 26 128 115 26 128 115 26 128 115 26 128 115 26 128 115 26 128 115 26 128 115 26 128 115 26 128 115 26 128 115 26 128 115 26 128 115 26 128 115 26 128 115 26 128 115 26 128 115 26 128 115 26 128 115 26 128 115 26 128 115 26 
64 115 115 64 115 115 64 115 115 64 115 115 64 115 115 64 115 115 64 115 115 64 115 115 64 115 115 64 115 115 64 115 115 64 115 115 64 115 115 64 115 115 64 115 115 64 115 115 64 115 115 64 115 115 64 115 115 64 115 115 64 115 115 64 115 115 64 115 115 64 115 115 64 115 115 64 115 115 64 115 115 64 115 115 64 115 115 64 115 115 64 115 115 64 115 115 64 115 115 64 115 115 64 115 115 64 115 115 64 115 115 64 115 115 64 115 115 64 115 115 64 115 115 64 115 115 64 115 115 64 115 115 64 115 115 64 115 115 64 115 115 64 115 115 64 115 115 64 115 115 64 115 115 64 115 115 64 115 115 64 115 115 64 115 115 64 115 115 64 115 115 64 115 115 64 115 115 64 115 115 64 115 115 64 115 115 64 115 115 64 115 115 64 115 115 64 115 115 64 115 115 64 115 115 64 115 115 64 115 115 64 115 115 64 115 115 64 115 115 64 115 115 64 115 115 64 115 115 64 115 115 64 115 115 64 115 115 64 115 115 64 115 115 64 115 115 64 115 115 64 115 115 64 115 115 64 115 115 64 115 115 64 115 115 64 115 115 64 115 115 64 115 115 64 115 115 64 115 115 64 115 115 64 115 115 64 115 115 64 115 115 64 115 115 64 115 115 64 115 115 128 115 26 128 115 26 128 115 26 128 115 26 128 115 26 128 115 26 128 115 26 128 115 26 128 115 26 128 115 26 128 115 26 128 115 26 128 115 26 128 115 26 128 115 26 128 115 26 128 115 26 128 115 26 128 115 26 128 115 26 128 115 26 128 115 26 128 115 26 128 115 26 128 115 26 128 115 26 128 115 26 128 115 26 128 115 26 128 115 26 128 115 26 128 115 26 128 115 26 128 115 26 128 115 26 128 115 26 128 115 26 128 115 26 128 115 26 128 115 26 128 115 26 128 115 26 128 115 26 128 115 26 128 115 26 128 115 26 128 115 26 128 115 26 128 115 26 128 115 26 128 115 26 128 115 26 128 115 26 128 115 26 128 115 26 128 115 26 128 115 26 128 115 26 128 115 26 128 115 26 128 115 26 128 115 26 128 115 26 128 115 26 128 115 26 128 115 26 128 115 26 128 115 26 128 115 26 128 115 26 128 115 26 128 115 26 128 115 26 128 115 26 128 115 26 128 115 26 128 115 26 128 115 26 128 115 26 128 115 26 128 115 26 128 115 26 128 115 26 128 115 26 128 115 26 128 115 26 128 115 26 128 115 26 128 115 26 128 115 26 128 115 26 128 115 26 128 115 26 128 115 26 128 115 26 128 115 26 128 115 26 128 115 26 128 115 26 128 115 26 
64 115 115 64 115 115 64 115 115 64 115 115 64 115 115 64 115 115 64 115 115 64 115 115 64 115 115 64 115 115 64 115 115 64 115 115 64 115 115 64 115 115 64 115 115 64 115 115 64 115 115 64 115 115 64 115 115 64 115 115 64 115 115 64 115 115 64 115 115 64 115 115 64 115 115 64 115 115 64 115 115 64 115 115 64 115 115 64 115 115 64 115 115 64 115 115 64 115 115 64 115 115 64 115 115 64 115 115 64 115 115 64 115 115 64 115 115 64 115 115 64 115 115 64 115 115 64 115 115 64 115 115 64 115 115 64 115 115 64 115 115 64 115 115 64 115 115 64 115 115 64 115 115 64 115 115 64 115 115 64 115 115 64 115 115 64 115 115 64 115 115 64 115 115 64 115 115 64 115 115 64 115 115 64 115 115 64 115 115 64 115 115 64 115 115 64 115 115 64 115 115 64 115 115 64 115 115 64 115 115 64 115 115 64 115 115 64 115 115 64 115 115 64 115 115 64 115 115 64 115 115 64 115 115 14 143 71 15 148 74 15 147 73 15 145 73 14 143 71 14 140 70 14 136 68 13 132 66 13 127 63 12 121 61 11 114 57 64 115 115 64 115 115 64 115 115 64 115 115 64 115 115 64 115 115 64 115 115 64 115 115 64 115 115 64 115 115 64 115 115 128 115 26 128 115 26 128 115 26 128 115 26 128 115 26 128 115 26 128 115 26 128 115 26 128 115 26 128 115 26 128 115 26 128 115 26 128 115 26 128 115 26 128 115 26 128 115 26 128 115 26 128 115 26 128 115 26 128 115 26 128 115 26 128 115 26 128 115 26 128 115 26 128 115 26 128 115 26 128 115 26 128 115 26 128 115 26 128 115 26 128 115 26 128 115 26 128 115 26 128 115 26 128 115 26 128 115 26 128 115 26 128 115 26 128 115 26 128 115 26 128 115 26 128 115 26 128 115 26 128 115 26 128 115 26 128 115 26 128 115 26 128 115 26 128 115 26 128 115 26 128 115 26 128 115 26 128 115 26 128 115 26 128 115 26 128 115 26 128 115 26 128 115 26 128 115 26 128 115 26 128 115 26 128 115 26 128 115 26 128 115 26 128 115 26 128 115 26 128 115 26 128 115 26 128 115 26 128 115 26 128 115 26 128 115 26 128 115 26 128 115 26 128 115 26 128 115 26 128 115 26 128 115 26 128 115 26 128 115 26 128 115 26 128 115 26 128 115 26 128 115 26 128 115 26 128 115 26 128 115 26 128 115 26 128 115 26 128 115 26 128 115 26 128 115 26 128 115 26 128 115 26 128 115 26 128 115 26 128 115 26 128 115 26 128 115 26 128 115 26 
64 115 115 64 115 115 64 115 115 64 115 115 64 115 115 64 115 115 64 115 115 64 115 115 64 115 115 64 115 115 64 115 115 64 115 115 64 115 115 64 115 115 64 115 115 64 115 115 64 115 115 64 115 115 64 115 115 64 115 115 64 115 115 64 115 115 64 115 115 64 115 115 64 115 115 64 115 115 64 115 115 64 115 115 64 115 115 64 115 115 64 115 115 64 115 115 64 115 115 64 115 115 64 115 115 64 115 115 64 115 115 64 115 115 64 115 115 64 115 115 64 115 115 64 115 115 64 115 115 64 115 115 64 115 115 64 115 115 64 115 115 64 115 115 64 115 115 64 115 115 64 115 115 64 115 115 64 115 115 64 115 115 64 115 115 64 115 115 64 115 115 64 115 115 64 115 115 64 115 115 64 115 115 64 115 115 64 115 115 64 115 115 64 115 115 64 115 115 64 115 115 64 115 115 64 115 115 64 115 115 64 115 115 64 115 115 64 115 115 64 115 115 16 160 80 16 164 82 16 164 82 16 163 82 16 162 81 16 160 80 16 158 79 16 155 78 15 152 76 15 149 74 15 145 73 14 142 71 14 137 69 13 133 66 13 128 64 12 123 61 12 117 58 11 110 55 10 101 51 64 115 115 64 115 115 64 115 115 64 115 115 64 115 115 64 115 115 64 115 115 128 115 26 128 115 26 128 115 26 128 115 26 128 115 26 128 115 26 128 115 26 128 115 26 128 115 26 128 115 26 128 115 26 128 115 26 128 115 26 128 115 26 128 115 26 128 115 26 128 115 26 128 115 26 128 115 26 128 115 26 128 115 26 128 115 26 128 115 26 128 115 26 128 115 26 128 115 26 128 115 26 128 115 26 128 115 26 128 115 26 128 115 26 128 115 26 128 115 26 128 115 26 128 115 26 128 115 26 128 115 26 128 115 26 128 115 26 128 115 26 128 115 26 128 115 26 128 115 26 128 115 26 128 115 26 128 115 26 128 115 26 128 115 26 128 115 26 128 115 26 128 115 26 128 115 26 128 115 26 128 115 26 128 115 26 128 115 26 128 115 26 128 115 26 128 115 26 128 115 26 128 115 26 128 115 26 128 115 26 128 115 26 128 115 26 128 115 26 128 115 26 128 115 26 128 115 26 128 115 26 128 115 26 128 115 26 128 115 26 128 115 26 128 115 26 128 115 26 128 115 26 128 115 26 128 115 26 128 115 26 128 115 26 128 115 26 128 115 26 128 115 26 128 115 26 128 115 26 128 115 26 128 115 26 128 115 26 128 115 26 128 115 26 128 115 26 128 115 26 128 115 26 128 115 26 128 115 26 128 115 26 128 115 26 128 115 26 128 115 26 
64 115 115 64 115 115 64 115 115 64 115 115 64 115 115 64 115 115 64 115 115 64 115 115 64 115 115 64 115 115 64 115 115 64 115 115 64 115 115 64 115 115 64 115 115 64 115 115 64 115 115 64 115 115 64 115 115 64 115 115 64 115 115 64 115 115 64 115 115 64 115 115 64 115 115 64 115 115 64 115 115 64 115 115 64 115 115 64 115 115 64 115 115 64 115 115 64 115 115 64 115 115 64 115 115 64 115 115 64 115 115 64 115 115 64 115 115 64 115 115 64 115 115 64 115 115 64 115 115 64 115 115 64 115 115 64 115 115 64 115 115 64 115 115 64 115 115 64 115 115 64 115 115 64 115 115 64 115 115 64 115 115 64 115 115 64 115 115 64 115 115 64 115 115 64 115 115 64 115 115 64 115 115 64 115 115 64 115 115 64 115 115 64 115 115 64 115 115 64 115 115 64 115 115 64 115 115 64 115 115 64 115 115 64 115 115 17 172 86 17 174 87 17 174 87 17 173 86 17 172 86 17 170 85 17 168 84 17 166 83 16 163 82 16 160 80 16 157 79 15 154 77 15 150 75 15 147 73 14 143 71 14 139 69 13 134 67 13 129 65 12 124 62 12 119 59 11 113 56 11 106 53 10 98 49 9 88 44 64 115 115 64 115 115 64 115 115 64 115 115 128 115 26 128 115 26 128 115 26 128 115 26 128 115 26 128 115 26 128 115 26 128 115 26 128 115 26 128 115 26 128 115 26 128 115 26 128 115 26 128 115 26 128 115 26 128 115 26 128 115 26 128 115 26 128 115 26 128 115 26 128 115 26 128 115 26 128 115 26 128 115 26 128 115 26 128 115 26 128 115 26 128 115 26 128 115 26 128 115 26 128 115 26 128 115 26 128 115 26 128 115 26 128 115 26 128 115 26 128 115 26 128 115 26 128 115 26 128 115 26 128 115 26 128 115 26 128 115 26 128 115 26 128 115 26 128 115 26 128 115 26 128 115 26 128 115 26 128 115 26 128 115 26 128 115 26 128 115 26 128 115 26 128 115 26 128 115 26 128 115 26 128 115 26 128 115 26 128 115 26 128 115 26 128 115 26 128 115 26 128 115 26 128 115 26 128 115 26 128 115 26 128 115 26 128 115 26 128 115 26 128 115 26 128 115 26 128 115 26 128 115 26 128 115 26 128 115 26 128 115 26 128 115 26 128 115 26 128 115 26 128 115 26 128 115 26 128 115 26 128 115 26 128 115 26 128 115 26 128 115 26 128 115 26 128 115 26 128 115 26 128 115 26 128 115 26 128 115 26 128 115 26 128 115 26 128 115 26 128 115 26 128 115 26 128 115 26 128 115 26 
64 115 115 64 115 115 64 115 115 64 115 115 64 115 115 64 115 115 64 115 115 64 115 115 64 115 115 64 115 115 64 115 115 64 115 115 64 115 115 64 115 115 64 115 115 64 115 115 64 115 115 64 115 115 64 115 115 64 115 115 64 115 115 64 115 115 64 115 115 64 115 115 64 115 115 64 115 115 64 115 115 64 115 115 64 115 115 64 115 115 64 115 115 64 115 115 64 115 115 64 115 115 64 115 115 64 115 115 64 115 115 64 115 115 64 115 115 64 115 115 64 115 115 64 115 115 64 115 115 64 115 115 64 115 115 64 115 115 64 115 115 64 115 115 64 115 115 64 115 115 64 115 115 64 115 115 64 115 115 64 115 115 64 115 115 64 115 115 64 115 115 64 115 115 64 115 115 64 115 115 64 115 115 64 115 115 64 115 115 64 115 115 64 115 115 64 115 115 64 115 115 64 115 115 64 115 115 17 173 86 18 179 89 18 180 90 18 181 90 18 180 90 18 179 90 18 178 89 18 176 88 17 174 87 17 172 86 17 169 85 17 166 83 16 164 82 16 161 80 16 157 79 15 154 77 15 150 75 15 146 73 14 142 71 14 138 69 13 134 67 13 129 64 12 124 62 12 118 59 11 113 56 11 106 53 10 99 50 9 91 46 8 81 40 64 115 115 64 115 115 128 115 26 128 115 26 128 115 26 128 115 26 128 115 26 128 115 26 128 115 26 128 115 26 128 115 26 128 115 26 128 115 26 128 115 26 128 115 26 128 115 26 128 115 26 128 115 26 128 115 26 128 115 26 128 115 26 128 115 26 128 115 26 128 115 26 128 115 26 128 115 26 128 115 26 128 115 26 128 115 26 128 115 26 128 115 26 128 115 26 128 115 26 128 115 26 128 115 26 128 115 26 128 115 26 128 115 26 128 115 26 128 115 26 128 115 26 128 115 26 128 115 26 128 115 26 128 115 26 128 115 26 128 115 26 128 115 26 128 115 26 128 115 26 128 115 26 128 115 26 128 115 26 128 115 26 128 115 26 128 115 26 128 115 26 128 115 26 128 115 26 128 115 26 128 115 26 128 115 26 128 115 26 128 115 26 128 115 26 128 115 26 128 115 26 128 115 26 128 115 26 128 115 26 128 115 26 128 115 26 128 115 26 128 115 26 128 115 26 128 115 26 128 115 26 128 115 26 128 115 26 128 115 26 128 115 26 128 115 26 128 115 26 128 115 26 128 115 26 128 115 26 128 115 26 128 115 26 128 115 26 128 115 26 128 115 26 128 115 26 128 115 26 128 115 26 128 115 26 128 115 26 128 115 26 128 115 26 128 115 26 128 115 26 128 115 26 128 115 26 
64 115 115 64 115 115 64 115 115 64 115 115 64 115 115 64 115 115 64 115 115 64 115 115 64 115 115 64 115 115 64 115 115 64 115 115 64 115 115 64 115 115 64 115 115 64 115 115 64 115 115 64 115 115 64 115 115 64 115 115 64 115 115 64 115 115 64 115 115 64 115 115 64 115 115 64 115 115 64 115 115 64 115 115 64 115 115 64 115 115 64 115 115 64 115 115 64 115 115 64 115 115 64 115 115 64 115 115 64 115 115 64 115 115 64 115 115 64 115 115 64 115 115 64 115 115 64 115 115 64 115 115 64 115 115 64 115 115 64 115 115 64 115 115 64 115 115 64 115 115 64 115 115 64 115 115 64 115 115 64 115 115 64 115 115 64 115 115 64 115 115 64 115 115 64 115 115 64 115 115 64 115 115 64 115 115 64 115 115 64 115 115 64 115 115 64 115 115 64 115 115 64 115 115 18 183 91 19 185 93 19 186 93 19 186 93 19 185 93 18 184 92 18 183 91 18 181 90 18 179 89 18 177 88 17 174 87 17 172 86 17 169 84 17 166 83 16 163 81 16 160 80 16 156 78 15 153 76 15 149 74 14 145 72 14 141 70 14 136 68 13 132 66 13 127 64 12 122 61 12 117 58 11 111 56 11 105 53 10 98 49 9 91 45 8 82 41 7 71 35 128 115 26 128 115 26 128 115 26 128 115 26 128 115 26 128 115 26 128 115 26 128 115 26 128 115 26 128 115 26 128 115 26 128 115 26 128 115 26 128 115 26 128 115 26 128 115 26 128 115 26 128 115 26 128 115 26 128 115 26 128 115 26 128 115 26 128 115 26 128 115 26 128 115 26 128 115 26 128 115 26 128 115 26 128 115 26 128 115 26 128 115 26 128 115 26 128 115 26 128 115 26 128 115 26 128 115 26 128 115 26 128 115 26 128 115 26 128 115 26 128 115 26 128 115 26 128 115 26 128 115 26 128 115 26 128 115 26 128 115 26 128 115 26 128 115 26 128 115 26 128 115 26 128 115 26 128 115 26 128 115 26 128 115 26 128 115 26 128 115 26 128 115 26 128 115 26 128 115 26 128 115 26 128 115 26 128 115 26 128 115 26 128 115 26 128 115 26 128 115 26 128 115 26 128 115 26 128 115 26 128 115 26 128 115 26 128 115 26 128 115 26 128 115 26 128 115 26 128 115 26 128 115 26 128 115 26 128 115 26 128 115 26 128 115 26 128 115 26 128 115 26 128 115 26 128 115 26 128 115 26 128 115 26 128 115 26 128 115 26 128 115 26 128 115 26 128 115 26 128 115 26 128 115 26 128 115 26 128 115 26 128 115 26 128 115 26 128 115 26 
64 115 115 64 115 115 64 115 115 64 115 115 64 115 115 64 115 115 64 115 115 64 115 115 64 115 115 64 115 115 64 115 115 64 115 115 64 115 115 64 115 115 64 115 115 64 115 115 64 115 115 64 115 115 64 115 115 64 115 115 64 115 115 64 115 115 64 115 115 64 115 115 64 115 115 64 115 115 64 115 115 64 115 115 64 115 115 64 115 115 64 115 115 64 115 115 64 115 115 64 115 115 64 115 115 64 115 115 64 115 115 64 115 115 64 115 115 64 115 115 64 115 115 64 115 115 64 115 115 64 115 115 64 115 115 64 115 115 64 115 115 64 115 115 64 115 115 64 115 115 64 115 115 64 115 115 64 115 115 64 115 115 64 115 115 64 115 115 64 115 115 64 115 115 64 115 115 64 115 115 64 115 115 64 115 115 64 115 115 64 115 115 64 115 115 64 115 115 18 184 92 19 188 94 19 190 95 19 190 95 19 190 95 19 189 95 19 188 94 19 187 93 18 185 92 18 183 91 18 181 90 18 178 89 18 176 88 17 173 87 17 170 85 17 167 84 16 164 82 16 161 81 16 158 79 15 154 77 15 151 75 15 147 73 14 143 71 14 139 69 13 134 67 13 130 65 12 125 62 12 120 60 11 114 57 11 109 54 10 103 51 10 96 48 9 89 44 8 81 40 7 71 35 6 56 28 128 115 26 128 115 26 128 115 26 128 115 26 128 115 26 128 115 26 128 115 26 128 115 26 128 115 26 128 115 26 128 115 26 128 115 26 128 115 26 128 115 26 128 115 26 128 115 26 128 115 26 128 115 26 128 115 26 128 115 26 128 115 26 128 115 26 128 115 26 128 115 26 128 115 26 128 115 26 128 115 26 128 115 26 128 115 26 128 115 26 128 115 26 128 115 26 128 115 26 128 115 26 128 115 26 128 115 26 128 115 26 128 115 26 128 115 26 128 115 26 128 115 26 128 115 26 128 115 26 128 115 26 128 115 26 128 115 26 128 115 26 128 115 26 128 115 26 128 115 26 128 115 26 128 115 26 128 115 26 128 115 26 128 115 26 128 115 26 128 115 26 128 115 26 128 115 26 128 115 26 128 115 26 128 115 26 128 115 26 128 115 26 128 115 26 128 115 26 128 115 26 128 115 26 128 115 26 128 115 26 128 115 26 128 115 26 128 115 26 128 115 26 128 115 26 128 115 26 128 115 26 128 115 26 128 115 26 128 115 26 128 115 26 128 115 26 128 115 26 128 115 26 128 115 26 128 115 26 128 115 26 128 115 26 128 115 26 128 115 26 128 115 26 128 115 26 128 115 26 128 115 26 128 115 26 128 115 26 128 115 26 128 115 26 
64 115 115 64 115 115 64 115 115 64 115 115 64 115 115 64 115 115 64 115 115 64 115 115 64 115 115 64 115 115 64 115 115 64 115 115 64 115 115 64 115 115 64 115 115 64 115 115 64 115 115 64 115 115 64 115 115 64 115 115 64 115 115 64 115 115 64 115 115 64 115 115 64 115 115 64 115 115 64 115 115 64 115 115 64 115 115 64 115 115 64 115 115 64 115 115 64 115 115 64 115 115 64 115 115 64 115 115 64 115 115 64 115 115 64 115 115 64 115 115 64 115 115 64 115 115 64 115 115 64 115 115 64 115 115 64 115 115 64 115 115 64 115 115 64 115 115 64 115 115 64 115 115 64 115 115 64 115 115 64 115 115 64 115 115 64 115 115 64 115 115 64 115 115 64 115 115 64 115 115 64 115 115 64 115 115 64 115 115 64 115 115 64 115 115 19 189 95 19 192 96 19 193 97 19 194 97 19 193 97 19 193 96 19 191 96 19 190 95 19 188 94 19 186 93 18 184 92 18 182 91 18 180 90 18 177 89 17 174 87 17 171 86 17 169 84 17 165 83 16 162 81 16 159 79 16 155 78 15 152 76 15 148 74 14 144 72 14 140 70 14 136 68 13 131 66 13 127 63 12 122 61 12 117 58 11 111 56 11 106 53 10 100 50 9 93 47 9 86 43 8 78 39 7 69 34 6 56 28 128 115 26 128 115 26 128 115 26 128 115 26 128 115 26 128 115 26 128 115 26 128 115 26 128 115 26 128 115 26 128 115 26 128 115 26 128 115 26 128 115 26 128 115 26 128 115 26 128 115 26 128 115 26 128 115 26 128 115 26 128 115 26 128 115 26 128 115 26 128 115 26 128 115 26 128 115 26 128 115 26 128 115 26 128 115 26 128 115 26 128 115 26 128 115 26 128 115 26 128 115 26 128 115 26 128 115 26 128 115 26 128 115 26 128 115 26 128 115 26 128 115 26 128 115 26 128 115 26 128 115 26 128 115 26 128 115 26 128 115 26 128 115 26 128 115 26 128 115 26 128 115 26 128 115 26 128 115 26 128 115 26 128 115 26 128 115 26 128 115 26 128 115 26 128 115 26 128 115 26 128 115 26 128 115 26 128 115 26 128 115 26 128 115 26 128 115 26 128 115 26 128 115 26 128 115 26 128 115 26 128 115 26 128 115 26 128 115 26 128 115 26 128 115 26 128 115 26 128 115 26 128 115 26 128 115 26 128 115 26 128 115 26 128 115 26 128 115 26 128 115 26 128 115 26 128 115 26 128 115 26 128 115 26 128 115 26 128 115 26 128 115 26 128 115 26 128 115 26 128 115 26 128 115 26 128 115 26 128 115 26 
64 115 115 64 115 115 64 115 115 64 115 115 64 115 115 64 115 115 64 115 115 64 115 115 64 115 115 64 115 115 64 115 115 64 115 115 64 115 115 64 115 115 64 115 115 64 115 115 64 115 115 64 115 115 64 115 115 64 115 115 64 115 115 64 115 115 64 115 115 64 115 115 64 115 115 64 115 115 64 115 115 64 115 115 64 115 115 64 115 115 64 115 115 64 115 115 64 115 115 64 115 115 64 115 115 64 115 115 64 115 115 64 115 115 64 115 115 64 115 115 64 115 115 64 115 115 64 115 115 64 115 115 64 115 115 64 115 115 64 115 115 64 115 115 64 115 115 64 115 115 64 115 115 64 115 115 64 115 115 64 115 115 64 115 115 64 115 115 64 115 115 64 115 115 64 115 115 64 115 115 64 115 115 64 115 115 64 115 115 19 186 93 19 193 96 20 195 98 20 196 98 20 196 98 20 196 98 20 195 98 19 194 97 19 193 96 19 191 96 19 189 95 19 187 94 19 185 93 18 183 91 18 180 90 18 178 89 18 175 88 17 172 86 17 169 85 17 166 83 16 163 81 16 160 80 16 156 78 15 152 76 15 149 74 14 145 72 14 141 70 14 137 68 13 132 66 13 128 64 12 123 62 12 118 59 11 113 57 11 108 54 10 102 51 10 96 48 9 89 45 8 82 41 7 74 37 7 65 33 5 54 27 128 115 26 128 115 26 128 115 26 128 115 26 128 115 26 128 115 26 128 115 26 128 115 26 128 115 26 128 115 26 128 115 26 128 115 26 128 115 26 128 115 26 128 115 26 128 115 26 128 115 26 128 115 26 128 115 26 128 115 26 128 115 26 128 115 26 128 115 26 128 115 26 128 115 26 128 115 26 128 115 26 128 115 26 128 115 26 128 115 26 128 115 26 128 115 26 128 115 26 128 115 26 128 115 26 128 115 26 128 115 26 128 115 26 128 115 26 128 115 26 128 115 26 128 115 26 128 115 26 128 115 26 128 115 26 128 115 26 128 115 26 128 115 26 128 115 26 128 115 26 128 115 26 128 115 26 128 115 26 128 115 26 128 115 26 128 115 26 128 115 26 128 115 26 128 115 26 128 115 26 128 115 26 128 115 26 128 115 26 128 115 26 128 115 26 128 115 26 128 115 26 128 115 26 128 115 26 128 115 26 128 115 26 128 115 26 128 115 26 128 115 26 128 115 26 128 115 26 128 115 26 128 115 26 128 115 26 128 115 26 128 115 26 128 115 26 128 115 26 128 115 26 128 115 26 128 115 26 128 115 26 128 115 26 128 115 26 128 115 26 128 115 26 128 115 26 128 115 26 128 115 26 128 115 26 128 115 26 
64 115 115 64 115 115 64 115 115 64 115 115 64 115 115 64 115 115 64 115 115 64 115 115 64 115 115 64 115 115 64 115 115 64 115 115 64 115 115 64 115 115 64 115 115 64 115 115 64 115 115 64 115 115 64 115 115 64 115 115 64 115 115 64 115 115 64 115 115 64 115 115 64 115 115 64 115 115 64 115 115 64 115 115 64 115 115 64 115 115 64 115 115 64 115 115 64 115 115 64 115 115 64 115 115 64 115 115 64 115 115 64 115 115 64 115 115 64 115 115 64 115 115 64 115 115 64 115 115 64 115 115 64 115 115 64 115 115 64 115 115 64 115 115 64 115 115 64 115 115 64 115 115 64 115 115 64 115 115 64 115 115 64 115 115 64 115 115 64 115 115 64 115 115 64 115 115 64 115 115 64 115 115 64 115 115 19 189 95 19 195 97 20 197 99 20 198 99 20 199 99 20 198 99 20 198 99 20 196 98 20 195 98 19 194 97 19 192 96 19 190 95 19 188 94 19 186 93 18 183 92 18 181 90 18 178 89 18 175 88 17 173 86 17 170 85 17 166 83 16 163 82 16 160 80 16 156 78 15 153 76 15 149 75 15 145 73 14 142 71 14 137 69 13 133 67 13 129 64 12 124 62 12 119 60 11 115 57 11 109 55 10 104 52 10 98 49 9 92 46 9 85 43 8 78 39 7 70 35 6 61 30 5 49 25 3 30 15 128 115 26 128 115 26 128 115 26 128 115 26 128 115 26 128 115 26 128 115 26 128 115 26 128 115 26 128 115 26 128 115 26 128 115 26 128 115 26 128 115 26 128 115 26 128 115 26 128 115 26 128 115 26 128 115 26 128 115 26 128 115 26 128 115 26 128 115 26 128 115 26 128 115 26 128 115 26 128 115 26 128 115 26 128 115 26 128 115 26 128 115 26 128 115 26 128 115 26 128 115 26 128 115 26 128 115 26 128 115 26 128 115 26 128 115 26 128 115 26 128 115 26 128 115 26 128 115 26 128 115 26 128 115 26 128 115 26 128 115 26 128 115 26 128 115 26 128 115 26 128 115 26 128 115 26 128 115 26 128 115 26 128 115 26 128 115 26 128 115 26 128 115 26 128 115 26 128 115 26 128 115 26 128 115 26 128 115 26 128 115 26 128 115 26 128 115 26 128 115 26 128 115 26 128 115 26 128 115 26 128 115 26 128 115 26 128 115 26 128 115 26 128 115 26 128 115 26 128 115 26 128 115 26 128 115 26 128 115 26 128 115 26 128 115 26 128 115 26 128 115 26 128 115 26 128 115 26 128 115 26 128 115 26 128 115 26 128 115 26 128 115 26 128 115 26 128 115 26 128 115 26 
64 115 115 64 115 115 64 115 115 64 115 115 64 115 115 64 115 115 64 115 115 64 115 115 64 115 115 64 115 115 64 115 115 64 115 115 64 115 115 64 115 115 64 115 115 64 115 115 64 115 115 64 115 115 64 115 115 64 115 115 64 115 115 64 115 115 64 115 115 64 115 115 64 115 115 64 115 115 64 115 115 64 115 115 64 115 115 64 115 115 64 115 115 64 115 115 64 115 115 64 115 115 64 115 115 64 115 115 64 115 115 64 115 115 64 115 115 64 115 115 64 115 115 64 115 115 64 115 115 64 115 115 64 115 115 64 115 115 64 115 115 64 115 115 64 115 115 64 115 115 64 115 115 64 115 115 64 115 115 64 115 115 64 115 115 64 115 115 64 115 115 64 115 115 64 115 115 64 115 115 64 115 115 19 191 95 20 196 98 20 199 99 20 200 100 20 200 100 20 200 100 20 199 100 20 198 99 20 197 99 20 196 98 19 194 97 19 192 96 19 190 95 19 188 94 19 186 93 18 183 92 18 181 90 18 178 89 18 175 88 17 173 86 17 170 85 17 167 83 16 163 82 16 160 80 16 157 78 15 153 77 15 149 75 15 146 73 14 142 71 14 138 69 13 134 67 13 129 65 12 125 62 12 120 60 12 115 58 11 110 55 11 105 53 10 99 50 9 94 47 9 87 44 8 81 40 7 73 37 7 65 33 6 56 28 4 44 22 3 26 13 128 115 26 128 115 26 128 115 26 128 115 26 128 115 26 128 115 26 128 115 26 128 115 26 128 115 26 128 115 26 128 115 26 128 115 26 128 115 26 128 115 26 128 115 26 128 115 26 128 115 26 128 115 26 128 115 26 128 115 26 128 115 26 128 115 26 128 115 26 128 115 26 128 115 26 128 115 26 128 115 26 128 115 26 128 115 26 128 115 26 128 115 26 128 115 26 128 115 26 128 115 26 128 115 26 128 115 26 128 115 26 128 115 26 128 115 26 128 115 26 128 115 26 128 115 26 128 115 26 128 115 26 128 115 26 128 115 26 128 115 26 128 115 26 128 115 26 128 115 26 128 115 26 128 115 26 128 115 26 128 115 26 128 115 26 128 115 26 128 115 26 128 115 26 128 115 26 128 115 26 128 115 26 128 115 26 128 115 26 128 115 26 128 115 26 128 115 26 128 115 26 128 115 26 128 115 26 128 115 26 128 115 26 128 115 26 128 115 26 128 115 26 128 115 26 128 115 26 128 115 26 128 115 26 128 115 26 128 115 26 128 115 26 128 115 26 128 115 26 128 115 26 128 115 26 128 115 26 128 115 26 128 115 26 128 115 26 128 115 26 128 115 26 128 115 26 128 115 26 
64 115 115 64 115 115 64 115 115 64 115 115 64 115 115 64 115 115 64 115 115 64 115 115 64 115 115 64 115 115 64 115 115 64 115 115 64 115 115 64 115 115 64 115 115 64 115 115 64 115 115 64 115 115 64 115 115 64 115 115 64 115 115 64 115 115 64 115 115 64 115 115 64 115 115 64 115 115 64 115 115 64 115 115 64 115 115 64 115 115 64 115 115 64 115 115 64 115 115 64 115 115 64 115 115 64 115 115 64 115 115 64 115 115 64 115 115 64 115 115 64 115 115 64 115 115 64 115 115 64 115 115 64 115 115 64 115 115 64 115 115 64 115 115 64 115 115 64 115 115 64 115 115 64 115 115 64 115 115 64 115 115 64 115 115 64 115 115 64 115 115 64 115 115 64 115 115 64 115 115 19 191 95 20 197 99 20 200 100 20 201 101 20 202 101 20 202 101 20 201 101 20 200 100 20 199 99 20 198 99 20 196 98 19 194 97 19 192 96 19 190 95 19 188 94 19 186 93 18 183 92 18 181 90 18 178 89 18 175 88 17 172 86 17 169 85 17 166 83 16 163 82 16 160 80 16 157 78 15 153 77 15 149 75 15 146 73 14 142 71 14 138 69 13 134 67 13 130 65 13 125 63 12 121 60 12 116 58 11 111 55 11 106 53 10 100 50 9 95 47 9 89 44 8 82 41 8 76 38 7 68 34 6 60 30 5 50 25 4 38 19 3 26 13 128 115 26 128 115 26 128 115 26 128 115 26 128 115 26 128 115 26 128 115 26 128 115 26 128 115 26 128 115 26 128 115 26 128 115 26 128 115 26 128 115 26 128 115 26 128 115 26 128 115 26 128 115 26 128 115 26 128 115 26 128 115 26 128 115 26 128 115 26 128 115 26 128 115 26 128 115 26 128 115 26 128 115 26 128 115 26 128 115 26 128 115 26 128 115 26 128 115 26 128 115 26 128 115 26 128 115 26 128 115 26 128 115 26 128 115 26 128 115 26 128 115 26 128 115 26 128 115 26 128 115 26 128 115 26 128 115 26 128 115 26 128 115 26 128 115 26 128 115 26 128 115 26 128 115 26 128 115 26 128 115 26 128 115 26 128 115 26 128 115 26 128 115 26 128 115 26 128 115 26 128 115 26 128 115 26 128 115 26 128 115 26 128 115 26 128 115 26 128 115 26 128 115 26 128 115 26 128 115 26 128 115 26 128 115 26 128 115 26 128 115 26 128 115 26 128 115 26 128 115 26 128 115 26 128 115 26 128 115 26 128 115 26 128 115 26 128 115 26 128 115 26 128 115 26 128 115 26 128 115 26 128 115 26 128 115 26 128 115 26 128 115 26 128 115 26 
64 115 115 64 115 115 64 115 115 64 115 115 64 115 115 64 115 115 64 115 115 64 115 115 64 115 115 64 115 115 64 115 115 64 115 115 64 115 115 64 115 115 64 115 115 64 115 115 64 115 115 64 115 115 64 115 115 64 115 115 64 115 115 64 115 115 64 115 115 64 115 115 64 115 115 64 115 115 64 115 115 64 115 115 64 115 115 64 115 115 64 115 115 64 115 115 64 115 115 64 115 115 64 115 115 64 115 115 64 115 115 64 115 115 64 115 115 64 115 115 64 115 115 64 115 115 64 115 115 64 115 115 64 115 115 64 115 115 64 115 115 64 115 115 64 115 115 64 115 115 64 115 115 64 115 115 64 115 115 64 115 115 64 115 115 64 115 115 64 115 115 64 115 115 64 115 115 19 190 95 20 197 99 20 201 100 20 202 101 20 203 101 20 203 101 20 202 101 20 201 101 20 200 100 20 199 100 20 198 99 20 196 98 20 194 97 19 192 96 19 190 95 19 188 94 19 186 93 19 183 92 18 181 91 18 178 89 18 175 88 17 172 86 17 169 85 17 166 83 16 163 81 16 160 80 16 156 78 15 153 76 15 149 75 15 146 73 14 142 71 14 138 69 13 134 67 13 130 65 13 125 63 12 121 60 12 116 58 11 111 56 11 106 53 10 101 51 10 96 48 9 90 45 8 84 42 8 77 39 7 70 35 6 62 31 5 54 27 4 44 22 3 31 16 128 115 26 128 115 26 128 115 26 128 115 26 128 115 26 128 115 26 128 115 26 128 115 26 128 115 26 128 115 26 128 115 26 128 115 26 128 115 26 128 115 26 128 115 26 128 115 26 128 115 26 128 115 26 128 115 26 128 115 26 128 115 26 128 115 26 128 115 26 128 115 26 128 115 26 128 115 26 128 115 26 128 115 26 128 115 26 128 115 26 128 115 26 128 115 26 128 115 26 128 115 26 128 115 26 128 115 26 128 115 26 128 115 26 128 115 26 128 115 26 128 115 26 128 115 26 128 115 26 128 115 26 128 115 26 128 115 26 128 115 26 128 115 26 128 115 26 128 115 26 128 115 26 128 115 26 128 115 26 128 115 26 128 115 26 128 115 26 128 115 26 128 115 26 128 115 26 128 115 26 128 115 26 128 115 26 128 115 26 128 115 26 128 115 26 128 115 26 128 115 26 128 115 26 128 115 26 128 115 26 128 115 26 128 115 26 128 115 26 128 115 26 128 115 26 128 115 26 128 115 26 128 115 26 128 115 26 128 115 26 128 115 26 128 115 26 128 115 26 128 115 26 128 115 26 128 115 26 128 115 26 128 115 26 128 115 26 128 115 26 128 115 26 128 115 26 
64 115 115 64 115 115 64 115 115 64 115 115 64 115 115 64 115 115 64 115 115 64 115 115 64 115 115 64 115 115 64 115 115 64 115 115 64 115 115 64 115 115 64 115 115 64 115 115 64 115 115 64 115 115 64 115 115 64 115 115 64 115 115 64 115 115 64 115 115 64 115 115 64 115 115 64 115 115 64 115 115 64 115 115 64 115 115 64 115 115 64 115 115 64 115 115 64 115 115 64 115 115 64 115 115 64 115 115 64 115 115 64 115 115 64 115 115 64 115 115 64 115 115 64 115 115 64 115 115 64 115 115 64 115 115 64 115 115 64 115 115 64 115 115 64 115 115 64 115 115 64 115 115 64 115 115 64 115 115 64 115 115 64 115 115 64 115 115 64 115 115 64 115 115 19 185 93 20 197 98 20 201 100 20 202 101 20 203 102 20 203 102 20 203 102 20 202 101 20 202 101 20 200 100 20 199 100 20 198 99 20 196 98 20 194 98 20 193 97 20 191 96 20 189 95 20 186 94 19 184 92 19 181 91 18 178 89 18 175 88 17 172 86 17 169 84 17 166 83 16 162 81 16 159 80 16 156 78 15 152 76 15 149 74 15 145 73 14 141 71 14 137 69 13 133 67 13 129 65 13 125 63 12 121 60 12 116 58 11 111 56 11 106 53 10 101 51 10 96 48 9 90 45 8 84 42 8 78 39 7 71 36 6 64 32 6 56 28 5 47 24 4 37 18 3 26 13 128 115 26 128 115 26 128 115 26 128 115 26 128 115 26 128 115 26 128 115 26 128 115 26 128 115 26 128 115 26 128 115 26 128 115 26 128 115 26 128 115 26 128 115 26 128 115 26 128 115 26 128 115 26 128 115 26 128 115 26 128 115 26 128 115 26 128 115 26 128 115 26 128 115 26 128 115 26 128 115 26 128 115 26 128 115 26 128 115 26 128 115 26 128 115 26 128 115 26 128 115 26 128 115 26 128 115 26 128 115 26 128 115 26 128 115 26 128 115 26 128 115 26 128 115 26 128 115 26 128 115 26 128 115 26 128 115 26 128 115 26 128 115 26 128 115 26 128 115 26 128 115 26 128 115 26 128 115 26 128 115 26 128 115 26 128 115 26 128 115 26 128 115 26 128 115 26 128 115 26 128 115 26 128 115 26 128 115 26 128 115 26 128 115 26 128 115 26 128 115 26 128 115 26 128 115 26 128 115 26 128 115 26 128 115 26 128 115 26 128 115 26 128 115 26 128 115 26 128 115 26 128 115 26 128 115 26 128 115 26 128 115 26 128 115 26 128 115 26 128 115 26 128 115 26 128 115 26 128 115 26 128 115 26 128 115 26 128 115 26 128 115 26 
64 115 115 64 115 115 64 115 115 64 115 115 64 115 115 64 115 115 64 115 115 64 115 115 64 115 115 64 115 115 64 115 115 64 115 115 64 115 115 64 115 115 64 115 115 64 115 115 64 115 115 64 115 115 64 115 115 64 115 115 64 115 115 64 115 115 64 115 115 64 115 115 64 115 115 64 115 115 64 115 115 64 115 115 64 115 115 64 115 115 64 115 115 64 115 115 64 115 115 64 115 115 64 115 115 64 115 115 64 115 115 64 115 115 64 115 115 64 115 115 64 115 115 64 115 115 64 115 115 64 115 115 64 115 115 64 115 115 64 115 115 64 115 115 64 115 115 64 115 115 64 115 115 64 115 115 64 115 115 64 115 115 64 115 115 64 115 115 64 115 115 64 115 115 20 195 98 20 200 100 20 202 101 20 203 102 20 204 102 20 204 102 20 203 102 20 202 101 20 201 101 20 200 100 20 199 100 20 198 99 21 196 99 21 195 99 22 194 98 22 192 98 22 190 97 22 187 95 21 185 94 20 181 92 19 178 90 18 175 88 18 171 86 17 168 84 17 165 83 16 162 81 16 159 79 16 155 78 15 152 76 15 148 74 14 145 72 14 141 70 14 137 68 13 133 66 13 129 64 12 125 62 12 120 60 12 116 58 11 111 56 11 106 53 10 101 51 10 96 48 9 91 45 8 85 42 8 79 39 7 72 36 7 65 33 6 58 29 5 50 25 4 40 20 3 29 15 3 26 13 128 115 26 128 115 26 128 115 26 128 115 26 128 115 26 128 115 26 128 115 26 128 115 26 128 115 26 128 115 26 128 115 26 128 115 26 128 115 26 128 115 26 128 115 26 128 115 26 128 115 26 128 115 26 128 115 26 128 115 26 128 115 26 128 115 26 128 115 26 128 115 26 128 115 26 128 115 26 128 115 26 128 115 26 128 115 26 128 115 26 128 115 26 128 115 26 128 115 26 128 115 26 128 115 26 128 115 26 128 115 26 128 115 26 128 115 26 128 115 26 128 115 26 128 115 26 128 115 26 128 115 26 128 115 26 128 115 26 128 115 26 128 115 26 128 115 26 128 115 26 128 115 26 128 115 26 128 115 26 128 115 26 128 115 26 128 115 26 128 115 26 128 115 26 128 115 26 128 115 26 128 115 26 128 115 26 128 115 26 128 115 26 128 115 26 128 115 26 128 115 26 128 115 26 128 115 26 128 115 26 128 115 26 128 115 26 128 115 26 128 115 26 128 115 26 128 115 26 128 115 26 128 115 26 128 115 26 128 115 26 128 115 26 128 115 26 128 115 26 128 115 26 128 115 26 128 115 26 128 115 26 128 115 26 128 115 26 128 115 26 
64 115 115 64 115 115 64 115 115 64 115 115 64 115 115 64 115 115 64 115 115 64 115 115 64 115 115 64 115 115 64 115 115 64 115 115 64 115 115 64 115 115 64 115 115 64 115 115 64 115 115 64 115 115 64 115 115 64 115 115 64 115 115 64 115 115 64 115 115 64 115 115 64 115 115 64 115 115 64 115 115 64 115 115 64 115 115 64 115 115 64 115 115 64 115 115 64 115 115 64 115 115 64 115 115 64 115 115 64 115 115 64 115 115 64 115 115 64 115 115 64 115 115 64 115 115 64 115 115 64 115 115 64 115 115 64 115 115 64 115 115 64 115 115 64 115 115 64 115 115 64 115 115 64 115 115 64 115 115 64 115 115 64 115 115 64 115 115 64 115 115 19 192 96 20 199 99 20 202 101 20 203 102 20 204 102 20 204 102 20 204 102 20 203 102 20 202 101 20 201 101 20 200 100 21 199 100 22 198 100 23 198 101 24 197 101 25 196 101 26 195 101 26 193 100 25 190 98 24 186 96 22 183 93 21 179 91 19 175 88 18 171 86 17 168 84 17 164 82 16 161 81 16 158 79 15 154 77 15 151 75 15 147 74 14 144 72 14 140 70 14 136 68 13 132 66 13 128 64 12 124 62 12 120 60 12 115 58 11 111 55 11 106 53 10 101 51 10 96 48 9 91 45 8 85 42 8 79 40 7 73 36 7 66 33 6 59 30 5 51 26 4 43 21 3 33 16 3 26 13 3 26 13 128 115 26 128 115 26 128 115 26 128 115 26 128 115 26 128 115 26 128 115 26 128 115 26 128 115 26 128 115 26 128 115 26 128 115 26 128 115 26 128 115 26 128 115 26 128 115 26 128 115 26 128 115 26 128 115 26 128 115 26 128 115 26 128 115 26 128 115 26 128 115 26 128 115 26 128 115 26 128 115 26 128 115 26 128 115 26 128 115 26 128 115 26 128 115 26 128 115 26 128 115 26 128 115 26 128 115 26 128 115 26 128 115 26 128 115 26 128 115 26 128 115 26 128 115 26 128 115 26 128 115 26 128 115 26 128 115 26 128 115 26 128 115 26 128 115 26 128 115 26 128 115 26 128 115 26 128 115 26 128 115 26 128 115 26 128 115 26 128 115 26 128 115 26 128 115 26 128 115 26 128 115 26 128 115 26 128 115 26 128 115 26 128 115 26 128 115 26 128 115 26 128 115 26 128 115 26 128 115 26 128 115 26 128 115 26 128 115 26 128 115 26 128 115 26 128 115 26 128 115 26 128 115 26 128 115 26 128 115 26 128 115 26 128 115 26 128 115 26 128 115 26 128 115 26 128 115 26 128 115 26 128 115 26 128 115 26 
64 115 115 64 115 115 64 115 115 64 115 115 64 115 115 64 115 115 64 115 115 64 115 115 64 115 115 64 115 115 64 115 115 64 115 115 64 115 115 64 115 115 64 115 115 64 115 115 64 115 115 64 115 115 64 115 115 64 115 115 64 115 115 64 115 115 64 115 115 64 115 115 64 115 115 64 115 115 64 115 115 64 115 115 64 115 115 64 115 115 64 115 115 64 115 115 64 115 115 64 115 115 64 115 115 64 115 115 64 115 115 64 115 115 64 115 115 64 115 115 64 115 115 64 115 115 64 115 115 64 115 115 64 115 115 64 115 115 64 115 115 64 115 115 64 115 115 64 115 115 64 115 115 64 115 115 64 115 115 64 115 115 64 115 115 64 115 115 19 185 93 20 197 98 20 201 100 20 203 101 20 204 102 20 204 102 20 204 102 20 203 102 20 203 101 20 202 101 21 201 101 21 200 101 23 200 102 25 201 103 27 201 104 29 202 106 31 202 107 32 200 107 31 198 105 30 194 103 28 190 100 25 185 96 23 180 93 21 175 89 19 171 87 18 167 84 17 164 82 16 160 80 16 157 78 15 153 77 15 150 75 15 147 73 14 143 71 14 139 70 14 135 68 13 132 66 13 128 64 12 123 62 12 119 60 11 115 57 11 110 55 11 106 53 10 101 50 10 96 48 9 90 45 8 85 42 8 79 40 7 73 37 7 67 33 6 60 30 5 52 26 4 44 22 3 35 17 3 26 13 3 26 13 128 115 26 128 115 26 128 115 26 128 115 26 128 115 26 128 115 26 128 115 26 128 115 26 128 115 26 128 115 26 128 115 26 128 115 26 128 115 26 128 115 26 128 115 26 128 115 26 128 115 26 128 115 26 128 115 26 128 115 26 128 115 26 128 115 26 128 115 26 128 115 26 128 115 26 128 115 26 128 115 26 128 115 26 128 115 26 128 115 26 128 115 26 128 115 26 128 115 26 128 115 26 128 115 26 128 115 26 128 115 26 128 115 26 128 115 26 128 115 26 128 115 26 128 115 26 128 115 26 128 115 26 128 115 26 128 115 26 128 115 26 128 115 26 128 115 26 128 115 26 128 115 26 128 115 26 128 115 26 128 115 26 128 115 26 128 115 26 128 115 26 128 115 26 128 115 26 128 115 26 128 115 26 128 115 26 128 115 26 128 115 26 128 115 26 128 115 26 128 115 26 128 115 26 128 115 26 128 115 26 128 115 26 128 115 26 128 115 26 128 115 26 128 115 26 128 115 26 128 115 26 128 115 26 128 115 26 128 115 26 128 115 26 128 115 26 128 115 26 128 115 26 128 115 26 128 115 26 128 115 26 128 115 26 128 115 26 
64 115 115 64 115 115 64 115 115 64 115 115 64 115 115 64 115 115 64 115 115 64 115 115 64 115 115 64 115 115 64 115 115 64 115 115 64 115 115 64 115 115 64 115 115 64 115 115 64 115 115 64 115 115 64 115 115 64 115 115 64 115 115 64 115 115 64 115 115 64 115 115 64 115 115 64 115 115 64 115 115 64 115 115 64 115 115 64 115 115 64 115 115 64 115 115 64 115 115 64 115 115 64 115 115 64 115 115 64 115 115 64 115 115 64 115 115 64 115 115 64 115 115 64 115 115 64 115 115 64 115 115 64 115 115 64 115 115 64 115 115 64 115 115 64 115 115 64 115 115 64 115 115 64 115 115 64 115 115 64 115 115 64 115 115 64 115 115 19 193 97 20 199 99 20 201 101 20 203 101 20 204 102 20 204 102 20 203 102 20 203 101 20 202 101 21 201 101 21 201 101 23 201 102 26 203 104 29 205 107 34 207 111 37 209 113 40 209 115 41 208 115 39 205 113 37 200 109 33 194 105 29 188 100 25 182 95 22 176 91 20 171 87 18 167 84 17 163 82 16 159 80 16 156 78 15 152 76 15 149 75 15 146 73 14 142 71 14 138 69 13 135 67 13 131 65 13 127 63 12 123 61 12 118 59 11 114 57 11 110 55 10 105 52 10 100 50 10 95 48 9 90 45 8 85 42 8 79 39 7 73 36 7 67 33 6 60 30 5 53 26 5 45 23 4 36 18 3 27 13 3 26 13 3 26 13 128 115 26 128 115 26 128 115 26 128 115 26 128 115 26 128 115 26 128 115 26 128 115 26 128 115 26 128 115 26 128 115 26 128 115 26 128 115 26 128 115 26 128 115 26 128 115 26 128 115 26 128 115 26 128 115 26 128 115 26 128 115 26 128 115 26 128 115 26 128 115 26 128 115 26 128 115 26 128 115 26 128 115 26 128 115 26 128 115 26 128 115 26 128 115 26 128 115 26 128 115 26 128 115 26 128 115 26 128 115 26 128 115 26 128 115 26 128 115 26 128 115 26 128 115 26 128 115 26 128 115 26 128 115 26 128 115 26 128 115 26 128 115 26 128 115 26 128 115 26 128 115 26 128 115 26 128 115 26 128 115 26 128 115 26 128 115 26 128 115 26 128 115 26 128 115 26 128 115 26 128 115 26 128 115 26 128 115 26 128 115 26 128 115 26 128 115 26 128 115 26 128 115 26 128 115 26 128 115 26 128 115 26 128 115 26 128 115 26 128 115 26 128 115 26 128 115 26 128 115 26 128 115 26 128 115 26 128 115 26 128 115 26 128 115 26 128 115 26 128 115 26 128 115 26 128 115 26 128 115 26 128 115 26 
64 115 115 64 115 115 64 115 115 64 115 115 64 115 115 64 115 115 64 115 115 64 115 115 64 115 115 64 115 115 64 115 115 64 115 115 64 115 115 64 115 115 64 115 115 64 115 115 64 115 115 64 115 115 64 115 115 64 115 115 64 115 115 64 115 115 64 115 115 64 115 115 64 115 115 64 115 115 64 115 115 64 115 115 64 115 115 64 115 115 64 115 115 64 115 115 64 115 115 64 115 115 64 115 115 64 115 115 64 115 115 64 115 115 64 115 115 64 115 115 64 115 115 64 115 115 64 115 115 64 115 115 64 115 115 64 115 115 64 115 115 64 115 115 64 115 115 64 115 115 64 115 115 64 115 115 64 115 115 64 115 115 64 115 115 19 186 93 20 196 98 20 200 100 20 202 101 20 203 101 20 203 102 20 203 102 20 203 101 20 202 101 21 201 101 21 201 101 23 202 102 26 203 105 31 207 109 37 211 114 43 215 119 48 219 124 51 220 126 52 218 126 49 214 123 45 207 117 39 199 111 34 191 104 28 183 97 24 177 92 21 171 87 19 166 84 17 162 81 16 158 79 16 155 77 15 151 76 15 148 74 14 144 72 14 141 70 14 137 69 13 133 67 13 130 65 13 126 63 12 122 61 12 117 59 11 113 57 11 109 54 10 104 52 10 99 50 9 94 47 9 89 45 8 84 42 8 78 39 7 73 36 7 66 33 6 60 30 5 53 27 5 46 23 4 37 19 3 28 14 3 26 13 3 26 13 128 115 26 128 115 26 128 115 26 128 115 26 128 115 26 128 115 26 128 115 26 128 115 26 128 115 26 128 115 26 128 115 26 128 115 26 128 115 26 128 115 26 128 115 26 128 115 26 128 115 26 128 115 26 128 115 26 128 115 26 128 115 26 128 115 26 128 115 26 128 115 26 128 115 26 128 115 26 128 115 26 128 115 26 128 115 26 128 115 26 128 115 26 128 115 26 128 115 26 128 115 26 128 115 26 128 115 26 128 115 26 128 115 26 128 115 26 128 115 26 128 115 26 128 115 26 128 115 26 128 115 26 128 115 26 128 115 26 128 115 26 128 115 26 128 115 26 128 115 26 128 115 26 128 115 26 128 115 26 128 115 26 128 115 26 128 115 26 128 115 26 128 115 26 128 115 26 128 115 26 128 115 26 128 115 26 128 115 26 128 115 26 128 115 26 128 115 26 128 115 26 128 115 26 128 115 26 128 115 26 128 115 26 128 115 26 128 115 26 128 115 26 128 115 26 128 115 26 128 115 26 128 115 26 128 115 26 128 115 26 128 115 26 128 115 26 128 115 26 128 115 26 128 115 26 128 115 26 128 115 26 128 115 26 
64 115 115 64 115 115 64 115 115 64 115 115 64 115 115 64 115 115 64 115 115 64 115 115 64 115 115 64 115 115 64 115 115 64 115 115 64 115 115 64 115 115 64 115 115 64 115 115 64 115 115 64 115 115 64 115 115 64 115 115 64 115 115 64 115 115 64 115 115 64 115 115 64 115 115 64 115 115 64 115 115 64 115 115 64 115 115 64 115 115 64 115 115 64 115 115 64 115 115 64 115 115 64 115 115 64 115 115 64 115 115 64 115 115 64 115 115 64 115 115 64 115 115 64 115 115 64 115 115 64 115 115 64 115 115 64 115 115 64 115 115 64 115 115 64 115 115 64 115 115 64 115 115 64 115 115 64 115 115 64 115 115 64 115 115 19 191 96 20 197 99 20 200 100 20 202 101 20 202 101 20 203 101 20 202 101 20 202 101 20 201 101 21 201 101 22 201 102 26 203 105 31 207 109 38 212 115 46 219 123 54 226 130 61 230 136 64 232 139 64 229 137 60 223 133 54 215 125 46 205 116 38 194 107 31 185 100 26 177 93 22 171 88 19 165 84 17 161 81 16 157 79 16 153 77 15 150 75 15 147 73 14 143 72 14 140 70 14 136 68 13 132 66 13 128 64 12 125 62 12 121 60 12 116 58 11 112 56 11 108 54 10 103 52 10 98 49 9 94 47 9 88 44 8 83 42 8 78 39 7 72 36 7 66 33 6 60 30 5 53 26 5 46 23 4 38 19 3 29 14 3 26 13 3 26 13 3 26 13 128 115 26 128 115 26 128 115 26 128 115 26 128 115 26 128 115 26 128 115 26 128 115 26 128 115 26 128 115 26 128 115 26 128 115 26 128 115 26 128 115 26 128 115 26 128 115 26 128 115 26 128 115 26 128 115 26 128 115 26 128 115 26 128 115 26 128 115 26 128 115 26 128 115 26 128 115 26 128 115 26 128 115 26 128 115 26 128 115 26 128 115 26 128 115 26 128 115 26 128 115 26 128 115 26 128 115 26 128 115 26 128 115 26 128 115 26 128 115 26 128 115 26 128 115 26 128 115 26 128 115 26 128 115 26 128 115 26 128 115 26 128 115 26 128 115 26 128 115 26 128 115 26 128 115 26 128 115 26 128 115 26 128 115 26 128 115 26 128 115 26 128 115 26 128 115 26 128 115 26 128 115 26 128 115 26 128 115 26 128 115 26 128 115 26 128 115 26 128 115 26 128 115 26 128 115 26 128 115 26 128 115 26 128 115 26 128 115 26 128 115 26 128 115 26 128 115 26 128 115 26 128 115 26 128 115 26 128 115 26 128 115 26 128 115 26 128 115 26 128 115 26 128 115 26 128 115 26 128 115 26 
64 115 115 64 115 115 64 115 115 64 115 115 64 115 115 64 115 115 64 115 115 64 115 115 64 115 115 64 115 115 64 115 115 64 115 115 64 115 115 64 115 115 64 115 115 64 115 115 64 115 115 64 115 115 64 115 115 64 115 115 64 115 115 64 115 115 64 115 115 64 115 115 64 115 115 64 115 115 64 115 115 64 115 115 64 115 115 64 115 115 64 115 115 64 115 115 64 115 115 64 115 115 64 115 115 64 115 115 64 115 115 64 115 115 64 115 115 64 115 115 64 115 115 64 115 115 64 115 115 64 115 115 64 115 115 64 115 115 64 115 115 64 115 115 64 115 115 64 115 115 64 115 115 64 115 115 64 115 115 64 115 115 18 182 91 19 193 97 20 198 99 20 200 100 20 201 101 20 202 101 20 202 101 20 201 101 20 201 100 21 200 100 22 200 101 24 202 103 29 205 107 36 211 114 46 219 123 57 228 133 66 236 142 74 242 148 77 243 151 75 239 148 70 232 142 61 221 132 51 209 121 42 197 110 33 186 101 27 177 94 22 170 88 19 164 84 17 160 81 16 156 78 15 152 76 15 149 74 15 145 73 14 142 71 14 138 69 13 135 67 13 131 66 13 127 64 12 123 62 12 119 60 12 115 58 11 111 55 11 107 53 10 102 51 10 97 49 9 93 46 9 88 44 8 82 41 8 77 38 7 71 36 7 65 33 6 59 30 5 53 26 5 45 23 4 38 19 3 29 15 3 26 13 3 26 13 3 26 13 128 115 26 128 115 26 128 115 26 128 115 26 128 115 26 128 115 26 128 115 26 128 115 26 128 115 26 128 115 26 128 115 26 128 115 26 128 115 26 128 115 26 128 115 26 128 115 26 128 115 26 128 115 26 128 115 26 128 115 26 128 115 26 128 115 26 128 115 26 128 115 26 128 115 26 128 115 26 128 115 26 128 115 26 128 115 26 128 115 26 128 115 26 128 115 26 128 115 26 128 115 26 128 115 26 128 115 26 128 115 26 128 115 26 128 115 26 128 115 26 128 115 26 128 115 26 128 115 26 128 115 26 128 115 26 128 115 26 128 115 26 128 115 26 128 115 26 128 115 26 128 115 26 128 115 26 128 115 26 128 115 26 128 115 26 128 115 26 128 115 26 128 115 26 128 115 26 128 115 26 128 115 26 128 115 26 128 115 26 128 115 26 128 115 26 128 115 26 128 115 26 128 115 26 128 115 26 128 115 26 128 115 26 128 115 26 128 115 26 128 115 26 128 115 26 128 115 26 128 115 26 128 115 26 128 115 26 128 115 26 128 115 26 128 115 26 128 115 26 128 115 26 128 115 26 128 115 26 128 115 26 
64 115 115 64 115 115 64 115 115 64 115 115 64 115 115 64 115 115 64 115 115 64 115 115 64 115 115 64 115 115 64 115 115 64 115 115 64 115 115 64 115 115 64 115 115 64 115 115 64 115 115 64 115 115 64 115 115 64 115 115 64 115 115 64 115 115 64 115 115 64 115 115 64 115 115 64 115 115 64 115 115 64 115 115 64 115 115 64 115 115 64 115 115 64 115 115 64 115 115 64 115 115 64 115 115 64 115 115 64 115 115 64 115 115 64 115 115 64 115 115 64 115 115 64 115 115 64 115 115 64 115 115 64 115 115 64 115 115 64 115 115 64 115 115 64 115 115 64 115 115 64 115 115 64 115 115 64 115 115 64 115 115 19 187 94 19 194 97 20 197 99 20 199 100 20 200 100 20 201 100 20 201 100 20 200 100 20 200 100 21 199 100 23 200 102 26 203 105 33 208 111 42 216 119 54 226 130 66 237 142 77 246 152 85 251 159 87 252 160 84 247 156 76 237 148 66 224 136 54 211 124 44 197 112 34 186 102 27 176 94 22 169 87 19 163 83 17 158 80 16 154 77 15 151 75 15 147 74 14 144 72 14 140 70 14 137 68 13 133 67 13 130 65 13 126 63 12 122 61 12 118 59 11 114 57 11 110 55 11 105 53 10 101 50 10 96 48 9 91 46 9 86 43 8 81 41 8 76 38 7 70 35 6 65 32 6 58 29 5 52 26 4 45 22 4 38 19 3 29 15 3 26 13 3 26 13 3 26 13 3 26 13 128 115 26 128 115 26 128 115 26 128 115 26 128 115 26 128 115 26 128 115 26 128 115 26 128 115 26 128 115 26 128 115 26 128 115 26 128 115 26 128 115 26 128 115 26 128 115 26 128 115 26 128 115 26 128 115 26 128 115 26 128 115 26 128 115 26 128 115 26 128 115 26 128 115 26 128 115 26 128 115 26 128 115 26 128 115 26 128 115 26 128 115 26 128 115 26 128 115 26 128 115 26 128 115 26 128 115 26 128 115 26 128 115 26 128 115 26 128 115 26 128 115 26 128 115 26 128 115 26 128 115 26 128 115 26 128 115 26 128 115 26 128 115 26 128 115 26 128 115 26 128 115 26 128 115 26 128 115 26 128 115 26 128 115 26 128 115 26 128 115 26 128 115 26 128 115 26 128 115 26 128 115 26 128 115 26 128 115 26 128 115 26 128 115 26 128 115 26 128 115 26 128 115 26 128 115 26 128 115 26 128 115 26 128 115 26 128 115 26 128 115 26 128 115 26 128 115 26 128 115 26 128 115 26 128 115 26 128 115 26 128 115 26 128 115 26 128 115 26 128 115 26 128 115 26 128 115 26 
64 115 115 64 115 115 64 115 115 64 115 115 64 115 115 64 115 115 64 115 115 64 115 115 64 115 115 64 115 115 64 115 115 64 115 115 64 115 115 64 115 115 64 115 115 64 115 115 64 115 115 64 115 115 64 115 115 64 115 115 64 115 115 64 115 115 64 115 115 64 115 115 64 115 115 64 115 115 64 115 115 64 115 115 64 115 115 64 115 115 64 115 115 64 115 115 64 115 115 64 115 115 64 115 115 64 115 115 64 115 115 64 115 115 64 115 115 64 115 115 64 115 115 64 115 115 64 115 115 64 115 115 64 115 115 64 115 115 64 115 115 64 115 115 64 115 115 64 115 115 64 115 115 64 115 115 64 115 115 64 115 115 19 189 95 19 194 97 20 197 98 20 198 99 20 199 100 20 199 100 20 199 100 20 199 99 20 198 99 21 199 100 24 200 102 28 203 106 36 210 113 47 219 124 60 231 136 74 243 149 85 252 159 92 255 165 93 255 166 89 250 160 79 239 150 68 225 138 55 210 124 44 196 111 34 184 101 27 175 93 22 167 87 19 161 82 17 157 79 16 153 77 15 149 75 15 146 73 14 142 71 14 139 69 14 135 68 13 132 66 13 128 64 12 124 62 12 120 60 12 117 58 11 112 56 11 108 54 10 104 52 10 99 50 9 95 47 9 90 45 9 85 43 8 80 40 7 75 37 7 69 35 6 64 32 6 57 29 5 51 26 4 44 22 4 37 18 3 29 15 3 26 13 3 26 13 3 26 13 3 26 13 128 115 26 128 115 26 128 115 26 128 115 26 128 115 26 128 115 26 128 115 26 128 115 26 128 115 26 128 115 26 128 115 26 128 115 26 128 115 26 128 115 26 128 115 26 128 115 26 128 115 26 128 115 26 128 115 26 128 115 26 128 115 26 128 115 26 128 115 26 128 115 26 128 115 26 128 115 26 128 115 26 128 115 26 128 115 26 128 115 26 128 115 26 128 115 26 128 115 26 128 115 26 128 115 26 128 115 26 128 115 26 128 115 26 128 115 26 128 115 26 128 115 26 128 115 26 128 115 26 128 115 26 128 115 26 128 115 26 128 115 26 128 115 26 128 115 26 128 115 26 128 115 26 128 115 26 128 115 26 128 115 26 128 115 26 128 115 26 128 115 26 128 115 26 128 115 26 128 115 26 128 115 26 128 115 26 128 115 26 128 115 26 128 115 26 128 115 26 128 115 26 128 115 26 128 115 26 128 115 26 128 115 26 128 115 26 128 115 26 128 115 26 128 115 26 128 115 26 128 115 26 128 115 26 128 115 26 128 115 26 128 115 26 128 115 26 128 115 26 128 115 26 128 115 26 128 115 26 
64 115 115 64 115 115 64 115 115 64 115 115 64 115 115 64 115 115 64 115 115 64 115 115 64 115 115 64 115 115 64 115 115 64 115 115 64 115 115 64 115 115 64 115 115 64 115 115 64 115 115 64 115 115 64 115 115 64 115 115 64 115 115 64 115 115 64 115 115 64 115 115 64 115 115 64 115 115 64 115 115 64 115 115 64 115 115 64 115 115 64 115 115 64 115 115 64 115 115 64 115 115 64 115 115 64 115 115 64 115 115 64 115 115 64 115 115 64 115 115 64 115 115 64 115 115 64 115 115 64 115 115 64 115 115 64 115 115 64 115 115 64 115 115 64 115 115 64 115 115 64 115 115 64 115 115 64 115 115 18 179 90 19 190 95 19 194 97 20 196 98 20 197 99 20 198 99 20 198 99 20 198 99 20 197 99 20 197 99 22 197 100 24 199 102 30 204 107 39 211 115 50 221 126 64 233 139 77 245 152 88 254 162 94 255 167 94 255 166 88 248 159 78 236 148 66 221 135 53 207 122 42 193 109 33 181 99 26 172 91 21 165 85 18 159 81 17 155 78 16 151 76 15 147 74 14 144 72 14 141 70 14 137 69 13 134 67 13 130 65 13 127 63 12 123 61 12 119 59 11 115 57 11 111 55 11 107 53 10 102 51 10 98 49 9 93 47 9 89 44 8 84 42 8 79 39 7 74 37 7 68 34 6 62 31 6 56 28 5 50 25 4 43 22 4 36 18 3 29 14 3 26 13 3 26 13 3 26 13 3 26 13 128 115 26 128 115 26 128 115 26 128 115 26 128 115 26 128 115 26 128 115 26 128 115 26 128 115 26 128 115 26 128 115 26 128 115 26 128 115 26 128 115 26 128 115 26 128 115 26 128 115 26 128 115 26 128 115 26 128 115 26 128 115 26 128 115 26 128 115 26 128 115 26 128 115 26 128 115 26 128 115 26 128 115 26 128 115 26 128 115 26 128 115 26 128 115 26 128 115 26 128 115 26 128 115 26 128 115 26 128 115 26 128 115 26 128 115 26 128 115 26 128 115 26 128 115 26 128 115 26 128 115 26 128 115 26 128 115 26 128 115 26 128 115 26 128 115 26 128 115 26 128 115 26 128 115 26 128 115 26 128 115 26 128 115 26 128 115 26 128 115 26 128 115 26 128 115 26 128 115 26 128 115 26 128 115 26 128 115 26 128 115 26 128 115 26 128 115 26 128 115 26 128 115 26 128 115 26 128 115 26 128 115 26 128 115 26 128 115 26 128 115 26 128 115 26 128 115 26 128 115 26 128 115 26 128 115 26 128 115 26 128 115 26 128 115 26 128 115 26 128 115 26 128 115 26 128 115 26 
64 115 115 64 115 115 64 115 115 64 115 115 64 115 115 64 115 115 64 115 115 64 115 115 64 115 115 64 115 115 64 115 115 64 115 115 64 115 115 64 115 115 64 115 115 64 115 115 64 115 115 64 115 115 64 115 115 64 115 115 64 115 115 64 115 115 64 115 115 64 115 115 64 115 115 64 115 115 64 115 115 64 115 115 64 115 115 64 115 115 64 115 115 64 115 115 64 115 115 64 115 115 64 115 115 64 115 115 64 115 115 64 115 115 64 115 115 64 115 115 64 115 115 64 115 115 64 115 115 64 115 115 64 115 115 64 115 115 64 115 115 64 115 115 64 115 115 64 115 115 64 115 115 64 115 115 64 115 115 18 182 91 19 189 95 19 193 96 19 195 97 20 196 98 20 197 98 20 197 98 20 196 98 20 196 98 20 196 98 22 196 99 25 198 102 31 203 107 40 210 116 51 221 127 64 232 139 77 243 150 86 250 159 90 252 162 89 249 160 83 241 153 73 229 142 61 215 129 49 201 117 39 188 105 31 177 96 24 169 89 20 162 83 18 157 80 16 153 77 15 149 75 15 146 73 14 142 71 14 139 69 14 136 68 13 132 66 13 129 64 12 125 62 12 121 61 12 117 59 11 113 57 11 109 55 11 105 53 10 101 50 10 96 48 9 92 46 9 87 44 8 82 41 8 77 39 7 72 36 7 67 33 6 61 31 6 55 28 5 49 24 4 42 21 4 35 18 3 28 14 3 26 13 3 26 13 3 26 13 3 26 13 3 26 13 128 115 26 128 115 26 128 115 26 128 115 26 128 115 26 128 115 26 128 115 26 128 115 26 128 115 26 128 115 26 128 115 26 128 115 26 128 115 26 128 115 26 128 115 26 128 115 26 128 115 26 128 115 26 128 115 26 128 115 26 128 115 26 128 115 26 128 115 26 128 115 26 128 115 26 128 115 26 128 115 26 128 115 26 128 115 26 128 115 26 128 115 26 128 115 26 128 115 26 128 115 26 128 115 26 128 115 26 128 115 26 128 115 26 128 115 26 128 115 26 128 115 26 128 115 26 128 115 26 128 115 26 128 115 26 128 115 26 128 115 26 128 115 26 128 115 26 128 115 26 128 115 26 128 115 26 128 115 26 128 115 26 128 115 26 128 115 26 128 115 26 128 115 26 128 115 26 128 115 26 128 115 26 128 115 26 128 115 26 128 115 26 128 115 26 128 115 26 128 115 26 128 115 26 128 115 26 128 115 26 128 115 26 128 115 26 128 115 26 128 115 26 128 115 26 128 115 26 128 115 26 128 115 26 128 115 26 128 115 26 128 115 26 128 115 26 128 115 26 128 115 26 128 115 26 
64 115 115 64 115 115 64 115 115 64 115 115 64 115 115 64 115 115 64 115 115 64 115 115 64 115 115 64 115 115 64 115 115 64 115 115 64 115 115 64 115 115 64 115 115 64 115 115 64 115 115 64 115 115 64 115 115 64 115 115 64 115 115 64 115 115 64 115 115 64 115 115 64 115 115 64 115 115 64 115 115 64 115 115 64 115 115 64 115 115 64 115 115 64 115 115 64 115 115 64 115 115 64 115 115 64 115 115 64 115 115 64 115 115 64 115 115 64 115 115 64 115 115 64 115 115 64 115 115 64 115 115 64 115 115 64 115 115 64 115 115 64 115 115 64 115 115 64 115 115 64 115 115 64 115 115 64 115 115 18 183 91 19 189 94 19 192 96 19 194 97 19 195 97 19 195 97 20 195 97 20 195 97 20 194 97 20 194 97 22 195 99 25 197 101 31 201 106 39 208 114 50 217 124 61 227 135 72 236 145 79 242 151 82 243 154 80 239 151 74 231 144 65 219 133 54 206 122 44 194 110 35 182 100 28 173 92 23 165 86 19 159 82 17 155 78 16 151 76 15 147 74 14 144 72 14 140 70 14 137 69 13 134 67 13 130 65 13 127 63 12 123 62 12 119 60 12 116 58 11 112 56 11 108 54 10 103 52 10 99 50 9 95 47 9 90 45 9 86 43 8 81 40 8 76 38 7 71 35 7 65 33 6 60 30 5 54 27 5 48 24 4 41 21 3 34 17 3 27 13 3 26 13 3 26 13 3 26 13 3 26 13 3 26 13 128 115 26 128 115 26 128 115 26 128 115 26 128 115 26 128 115 26 128 115 26 128 115 26 128 115 26 128 115 26 128 115 26 128 115 26 128 115 26 128 115 26 128 115 26 128 115 26 128 115 26 128 115 26 128 115 26 128 115 26 128 115 26 128 115 26 128 115 26 128 115 26 128 115 26 128 115 26 128 115 26 128 115 26 128 115 26 128 115 26 128 115 26 128 115 26 128 115 26 128 115 26 128 115 26 128 115 26 128 115 26 128 115 26 128 115 26 128 115 26 128 115 26 128 115 26 128 115 26 128 115 26 128 115 26 128 115 26 128 115 26 128 115 26 128 115 26 128 115 26 128 115 26 128 115 26 128 115 26 128 115 26 128 115 26 128 115 26 128 115 26 128 115 26 128 115 26 128 115 26 128 115 26 128 115 26 128 115 26 128 115 26 128 115 26 128 115 26 128 115 26 128 115 26 128 115 26 128 115 26 128 115 26 128 115 26 128 115 26 128 115 26 128 115 26 128 115 26 128 115 26 128 115 26 128 115 26 128 115 26 128 115 26 128 115 26 128 115 26 128 115 26 128 115 26 
64 115 115 64 115 115 64 115 115 64 115 115 64 115 115 64 115 115 64 115 115 64 115 115 64 115 115 64 115 115 64 115 115 64 115 115 64 115 115 64 115 115 64 115 115 64 115 115 64 115 115 64 115 115 64 115 115 64 115 115 64 115 115 64 115 115 64 115 115 64 115 115 64 115 115 64 115 115 64 115 115 64 115 115 64 115 115 64 115 115 64 115 115 64 115 115 64 115 115 64 115 115 64 115 115 64 115 115 64 115 115 64 115 115 64 115 115 64 115 115 64 115 115 64 115 115 64 115 115 64 115 115 64 115 115 64 115 115 64 115 115 64 115 115 64 115 115 64 115 115 64 115 115 64 115 115 64 115 115 18 182 91 19 188 94 19 190 95 19 192 96 19 193 96 19 193 97 19 193 97 19 193 96 19 192 96 20 192 96 21 193 97 24 194 100 30 198 105 37 204 111 46 212 120 56 220 129 64 226 136 70 230 141 71 230 142 69 226 139 63 218 132 55 208 123 46 197 113 38 186 103 30 176 95 25 168 88 21 162 83 18 156 80 16 152 77 15 148 75 15 145 73 14 142 71 14 139 69 14 135 68 13 132 66 13 128 64 12 125 62 12 121 61 12 118 59 11 114 57 11 110 55 11 106 53 10 102 51 10 97 49 9 93 47 9 89 44 8 84 42 8 79 40 7 74 37 7 69 34 6 64 32 6 58 29 5 52 26 5 46 23 4 40 20 3 33 16 3 26 13 3 26 13 3 26 13 3 26 13 3 26 13 3 26 13 128 115 26 128 115 26 128 115 26 128 115 26 128 115 26 128 115 26 128 115 26 128 115 26 128 115 26 128 115 26 128 115 26 128 115 26 128 115 26 128 115 26 128 115 26 128 115 26 128 115 26 128 115 26 128 115 26 128 115 26 128 115 26 128 115 26 128 115 26 128 115 26 128 115 26 128 115 26 128 115 26 128 115 26 128 115 26 128 115 26 128 115 26 128 115 26 128 115 26 128 115 26 128 115 26 128 115 26 128 115 26 128 115 26 128 115 26 128 115 26 128 115 26 128 115 26 128 115 26 128 115 26 128 115 26 128 115 26 128 115 26 128 115 26 128 115 26 128 115 26 128 115 26 128 115 26 128 115 26 128 115 26 128 115 26 128 115 26 128 115 26 128 115 26 128 115 26 128 115 26 128 115 26 128 115 26 128 115 26 128 115 26 128 115 26 128 115 26 128 115 26 128 115 26 128 115 26 128 115 26 128 115 26 128 115 26 128 115 26 128 115 26 128 115 26 128 115 26 128 115 26 128 115 26 128 115 26 128 115 26 128 115 26 128 115 26 128 115 26 128 115 26 128 115 26 
64 115 115 64 115 115 64 115 115 64 115 115 64 115 115 64 115 115 64 115 115 64 115 115 64 115 115 64 115 115 64 115 115 64 115 115 64 115 115 64 115 115 64 115 115 64 115 115 64 115 115 64 115 115 64 115 115 64 115 115 64 115 115 64 115 115 64 115 115 64 115 115 64 115 115 64 115 115 64 115 115 64 115 115 64 115 115 64 115 115 64 115 115 64 115 115 64 115 115 64 115 115 64 115 115 64 115 115 64 115 115 64 115 115 64 115 115 64 115 115 64 115 115 64 115 115 64 115 115 64 115 115 64 115 115 64 115 115 64 115 115 64 115 115 64 115 115 64 115 115 64 115 115 64 115 115 17 169 85 18 182 91 19 186 93 19 189 94 19 190 95 19 191 96 19 191 96 19 191 96 19 191 95 19 190 95 20 190 95 21 190 96 23 192 98 28 195 102 34 199 107 41 205 114 48 211 120 55 215 126 58 217 129 59 216 129 57 212 126 52 205 120 45 196 112 38 187 104 32 178 97 26 170 90 22 164 85 19 158 81 17 154 78 16 150 75 15 146 73 14 143 72 14 140 70 14 137 68 13 133 67 13 130 65 13 126 63 12 123 61 12 119 60 12 116 58 11 112 56 11 108 54 10 104 52 10 100 50 10 95 48 9 91 46 9 87 43 8 82 41 8 77 39 7 72 36 7 67 34 6 62 31 6 56 28 5 50 25 4 44 22 4 38 19 3 31 16 3 26 13 3 26 13 3 26 13 3 26 13 3 26 13 3 26 13 128 115 26 128 115 26 128 115 26 128 115 26 128 115 26 128 115 26 128 115 26 128 115 26 128 115 26 128 115 26 128 115 26 128 115 26 128 115 26 128 115 26 128 115 26 128 115 26 128 115 26 128 115 26 128 115 26 128 115 26 128 115 26 128 115 26 128 115 26 128 115 26 128 115 26 128 115 26 128 115 26 128 115 26 128 115 26 128 115 26 128 115 26 128 115 26 128 115 26 128 115 26 128 115 26 128 115 26 128 115 26 128 115 26 128 115 26 128 115 26 128 115 26 128 115 26 128 115 26 128 115 26 128 115 26 128 115 26 128 115 26 128 115 26 128 115 26 128 115 26 128 115 26 128 115 26 128 115 26 128 115 26 128 115 26 128 115 26 128 115 26 128 115 26 128 115 26 128 115 26 128 115 26 128 115 26 128 115 26 128 115 26 128 115 26 128 115 26 128 115 26 128 115 26 128 115 26 128 115 26 128 115 26 128 115 26 128 115 26 128 115 26 128 115 26 128 115 26 128 115 26 128 115 26 128 115 26 128 115 26 128 115 26 128 115 26 128 115 26 128 115 26 128 115 26 
64 115 115 64 115 115 64 115 115 64 115 115 64 115 115 64 115 115 64 115 115 64 115 115 64 115 115 64 115 115 64 115 115 64 115 115 64 115 115 64 115 115 64 115 115 64 115 115 64 115 115 64 115 115 64 115 115 64 115 115 64 115 115 64 115 115 64 115 115 64 115 115 64 115 115 64 115 115 64 115 115 64 115 115 64 115 115 64 115 115 64 115 115 64 115 115 64 115 115 64 115 115 64 115 115 64 115 115 64 115 115 64 115 115 64 115 115 64 115 115 64 115 115 64 115 115 64 115 115 64 115 115 64 115 115 64 115 115 64 115 115 64 115 115 64 115 115 64 115 115 64 115 115 64 115 115 17 171 85 18 180 90 18 185 92 19 187 93 19 188 94 19 189 95 19 189 95 19 189 95 19 189 94 19 188 94 19 188 94 20 188 95 22 188 96 25 190 99 30 193 103 35 197 107 41 201 112 45 204 115 47 204 117 48 203 117 46 199 114 42 193 109 37 186 103 31 178 97 27 171 91 23 165 86 20 159 82 18 155 79 16 151 76 15 147 74 15 144 72 14 141 70 14 138 69 13 134 67 13 131 66 13 128 64 12 124 62 12 121 60 12 117 59 11 114 57 11 110 55 11 106 53 10 102 51 10 98 49 9 94 47 9 89 45 8 85 42 8 80 40 8 75 38 7 70 35 7 65 33 6 60 30 5 54 27 5 49 24 4 43 21 4 36 18 3 29 15 3 26 13 3 26 13 3 26 13 3 26 13 3 26 13 3 26 13 128 115 26 128 115 26 128 115 26 128 115 26 128 115 26 128 115 26 128 115 26 128 115 26 128 115 26 128 115 26 128 115 26 128 115 26 128 115 26 128 115 26 128 115 26 128 115 26 128 115 26 128 115 26 128 115 26 128 115 26 128 115 26 128 115 26 128 115 26 128 115 26 128 115 26 128 115 26 128 115 26 128 115 26 128 115 26 128 115 26 128 115 26 128 115 26 128 115 26 128 115 26 128 115 26 128 115 26 128 115 26 128 115 26 128 115 26 128 115 26 128 115 26 128 115 26 128 115 26 128 115 26 128 115 26 128 115 26 128 115 26 128 115 26 128 115 26 128 115 26 128 115 26 128 115 26 128 115 26 128 115 26 128 115 26 128 115 26 128 115 26 128 115 26 128 115 26 128 115 26 128 115 26 128 115 26 128 115 26 128 115 26 128 115 26 128 115 26 128 115 26 128 115 26 128 115 26 128 115 26 128 115 26 128 115 26 128 115 26 128 115 26 128 115 26 128 115 26 128 115 26 128 115 26 128 115 26 128 115 26 128 115 26 128 115 26 128 115 26 128 115 26 128 115 26 
64 115 115 64 115 115 64 115 115 64 115 115 64 115 115 64 115 115 64 115 115 64 115 115 64 115 115 64 115 115 64 115 115 64 115 115 64 115 115 64 115 115 64 115 115 64 115 115 64 115 115 64 115 115 64 115 115 64 115 115 64 115 115 64 115 115 64 115 115 64 115 115 64 115 115 64 115 115 64 115 115 64 115 115 64 115 115 64 115 115 64 115 115 64 115 115 64 115 115 64 115 115 64 115 115 64 115 115 64 115 115 64 115 115 64 115 115 64 115 115 64 115 115 64 115 115 64 115 115 64 115 115 64 115 115 64 115 115 64 115 115 64 115 115 64 115 115 64 115 115 64 115 115 64 115 115 17 170 85 18 179 89 18 183 91 18 185 92 19 186 93 19 187 93 19 187 94 19 187 93 19 187 93 19 186 93 19 185 93 20 185 93 21 185 94 23 186 96 26 188 98 30 190 101 34 192 104 36 193 106 38 193 107 38 191 106 36 187 103 33 182 99 29 176 95 26 171 90 23 165 86 20 160 82 18 156 79 16 152 77 15 148 74 15 145 73 14 142 71 14 139 69 14 136 68 13 132 66 13 129 65 13 126 63 12 122 61 12 119 59 12 115 58 11 111 56 11 108 54 10 104 52 10 100 50 10 96 48 9 91 46 9 87 44 8 83 41 8 78 39 7 73 37 7 68 34 6 63 32 6 58 29 5 52 26 5 47 23 4 41 20 3 34 17 3 28 14 3 26 13 3 26 13 3 26 13 3 26 13 3 26 13 3 26 13 3 26 13 128 115 26 128 115 26 128 115 26 128 115 26 128 115 26 128 115 26 128 115 26 128 115 26 128 115 26 128 115 26 128 115 26 128 115 26 128 115 26 128 115 26 128 115 26 128 115 26 128 115 26 128 115 26 128 115 26 128 115 26 128 115 26 128 115 26 128 115 26 128 115 26 128 115 26 128 115 26 128 115 26 128 115 26 128 115 26 128 115 26 128 115 26 128 115 26 128 115 26 128 115 26 128 115 26 128 115 26 128 115 26 128 115 26 128 115 26 128 115 26 128 115 26 128 115 26 128 115 26 128 115 26 128 115 26 128 115 26 128 115 26 128 115 26 128 115 26 128 115 26 128 115 26 128 115 26 128 115 26 128 115 26 128 115 26 128 115 26 128 115 26 128 115 26 128 115 26 128 115 26 128 115 26 128 115 26 128 115 26 128 115 26 128 115 26 128 115 26 128 115 26 128 115 26 128 115 26 128 115 26 128 115 26 128 115 26 128 115 26 128 115 26 128 115 26 128 115 26 128 115 26 128 115 26 128 115 26 128 115 26 128 115 26 128 115 26 128 115 26 128 115 26 
64 115 115 64 115 115 64 115 115 64 115 115 64 115 115 64 115 115 64 115 115 64 115 115 64 115 115 64 115 115 64 115 115 64 115 115 64 115 115 64 115 115 64 115 115 64 115 115 64 115 115 64 115 115 64 115 115 64 115 115 64 115 115 64 115 115 64 115 115 64 115 115 64 115 115 64 115 115 64 115 115 64 115 115 64 115 115 64 115 115 64 115 115 64 115 115 64 115 115 64 115 115 64 115 115 64 115 115 64 115 115 64 115 115 64 115 115 64 115 115 64 115 115 64 115 115 64 115 115 64 115 115 64 115 115 64 115 115 64 115 115 64 115 115 64 115 115 64 115 115 64 115 115 64 115 115 17 169 84 18 177 88 18 180 90 18 183 91 18 184 92 18 185 92 18 185 92 18 185 92 18 184 92 18 184 92 19 183 92 19 182 92 20 182 92 21 182 93 23 183 94 26 183 96 28 184 97 29 184 98 30 183 98 30 181 97 29 178 95 27 174 92 24 169 89 22 164 85 20 160 82 18 156 79 17 152 77 16 149 75 15 146 73 14 143 71 14 140 70 14 136 68 13 133 67 13 130 65 13 127 63 12 123 62 12 120 60 12 117 58 11 113 56 11 109 55 11 105 53 10 102 51 10 98 49 9 93 47 9 89 45 8 85 42 8 80 40 8 76 38 7 71 36 7 66 33 6 61 31 6 56 28 5 50 25 4 45 22 4 39 19 3 32 16 3 26 13 3 26 13 3 26 13 3 26 13 3 26 13 3 26 13 3 26 13 3 26 13 128 115 26 128 115 26 128 115 26 128 115 26 128 115 26 128 115 26 128 115 26 128 115 26 128 115 26 128 115 26 128 115 26 128 115 26 128 115 26 128 115 26 128 115 26 128 115 26 128 115 26 128 115 26 128 115 26 128 115 26 128 115 26 128 115 26 128 115 26 128 115 26 128 115 26 128 115 26 128 115 26 128 115 26 128 115 26 128 115 26 128 115 26 128 115 26 128 115 26 128 115 26 128 115 26 128 115 26 128 115 26 128 115 26 128 115 26 128 115 26 128 115 26 128 115 26 128 115 26 128 115 26 128 115 26 128 115 26 128 115 26 128 115 26 128 115 26 128 115 26 128 115 26 128 115 26 128 115 26 128 115 26 128 115 26 128 115 26 128 115 26 128 115 26 128 115 26 128 115 26 128 115 26 128 115 26 128 115 26 128 115 26 128 115 26 128 115 26 128 115 26 128 115 26 128 115 26 128 115 26 128 115 26 128 115 26 128 115 26 128 115 26 128 115 26 128 115 26 128 115 26 128 115 26 128 115 26 128 115 26 128 115 26 128 115 26 128 115 26 128 115 26 
64 115 115 64 115 115 64 115 115 64 115 115 64 115 115 64 115 115 64 115 115 64 115 115 64 115 115 64 115 115 64 115 115 64 115 115 64 115 115 64 115 115 64 115 115 64 115 115 64 115 115 64 115 115 64 115 115 64 115 115 64 115 115 64 115 115 64 115 115 64 115 115 64 115 115 64 115 115 64 115 115 64 115 115 64 115 115 64 115 115 64 115 115 64 115 115 64 115 115 64 115 115 64 115 115 64 115 115 64 115 115 64 115 115 64 115 115 64 115 115 64 115 115 64 115 115 64 115 115 64 115 115 64 115 115 64 115 115 64 115 115 64 115 115 64 115 115 64 115 115 64 115 115 64 115 115 17 167 83 17 174 87 18 178 89 18 180 90 18 181 91 18 182 91 18 182 91 18 182 91 18 182 91 18 181 91 18 180 90 18 180 90 19 179 90 20 178 90 21 178 91 22 178 91 23 178 92 24 177 92 25 175 92 24 173 90 23 170 89 22 167 86 20 163 84 19 159 81 18 156 79 16 152 77 16 149 75 15 146 73 14 143 72 14 140 70 14 137 69 13 134 67 13 131 65 13 128 64 12 125 62 12 121 61 12 118 59 11 114 57 11 111 55 11 107 53 10 103 52 10 99 50 10 95 48 9 91 46 9 87 44 8 83 41 8 78 39 7 74 37 7 69 34 6 64 32 6 59 29 5 54 27 5 48 24 4 42 21 4 36 18 3 30 15 3 26 13 3 26 13 3 26 13 3 26 13 3 26 13 3 26 13 3 26 13 3 26 13 128 115 26 128 115 26 128 115 26 128 115 26 128 115 26 128 115 26 128 115 26 128 115 26 128 115 26 128 115 26 128 115 26 128 115 26 128 115 26 128 115 26 128 115 26 128 115 26 128 115 26 128 115 26 128 115 26 128 115 26 128 115 26 128 115 26 128 115 26 128 115 26 128 115 26 128 115 26 128 115 26 128 115 26 128 115 26 128 115 26 128 115 26 128 115 26 128 115 26 128 115 26 128 115 26 128 115 26 128 115 26 128 115 26 128 115 26 128 115 26 128 115 26 128 115 26 128 115 26 128 115 26 128 115 26 128 115 26 128 115 26 128 115 26 128 115 26 128 115 26 128 115 26 128 115 26 128 115 26 128 115 26 128 115 26 128 115 26 128 115 26 128 115 26 128 115 26 128 115 26 128 115 26 128 115 26 128 115 26 128 115 26 128 115 26 128 115 26 128 115 26 128 115 26 128 115 26 128 115 26 128 115 26 128 115 26 128 115 26 128 115 26 128 115 26 128 115 26 128 115 26 128 115 26 128 115 26 128 115 26 128 115 26 128 115 26 128 115 26 128 115 26 
64 115 115 64 115 115 64 115 115 64 115 115 64 115 115 64 115 115 64 115 115 64 115 115 64 115 115 64 115 115 64 115 115 64 115 115 64 115 115 64 115 115 64 115 115 64 115 115 64 115 115 64 115 115 64 115 115 64 115 115 64 115 115 64 115 115 64 115 115 64 115 115 64 115 115 64 115 115 64 115 115 64 115 115 64 115 115 64 115 115 64 115 115 64 115 115 64 115 115 64 115 115 64 115 115 64 115 115 64 115 115 64 115 115 64 115 115 64 115 115 64 115 115 64 115 115 64 115 115 64 115 115 64 115 115 64 115 115 64 115 115 64 115 115 64 115 115 64 115 115 64 115 115 64 115 115 16 164 82 17 172 86 18 175 88 18 178 89 18 179 89 18 180 90 18 180 90 18 180 90 18 179 90 18 179 89 18 178 89 18 177 89 18 176 88 19 175 88 19 174 88 20 173 88 20 172 88 21 171 88 21 169 87 20 167 86 20 165 84 19 162 82 18 159 80 17 155 79 16 152 77 16 149 75 15 146 73 15 144 72 14 141 70 14 138 69 13 135 67 13 132 66 13 129 64 13 125 63 12 122 61 12 119 59 12 115 58 11 112 56 11 108 54 10 105 52 10 101 50 10 97 48 9 93 46 9 89 44 8 85 42 8 80 40 8 76 38 7 71 36 7 67 33 6 62 31 6 57 28 5 51 26 5 46 23 4 40 20 3 34 17 3 28 14 3 26 13 3 26 13 3 26 13 3 26 13 3 26 13 3 26 13 3 26 13 3 26 13 128 115 26 128 115 26 128 115 26 128 115 26 128 115 26 128 115 26 128 115 26 128 115 26 128 115 26 128 115 26 128 115 26 128 115 26 128 115 26 128 115 26 128 115 26 128 115 26 128 115 26 128 115 26 128 115 26 128 115 26 128 115 26 128 115 26 128 115 26 128 115 26 128 115 26 128 115 26 128 115 26 128 115 26 128 115 26 128 115 26 128 115 26 128 115 26 128 115 26 128 115 26 128 115 26 128 115 26 128 115 26 128 115 26 128 115 26 128 115 26 128 115 26 128 115 26 128 115 26 128 115 26 128 115 26 128 115 26 128 115 26 128 115 26 128 115 26 128 115 26 128 115 26 128 115 26 128 115 26 128 115 26 128 115 26 128 115 26 128 115 26 128 115 26 128 115 26 128 115 26 128 115 26 128 115 26 128 115 26 128 115 26 128 115 26 128 115 26 128 115 26 128 115 26 128 115 26 128 115 26 128 115 26 128 115 26 128 115 26 128 115 26 128 115 26 128 115 26 128 115 26 128 115 26 128 115 26 128 115 26 128 115 26 128 115 26 128 115 26 128 115 26 
64 115 115 64 115 115 64 115 115 64 115 115 64 115 115 64 115 115 64 115 115 64 115 115 64 115 115 64 115 115 64 115 115 64 115 115 64 115 115 64 115 115 64 115 115 64 115 115 64 115 115 64 115 115 64 115 115 64 115 115 64 115 115 64 115 115 64 115 115 64 115 115 64 115 115 64 115 115 64 115 115 64 115 115 64 115 115 64 115 115 64 115 115 64 115 115 64 115 115 64 115 115 64 115 115 64 115 115 64 115 115 64 115 115 64 115 115 64 115 115 64 115 115 64 115 115 64 115 115 64 115 115 64 115 115 64 115 115 64 115 115 64 115 115 64 115 115 64 115 115 64 115 115 64 115 115 16 161 80 17 169 84 17 173 86 17 175 87 18 176 88 18 177 88 18 177 89 18 177 88 18 177 88 18 176 88 18 175 88 18 174 87 18 173 87 18 172 86 18 171 86 18 169 85 18 168 85 19 166 84 18 165 83 18 163 82 18 160 81 17 158 80 17 155 78 16 152 76 15 149 75 15 147 73 15 144 72 14 141 71 14 138 69 14 135 68 13 132 66 13 129 65 13 126 63 12 123 61 12 120 60 12 116 58 11 113 56 11 109 55 11 106 53 10 102 51 10 98 49 9 95 47 9 91 45 9 86 43 8 82 41 8 78 39 7 73 37 7 69 34 6 64 32 6 59 30 5 54 27 5 49 24 4 43 22 4 38 19 3 32 16 3 26 13 3 26 13 3 26 13 3 26 13 3 26 13 3 26 13 3 26 13 3 26 13 3 26 13 128 115 26 128 115 26 128 115 26 128 115 26 128 115 26 128 115 26 128 115 26 128 115 26 128 115 26 128 115 26 128 115 26 128 115 26 128 115 26 128 115 26 128 115 26 128 115 26 128 115 26 128 115 26 128 115 26 128 115 26 128 115 26 128 115 26 128 115 26 128 115 26 128 115 26 128 115 26 128 115 26 128 115 26 128 115 26 128 115 26 128 115 26 128 115 26 128 115 26 128 115 26 128 115 26 128 115 26 128 115 26 128 115 26 128 115 26 128 115 26 128 115 26 128 115 26 128 115 26 128 115 26 128 115 26 128 115 26 128 115 26 128 115 26 128 115 26 128 115 26 128 115 26 128 115 26 128 115 26 128 115 26 128 115 26 128 115 26 128 115 26 128 115 26 128 115 26 128 115 26 128 115 26 128 115 26 128 115 26 128 115 26 128 115 26 128 115 26 128 115 26 128 115 26 128 115 26 128 115 26 128 115 26 128 115 26 128 115 26 128 115 26 128 115 26 128 115 26 128 115 26 128 115 26 128 115 26 128 115 26 128 115 26 128 115 26 128 115 26 128 115 26 
64 115 115 64 115 115 64 115 115 64 115 115 64 115 115 64 115 115 64 115 115 64 115 115 64 115 115 64 115 115 64 115 115 64 115 115 64 115 115 64 115 115 64 115 115 64 115 115 64 115 115 64 115 115 64 115 115 64 115 115 64 115 115 64 115 115 64 115 115 64 115 115 64 115 115 64 115 115 64 115 115 64 115 115 64 115 115 64 115 115 64 115 115 64 115 115 64 115 115 64 115 115 64 115 115 64 115 115 64 115 115 64 115 115 64 115 115 64 115 115 64 115 115 64 115 115 64 115 115 64 115 115 64 115 115 64 115 115 64 115 115 64 115 115 64 115 115 64 115 115 64 115 115 64 115 115 16 157 79 17 165 83 17 169 85 17 172 86 17 173 87 17 174 87 17 174 87 17 174 87 17 174 87 17 173 87 17 172 86 17 171 86 17 170 85 17 169 85 17 167 84 17 166 83 17 164 83 17 163 82 17 161 81 17 159 80 16 156 79 16 154 77 16 152 76 15 149 75 15 146 73 14 144 72 14 141 71 14 138 69 14 136 68 13 133 66 13 130 65 13 127 63 12 124 62 12 120 60 12 117 59 11 114 57 11 110 55 11 107 53 10 103 52 10 100 50 10 96 48 9 92 46 9 88 44 8 84 42 8 80 40 8 75 38 7 71 35 7 66 33 6 62 31 6 57 28 5 52 26 5 46 23 4 41 20 3 35 17 3 29 14 3 26 13 3 26 13 3 26 13 3 26 13 3 26 13 3 26 13 3 26 13 3 26 13 3 26 13 128 115 26 128 115 26 128 115 26 128 115 26 128 115 26 128 115 26 128 115 26 128 115 26 128 115 26 128 115 26 128 115 26 128 115 26 128 115 26 128 115 26 128 115 26 128 115 26 128 115 26 128 115 26 128 115 26 128 115 26 128 115 26 128 115 26 128 115 26 128 115 26 128 115 26 128 115 26 128 115 26 128 115 26 128 115 26 128 115 26 128 115 26 128 115 26 128 115 26 128 115 26 128 115 26 128 115 26 128 115 26 128 115 26 128 115 26 128 115 26 128 115 26 128 115 26 128 115 26 128 115 26 128 115 26 128 115 26 128 115 26 128 115 26 128 115 26 128 115 26 128 115 26 128 115 26 128 115 26 128 115 26 128 115 26 128 115 26 128 115 26 128 115 26 128 115 26 128 115 26 128 115 26 128 115 26 128 115 26 128 115 26 128 115 26 128 115 26 128 115 26 128 115 26 128 115 26 128 115 26 128 115 26 128 115 26 128 115 26 128 115 26 128 115 26 128 115 26 128 115 26 128 115 26 128 115 26 128 115 26 128 115 26 128 115 26 128 115 26 128 115 26 
64 115 115 64 115 115 64 115 115 64 115 115 64 115 115 64 115 115 64 115 115 64 115 115 64 115 115 64 115 115 64 115 115 64 115 115 64 115 115 64 115 115 64 115 115 64 115 115 64 115 115 64 115 115 64 115 115 64 115 115 64 115 115 64 115 115 64 115 115 64 115 115 64 115 115 64 115 115 64 115 115 64 115 115 64 115 115 64 115 115 64 115 115 64 115 115 64 115 115 64 115 115 64 115 115 64 115 115 64 115 115 64 115 115 64 115 115 64 115 115 64 115 115 64 115 115 64 115 115 64 115 115 64 115 115 64 115 115 64 115 115 64 115 115 64 115 115 64 115 115 64 115 115 64 115 115 15 153 77 16 162 81 17 166 83 17 169 84 17 170 85 17 171 85 17 171 86 17 171 86 17 171 85 17 170 85 17 169 85 17 168 84 17 167 84 17 166 83 17 164 82 17 163 82 16 161 81 16 159 80 16 158 79 16 155 78 16 153 77 15 151 76 15 149 74 15 146 73 14 144 72 14 141 71 14 138 69 14 136 68 13 133 66 13 130 65 13 127 64 12 124 62 12 121 60 12 118 59 11 115 57 11 111 56 11 108 54 10 104 52 10 101 50 10 97 49 9 93 47 9 89 45 9 85 43 8 81 41 8 77 39 7 73 36 7 68 34 6 64 32 6 59 29 5 54 27 5 49 24 4 44 22 4 38 19 3 32 16 3 26 13 3 26 13 3 26 13 3 26 13 3 26 13 3 26 13 3 26 13 3 26 13 3 26 13 3 26 13 128 115 26 128 115 26 128 115 26 128 115 26 128 115 26 128 115 26 128 115 26 128 115 26 128 115 26 128 115 26 128 115 26 128 115 26 128 115 26 128 115 26 128 115 26 128 115 26 128 115 26 128 115 26 128 115 26 128 115 26 128 115 26 128 115 26 128 115 26 128 115 26 128 115 26 128 115 26 128 115 26 128 115 26 128 115 26 128 115 26 128 115 26 128 115 26 128 115 26 128 115 26 128 115 26 128 115 26 128 115 26 128 115 26 128 115 26 128 115 26 128 115 26 128 115 26 128 115 26 128 115 26 128 115 26 128 115 26 128 115 26 128 115 26 128 115 26 128 115 26 128 115 26 128 115 26 128 115 26 128 115 26 128 115 26 128 115 26 128 115 26 128 115 26 128 115 26 128 115 26 128 115 26 128 115 26 128 115 26 128 115 26 128 115 26 128 115 26 128 115 26 128 115 26 128 115 26 128 115 26 128 115 26 128 115 26 128 115 26 128 115 26 128 115 26 128 115 26 128 115 26 128 115 26 128 115 26 128 115 26 128 115 26 128 115 26 128 115 26 128 115 26 
64 115 115 64 115 115 64 115 115 64 115 115 64 115 115 64 115 115 64 115 115 64 115 115 64 115 115 64 115 115 64 115 115 64 115 115 64 115 115 64 115 115 64 115 115 64 115 115 64 115 115 64 115 115 64 115 115 64 115 115 64 115 115 64 115 115 64 115 115 64 115 115 64 115 115 64 115 115 64 115 115 64 115 115 64 115 115 64 115 115 64 115 115 64 115 115 64 115 115 64 115 115 64 115 115 64 115 115 64 115 115 64 115 115 64 115 115 64 115 115 64 115 115 64 115 115 64 115 115 64 115 115 64 115 115 64 115 115 64 115 115 64 115 115 64 115 115 64 115 115 64 115 115 64 115 115 15 148 74 16 158 79 16 163 81 17 165 83 17 167 83 17 168 84 17 168 84 17 168 84 17 168 84 17 167 84 17 166 83 17 165 83 16 164 82 16 163 81 16 161 81 16 160 80 16 158 79 16 156 78 16 154 77 15 152 76 15 150 75 15 148 74 15 146 73 14 143 72 14 141 70 14 138 69 14 136 68 13 133 66 13 130 65 13 127 64 12 124 62 12 121 61 12 118 59 12 115 58 11 112 56 11 109 54 11 105 53 10 102 51 10 98 49 9 94 47 9 91 45 9 87 43 8 83 41 8 79 39 7 74 37 7 70 35 7 66 33 6 61 30 6 56 28 5 51 26 5 46 23 4 41 20 4 35 18 3 29 15 3 26 13 3 26 13 3 26 13 3 26 13 3 26 13 3 26 13 3 26 13 3 26 13 3 26 13 128 115 26 128 115 26 128 115 26 128 115 26 128 115 26 128 115 26 128 115 26 128 115 26 128 115 26 128 115 26 128 115 26 128 115 26 128 115 26 128 115 26 128 115 26 128 115 26 128 115 26 128 115 26 128 115 26 128 115 26 128 115 26 128 115 26 128 115 26 128 115 26 128 115 26 128 115 26 128 115 26 128 115 26 128 115 26 128 115 26 128 115 26 128 115 26 128 115 26 128 115 26 128 115 26 128 115 26 14 137 68 14 144 72 15 146 73 15 146 73 14 143 72 14 140 70 14 135 68 13 129 65 12 121 61 11 111 56 9 94 47 128 115 26 128 115 26 128 115 26 128 115 26 128 115 26 128 115 26 128 115 26 128 115 26 128 115 26 128 115 26 128 115 26 128 115 26 128 115 26 128 115 26 128 115 26 128 115 26 128 115 26 128 115 26 128 115 26 128 115 26 128 115 26 128 115 26 128 115 26 128 115 26 128 115 26 128 115 26 128 115 26 128 115 26 128 115 26 128 115 26 128 115 26 128 115 26 128 115 26 128 115 26 128 115 26 128 115 26 128 115 26 128 115 26 
64 115 115 64 115 115 64 115 115 64 115 115 64 115 115 64 115 115 64 115 115 64 115 115 64 115 115 64 115 115 64 115 115 64 115 115 64 115 115 64 115 115 64 115 115 64 115 115 64 115 115 64 115 115 64 115 115 64 115 115 64 115 115 64 115 115 64 115 115 64 115 115 64 115 115 64 115 115 64 115 115 64 115 115 64 115 115 64 115 115 64 115 115 64 115 115 64 115 115 64 115 115 64 115 115 64 115 115 64 115 115 64 115 115 64 115 115 64 115 115 64 115 115 64 115 115 64 115 115 64 115 115 64 115 115 64 115 115 64 115 115 64 115 115 64 115 115 64 115 115 64 115 115 64 115 115 14 141 70 15 154 77 16 159 79 16 162 81 16 163 82 16 164 82 16 165 82 16 165 82 16 165 82 16 164 82 16 163 82 16 162 81 16 161 81 16 160 80 16 158 79 16 157 78 16 155 78 15 153 77 15 151 76 15 149 75 15 147 74 15 145 73 14 143 71 14 140 70 14 138 69 14 135 68 13 133 66 13 130 65 13 127 64 12 124 62 12 122 61 12 119 59 12 115 58 11 112 56 11 109 55 11 106 53 10 102 51 10 99 49 10 95 48 9 92 46 9 88 44 8 84 42 8 80 40 8 76 38 7 71 36 7 67 34 6 63 31 6 58 29 5 53 27 5 48 24 4 43 22 4 38 19 3 32 16 3 26 13 3 26 13 3 26 13 3 26 13 3 26 13 3 26 13 3 26 13 3 26 13 3 26 13 3 26 13 128 115 26 128 115 26 128 115 26 128 115 26 128 115 26 128 115 26 128 115 26 128 115 26 128 115 26 128 115 26 128 115 26 128 115 26 128 115 26 128 115 26 128 115 26 128 115 26 128 115 26 128 115 26 128 115 26 128 115 26 128 115 26 128 115 26 128 115 26 128 115 26 128 115 26 128 115 26 128 115 26 128 115 26 128 115 26 128 115 26 128 115 26 128 115 26 128 115 26 15 145 73 16 158 79 16 163 81 16 165 82 17 165 83 16 164 82 16 162 81 16 159 80 16 156 78 15 151 76 15 146 73 14 140 70 13 133 67 12 125 62 11 115 57 10 102 51 8 80 40 128 115 26 128 115 26 128 115 26 128 115 26 128 115 26 128 115 26 128 115 26 128 115 26 128 115 26 128 115 26 128 115 26 128 115 26 128 115 26 128 115 26 128 115 26 128 115 26 128 115 26 128 115 26 128 115 26 128 115 26 128 115 26 128 115 26 128 115 26 128 115 26 128 115 26 128 115 26 128 115 26 128 115 26 128 115 26 128 115 26 128 115 26 128 115 26 128 115 26 128 115 26 128 115 26 
64 115 115 64 115 115 64 115 115 64 115 115 64 115 115 64 115 115 64 115 115 64 115 115 64 115 115 64 115 115 64 115 115 64 115 115 64 115 115 64 115 115 64 115 115 64 115 115 64 115 115 64 115 115 64 115 115 64 115 115 64 115 115 64 115 115 64 115 115 64 115 115 64 115 115 64 115 115 64 115 115 64 115 115 64 115 115 64 115 115 64 115 115 64 115 115 64 115 115 64 115 115 64 115 115 64 115 115 64 115 115 64 115 115 64 115 115 64 115 115 64 115 115 64 115 115 64 115 115 64 115 115 64 115 115 64 115 115 64 115 115 64 115 115 64 115 115 64 115 115 64 115 115 64 115 115 64 115 115 15 149 75 15 155 77 16 158 79 16 160 80 16 161 80 16 161 81 16 162 81 16 161 81 16 161 80 16 160 80 16 159 80 16 158 79 16 157 78 16 155 78 15 154 77 15 152 76 15 150 75 15 148 74 15 146 73 14 144 72 14 142 71 14 140 70 14 137 69 14 135 68 13 133 66 13 130 65 13 127 64 12 124 62 12 122 61 12 119 59 12 116 58 11 113 56 11 109 55 11 106 53 10 103 51 10 99 50 10 96 48 9 92 46 9 89 44 8 85 42 8 81 40 8 77 38 7 73 36 7 69 34 6 64 32 6 60 30 6 55 28 5 50 25 5 45 23 4 40 20 3 35 17 3 29 15 3 26 13 3 26 13 3 26 13 3 26 13 3 26 13 3 26 13 3 26 13 3 26 13 3 26 13 3 26 13 128 115 26 128 115 26 128 115 26 128 115 26 128 115 26 128 115 26 128 115 26 128 115 26 128 115 26 128 115 26 128 115 26 128 115 26 128 115 26 128 115 26 128 115 26 128 115 26 128 115 26 128 115 26 128 115 26 128 115 26 128 115 26 128 115 26 128 115 26 128 115 26 128 115 26 128 115 26 128 115 26 128 115 26 128 115 26 128 115 26 128 115 26 15 151 75 17 166 83 17 172 86 18 175 88 18 177 88 18 177 88 18 176 88 17 174 87 17 172 86 17 169 85 17 165 83 16 161 81 16 156 78 15 151 75 14 144 72 14 137 69 13 129 65 12 120 60 11 109 54 9 95 47 7 72 36 128 115 26 128 115 26 128 115 26 128 115 26 128 115 26 128 115 26 128 115 26 128 115 26 128 115 26 128 115 26 128 115 26 128 115 26 128 115 26 128 115 26 128 115 26 128 115 26 128 115 26 128 115 26 128 115 26 128 115 26 128 115 26 128 115 26 128 115 26 128 115 26 128 115 26 128 115 26 128 115 26 128 115 26 128 115 26 128 115 26 128 115 26 128 115 26 128 115 26 
64 115 115 64 115 115 64 115 115 64 115 115 64 115 115 64 115 115 64 115 115 64 115 115 64 115 115 64 115 115 64 115 115 64 115 115 64 115 115 64 115 115 64 115 115 64 115 115 64 115 115 64 115 115 64 115 115 64 115 115 64 115 115 64 115 115 64 115 115 64 115 115 64 115 115 64 115 115 64 115 115 64 115 115 64 115 115 64 115 115 64 115 115 64 115 115 64 115 115 64 115 115 64 115 115 64 115 115 64 115 115 64 115 115 64 115 115 64 115 115 64 115 115 64 115 115 64 115 115 64 115 115 64 115 115 64 115 115 64 115 115 64 115 115 64 115 115 64 115 115 64 115 115 64 115 115 64 115 115 14 144 72 15 150 75 15 154 77 16 156 78 16 157 79 16 158 79 16 158 79 16 158 79 16 157 79 16 157 78 16 156 78 15 155 77 15 154 77 15 152 76 15 151 75 15 149 74 15 147 74 15 145 73 14 143 72 14 141 71 14 139 70 14 137 68 13 134 67 13 132 66 13 130 65 13 127 63 12 124 62 12 121 61 12 119 59 12 116 58 11 113 56 11 110 55 11 106 53 10 103 52 10 100 50 10 96 48 9 93 46 9 89 45 9 86 43 8 82 41 8 78 39 7 74 37 7 70 35 7 66 33 6 61 31 6 57 28 5 52 26 5 47 24 4 42 21 4 37 18 3 31 16 3 26 13 3 26 13 3 26 13 3 26 13 3 26 13 3 26 13 3 26 13 3 26 13 3 26 13 3 26 13 3 26 13 128 115 26 128 115 26 128 115 26 128 115 26 128 115 26 128 115 26 128 115 26 128 115 26 128 115 26 128 115 26 128 115 26 128 115 26 128 115 26 128 115 26 128 115 26 128 115 26 128 115 26 128 115 26 128 115 26 128 115 26 128 115 26 128 115 26 128 115 26 128 115 26 128 115 26 128 115 26 128 115 26 128 115 26 128 115 26 128 115 26 17 165 83 18 175 88 18 180 90 18 183 92 18 185 92 19 185 93 18 185 92 18 183 92 18 181 91 18 179 89 18 176 88 17 172 86 17 168 84 16 163 82 16 158 79 15 152 76 15 145 73 14 138 69 13 130 65 12 121 60 11 110 55 10 97 49 8 80 40 128 115 26 128 115 26 128 115 26 128 115 26 128 115 26 128 115 26 128 115 26 128 115 26 128 115 26 128 115 26 128 115 26 128 115 26 128 115 26 128 115 26 128 115 26 128 115 26 128 115 26 128 115 26 128 115 26 128 115 26 128 115 26 128 115 26 128 115 26 128 115 26 128 115 26 128 115 26 128 115 26 128 115 26 128 115 26 128 115 26 128 115 26 128 115 26 
64 115 115 64 115 115 64 115 115 64 115 115 64 115 115 64 115 115 64 115 115 64 115 115 64 115 115 64 115 115 64 115 115 64 115 115 64 115 115 64 115 115 64 115 115 64 115 115 64 115 115 64 115 115 64 115 115 64 115 115 64 115 115 64 115 115 64 115 115 64 115 115 64 115 115 64 115 115 64 115 115 64 115 115 64 115 115 64 115 115 64 115 115 64 115 115 64 115 115 64 115 115 64 115 115 64 115 115 64 115 115 64 115 115 64 115 115 64 115 115 64 115 115 64 115 115 64 115 115 64 115 115 64 115 115 64 115 115 64 115 115 64 115 115 64 115 115 64 115 115 64 115 115 64 115 115 64 115 115 14 137 69 15 145 73 15 149 75 15 152 76 15 153 77 15 154 77 15 154 77 15 154 77 15 154 77 15 153 77 15 152 76 15 151 76 15 150 75 15 149 74 15 147 74 15 146 73 14 144 72 14 142 71 14 140 70 14 138 69 14 136 68 13 134 67 13 131 66 13 129 64 13 126 63 12 124 62 12 121 61 12 118 59 12 116 58 11 113 56 11 110 55 11 107 53 10 103 52 10 100 50 10 97 48 9 93 47 9 90 45 9 86 43 8 83 41 8 79 39 7 75 37 7 71 35 7 67 33 6 62 31 6 58 29 5 53 27 5 49 24 4 44 22 4 39 19 3 34 17 3 28 14 3 26 13 3 26 13 3 26 13 3 26 13 3 26 13 3 26 13 3 26 13 3 26 13 3 26 13 3 26 13 3 26 13 128 115 26 128 115 26 128 115 26 128 115 26 128 115 26 128 115 26 128 115 26 128 115 26 128 115 26 128 115 26 128 115 26 128 115 26 128 115 26 128 115 26 128 115 26 128 115 26 128 115 26 128 115 26 128 115 26 128 115 26 128 115 26 128 115 26 128 115 26 128 115 26 128 115 26 128 115 26 128 115 26 128 115 26 15 147 73 17 172 86 18 181 90 19 186 93 19 189 95 19 191 95 19 191 96 19 191 95 19 190 95 19 188 94 19 186 93 18 184 92 18 180 90 18 177 88 17 173 86 17 168 84 16 163 81 16 157 79 15 151 76 14 144 72 14 137 68 13 129 64 12 119 60 11 109 54 10 96 48 8 80 40 6 55 28 128 115 26 128 115 26 128 115 26 128 115 26 128 115 26 128 115 26 128 115 26 128 115 26 128 115 26 128 115 26 128 115 26 128 115 26 128 115 26 128 115 26 128 115 26 128 115 26 128 115 26 128 115 26 128 115 26 128 115 26 128 115 26 128 115 26 128 115 26 128 115 26 128 115 26 128 115 26 128 115 26 128 115 26 128 115 26 128 115 26 
64 115 115 64 115 115 64 115 115 64 115 115 64 115 115 64 115 115 64 115 115 64 115 115 64 115 115 64 115 115 64 115 115 64 115 115 64 115 115 64 115 115 64 115 115 64 115 115 64 115 115 64 115 115 64 115 115 64 115 115 64 115 115 64 115 115 64 115 115 64 115 115 64 115 115 64 115 115 64 115 115 64 115 115 64 115 115 64 115 115 64 115 115 64 115 115 64 115 115 64 115 115 64 115 115 64 115 115 64 115 115 64 115 115 64 115 115 64 115 115 64 115 115 64 115 115 64 115 115 64 115 115 64 115 115 64 115 115 64 115 115 64 115 115 64 115 115 64 115 115 64 115 115 64 115 115 64 115 115 13 128 64 14 140 70 14 145 72 15 147 74 15 149 75 15 150 75 15 151 75 15 151 75 15 150 75 15 150 75 15 149 74 15 148 74 15 147 73 15 145 73 14 144 72 14 142 71 14 141 70 14 139 69 14 137 68 13 135 67 13 133 66 13 130 65 13 128 64 13 126 63 12 123 62 12 121 60 12 118 59 12 115 58 11 112 56 11 109 55 11 106 53 10 103 52 10 100 50 10 97 48 9 94 47 9 90 45 9 87 43 8 83 42 8 79 40 8 76 38 7 72 36 7 68 34 6 63 32 6 59 30 5 55 27 5 50 25 5 45 23 4 40 20 4 35 18 3 30 15 3 26 13 3 26 13 3 26 13 3 26 13 3 26 13 3 26 13 3 26 13 3 26 13 3 26 13 3 26 13 3 26 13 128 115 26 128 115 26 128 115 26 128 115 26 128 115 26 128 115 26 128 115 26 128 115 26 128 115 26 128 115 26 128 115 26 128 115 26 128 115 26 128 115 26 128 115 26 128 115 26 128 115 26 128 115 26 128 115 26 128 115 26 128 115 26 128 115 26 128 115 26 128 115 26 128 115 26 128 115 26 128 115 26 128 115 26 15 153 77 18 175 88 18 184 92 19 190 95 19 193 96 19 195 97 20 196 98 20 196 98 20 195 98 19 194 97 19 192 96 19 190 95 19 187 93 18 184 92 18 180 90 18 176 88 17 171 86 17 167 83 16 161 81 16 155 78 15 149 74 14 142 71 13 134 67 13 125 63 12 116 58 11 105 53 9 93 46 8 77 38 5 54 27 128 115 26 128 115 26 128 115 26 128 115 26 128 115 26 128 115 26 128 115 26 128 115 26 128 115 26 128 115 26 128 115 26 128 115 26 128 115 26 128 115 26 128 115 26 128 115 26 128 115 26 128 115 26 128 115 26 128 115 26 128 115 26 128 115 26 128 115 26 128 115 26 128 115 26 128 115 26 128 115 26 128 115 26 128 115 26 
64 115 115 64 115 115 64 115 115 64 115 115 64 115 115 64 115 115 64 115 115 64 115 115 64 115 115 64 115 115 64 115 115 64 115 115 64 115 115 64 115 115 64 115 115 64 115 115 64 115 115 64 115 115 64 115 115 64 115 115 64 115 115 64 115 115 64 115 115 64 115 115 64 115 115 64 115 115 64 115 115 64 115 115 64 115 115 64 115 115 64 115 115 64 115 115 64 115 115 64 115 115 64 115 115 64 115 115 64 115 115 64 115 115 64 115 115 64 115 115 64 115 115 64 115 115 64 115 115 64 115 115 64 115 115 64 115 115 64 115 115 64 115 115 64 115 115 64 115 115 64 115 115 64 115 115 64 115 115 64 115 115 13 133 67 14 139 70 14 143 71 14 145 72 15 146 73 15 146 73 15 147 73 15 146 73 15 146 73 15 145 73 14 144 72 14 143 72 14 142 71 14 140 70 14 139 69 14 137 69 14 135 68 13 133 67 13 131 66 13 129 65 13 127 64 12 125 62 12 122 61 12 120 60 12 117 59 11 115 57 11 112 56 11 109 55 11 106 53 10 103 52 10 100 50 10 97 48 9 94 47 9 90 45 9 87 43 8 83 42 8 80 40 8 76 38 7 72 36 7 68 34 6 64 32 6 60 30 6 56 28 5 51 26 5 47 23 4 42 21 4 37 18 3 32 16 3 27 13 3 26 13 3 26 13 3 26 13 3 26 13 3 26 13 3 26 13 3 26 13 3 26 13 3 26 13 3 26 13 3 26 13 128 115 26 128 115 26 128 115 26 128 115 26 128 115 26 128 115 26 128 115 26 128 115 26 128 115 26 128 115 26 128 115 26 128 115 26 128 115 26 128 115 26 128 115 26 128 115 26 128 115 26 128 115 26 128 115 26 128 115 26 128 115 26 128 115 26 128 115 26 128 115 26 128 115 26 128 115 26 128 115 26 15 147 74 18 175 88 19 185 93 19 191 96 20 195 98 20 197 99 20 199 99 20 199 100 20 199 99 20 198 99 20 196 98 19 195 97 19 192 96 19 189 95 19 186 93 18 182 91 18 178 89 17 174 87 17 169 85 16 164 82 16 158 79 15 152 76 15 145 73 14 138 69 13 130 65 12 121 61 11 111 56 10 100 50 9 87 44 7 71 36 5 47 24 128 115 26 128 115 26 128 115 26 128 115 26 128 115 26 128 115 26 128 115 26 128 115 26 128 115 26 128 115 26 128 115 26 128 115 26 128 115 26 128 115 26 128 115 26 128 115 26 128 115 26 128 115 26 128 115 26 128 115 26 128 115 26 128 115 26 128 115 26 128 115 26 128 115 26 128 115 26 128 115 26 128 115 26 
64 115 115 64 115 115 64 115 115 64 115 115 64 115 115 64 115 115 64 115 115 64 115 115 64 115 115 64 115 115 64 115 115 64 115 115 64 115 115 64 115 115 64 115 115 64 115 115 64 115 115 64 115 115 64 115 115 64 115 115 64 115 115 64 115 115 64 115 115 64 115 115 64 115 115 64 115 115 64 115 115 64 115 115 64 115 115 64 115 115 64 115 115 64 115 115 64 115 115 64 115 115 64 115 115 64 115 115 64 115 115 64 115 115 64 115 115 64 115 115 64 115 115 64 115 115 64 115 115 64 115 115 64 115 115 64 115 115 64 115 115 64 115 115 64 115 115 64 115 115 64 115 115 64 115 115 64 115 115 64 115 115 13 126 63 13 134 67 14 138 69 14 140 70 14 141 71 14 142 71 14 143 71 14 142 71 14 142 71 14 141 71 14 141 70 14 139 70 14 138 69 14 137 68 14 135 68 13 134 67 13 132 66 13 130 65 13 128 64 13 126 63 12 124 62 12 121 61 12 119 59 12 117 58 11 114 57 11 111 56 11 109 54 11 106 53 10 103 51 10 100 50 10 97 48 9 94 47 9 90 45 9 87 43 8 84 42 8 80 40 8 76 38 7 73 36 7 69 34 6 65 32 6 61 30 6 57 28 5 52 26 5 48 24 4 43 22 4 38 19 3 33 17 3 28 14 3 26 13 3 26 13 3 26 13 3 26 13 3 26 13 3 26 13 3 26 13 3 26 13 3 26 13 3 26 13 3 26 13 3 26 13 128 115 26 128 115 26 128 115 26 128 115 26 128 115 26 128 115 26 128 115 26 128 115 26 128 115 26 128 115 26 128 115 26 128 115 26 128 115 26 128 115 26 128 115 26 128 115 26 128 115 26 128 115 26 128 115 26 128 115 26 128 115 26 128 115 26 128 115 26 128 115 26 128 115 26 128 115 26 128 115 26 17 173 86 18 184 92 19 191 96 20 196 98 20 199 99 20 200 100 20 201 101 20 201 101 20 201 100 20 200 100 20 198 99 20 196 98 19 194 97 19 191 96 19 188 94 18 184 92 18 180 90 18 176 88 17 171 85 17 166 83 16 160 80 15 154 77 15 148 74 14 141 70 13 133 66 12 125 62 12 115 58 11 105 53 9 94 47 8 80 40 6 63 32 4 36 18 128 115 26 128 115 26 128 115 26 128 115 26 128 115 26 128 115 26 128 115 26 128 115 26 128 115 26 128 115 26 128 115 26 128 115 26 128 115 26 128 115 26 128 115 26 128 115 26 128 115 26 128 115 26 128 115 26 128 115 26 128 115 26 128 115 26 128 115 26 128 115 26 128 115 26 128 115 26 128 115 26 
64 115 115 64 115 115 64 115 115 64 115 115 64 115 115 64 115 115 64 115 115 64 115 115 64 115 115 64 115 115 64 115 115 64 115 115 64 115 115 64 115 115 64 115 115 64 115 115 64 115 115 64 115 115 64 115 115 64 115 115 64 115 115 64 115 115 64 115 115 64 115 115 64 115 115 64 115 115 64 115 115 64 115 115 64 115 115 64 115 115 64 115 115 64 115 115 64 115 115 64 115 115 64 115 115 64 115 115 64 115 115 64 115 115 64 115 115 64 115 115 64 115 115 64 115 115 64 115 115 64 115 115 64 115 115 64 115 115 64 115 115 64 115 115 64 115 115 64 115 115 64 115 115 64 115 115 64 115 115 64 115 115 11 113 56 13 127 63 13 132 66 13 135 67 14 137 68 14 138 69 14 138 69 14 138 69 14 138 69 14 137 69 14 137 68 14 136 68 13 134 67 13 133 67 13 132 66 13 130 65 13 128 64 13 126 63 12 124 62 12 122 61 12 120 60 12 118 59 12 115 58 11 113 56 11 110 55 11 108 54 11 105 53 10 102 51 10 99 50 10 96 48 9 93 47 9 90 45 9 87 43 8 83 42 8 80 40 8 76 38 7 73 36 7 69 35 7 65 33 6 61 31 6 57 29 5 53 26 5 49 24 4 44 22 4 39 20 3 35 17 3 29 15 3 26 13 3 26 13 3 26 13 3 26 13 3 26 13 3 26 13 3 26 13 3 26 13 3 26 13 3 26 13 3 26 13 3 26 13 128 115 115 128 115 115 128 115 26 128 115 26 128 115 26 128 115 26 128 115 26 128 115 26 128 115 26 128 115 26 128 115 26 128 115 26 128 115 26 128 115 26 128 115 26 128 115 26 128 115 26 128 115 26 128 115 26 128 115 26 128 115 26 128 115 26 128 115 26 128 115 26 128 115 26 128 115 26 128 115 26 17 166 83 18 181 91 19 190 95 20 195 98 20 199 99 20 201 101 20 202 101 20 203 102 20 203 102 20 202 101 21 202 101 21 200 101 21 198 100 20 196 98 20 192 97 19 189 95 19 185 93 18 181 90 18 177 88 17 172 86 17 167 83 16 161 81 16 155 78 15 149 75 14 142 71 14 135 68 13 127 64 12 118 59 11 109 54 10 98 49 9 86 43 7 71 36 5 53 26 3 26 13 128 115 26 128 115 26 128 115 26 128 115 26 128 115 26 128 115 26 128 115 26 128 115 26 128 115 26 128 115 26 128 115 26 128 115 26 128 115 26 128 115 26 128 115 26 128 115 26 128 115 26 128 115 26 128 115 26 128 115 26 128 115 26 128 115 26 128 115 26 128 115 26 128 115 26 128 115 26 
64 115 115 64 115 115 64 115 115 64 115 115 64 115 115 64 115 115 64 115 115 64 115 115 64 115 115 64 115 115 64 115 115 64 115 115 64 115 115 64 115 115 64 115 115 64 115 115 64 115 115 64 115 115 64 115 115 64 115 115 64 115 115 64 115 115 64 115 115 64 115 115 64 115 115 64 115 115 64 115 115 64 115 115 64 115 115 64 115 115 64 115 115 64 115 115 64 115 115 64 115 115 64 115 115 64 115 115 64 115 115 64 115 115 64 115 115 64 115 115 64 115 115 64 115 115 64 115 115 64 115 115 64 115 115 64 115 115 64 115 115 64 115 115 64 115 115 64 115 115 64 115 115 64 115 115 64 115 115 64 115 115 64 115 115 12 119 59 13 126 63 13 129 65 13 132 66 13 133 66 13 134 67 13 134 67 13 134 67 13 133 67 13 132 66 13 132 66 13 130 65 13 129 65 13 128 64 13 126 63 12 124 62 12 123 61 12 121 60 12 119 59 12 116 58 11 114 57 11 112 56 11 109 55 11 107 53 10 104 52 10 101 51 10 99 49 10 96 48 9 93 46 9 90 45 9 86 43 8 83 42 8 80 40 8 76 38 7 73 36 7 69 35 7 65 33 6 62 31 6 58 29 5 53 27 5 49 25 4 45 22 4 40 20 4 35 18 3 31 15 3 26 13 3 26 13 3 26 13 3 26 13 3 26 13 3 26 13 3 26 13 3 26 13 3 26 13 3 26 13 3 26 13 3 26 13 3 26 13 128 115 115 128 115 115 128 115 115 128 115 115 128 115 115 128 115 115 128 115 115 128 115 115 128 115 115 128 115 26 128 115 26 128 115 26 128 115 26 128 115 26 128 115 26 128 115 26 128 115 26 128 115 26 128 115 26 128 115 26 128 115 26 128 115 26 128 115 26 128 115 26 128 115 26 128 115 26 15 151 75 18 176 88 19 187 93 19 193 97 20 198 99 20 201 100 20 202 101 20 204 102 21 204 102 21 204 102 22 204 103 23 205 104 24 204 104 25 202 104 24 199 102 22 195 99 20 190 96 19 186 93 18 181 91 18 177 89 17 172 86 17 167 84 16 162 81 16 156 78 15 150 75 14 143 72 14 136 68 13 129 64 12 120 60 11 111 56 10 101 51 9 90 45 8 77 38 6 61 30 4 40 20 128 115 26 128 115 26 128 115 26 128 115 26 128 115 26 128 115 26 128 115 26 128 115 26 128 115 26 128 115 26 128 115 26 128 115 26 128 115 26 128 115 26 128 115 26 128 115 26 128 115 26 128 115 26 128 115 26 128 115 26 128 115 26 128 115 26 128 115 26 128 115 26 128 115 26 128 115 26 
64 115 115 64 115 115 64 115 115 64 115 115 64 115 115 64 115 115 64 115 115 64 115 115 64 115 115 64 115 115 64 115 115 64 115 115 64 115 115 64 115 115 64 115 115 64 115 115 64 115 115 64 115 115 64 115 115 64 115 115 64 115 115 64 115 115 64 115 115 64 115 115 64 115 115 64 115 115 64 115 115 64 115 115 64 115 115 64 115 115 64 115 115 64 115 115 64 115 115 64 115 115 64 115 115 64 115 115 64 115 115 64 115 115 64 115 115 64 115 115 64 115 115 64 115 115 64 115 115 64 115 115 64 115 115 64 115 115 64 115 115 64 115 115 64 115 115 64 115 115 64 115 115 64 115 115 64 115 115 64 115 115 64 115 115 11 107 53 12 118 59 12 123 62 13 126 63 13 128 64 13 129 64 13 129 65 13 129 65 13 129 64 13 128 64 13 127 64 13 126 63 13 125 63 12 124 62 12 122 61 12 121 60 12 119 59 12 117 58 11 115 57 11 113 56 11 110 55 11 108 54 11 106 53 10 103 52 10 100 50 10 98 49 9 95 47 9 92 46 9 89 45 9 86 43 8 83 41 8 79 40 8 76 38 7 73 36 7 69 35 7 65 33 6 62 31 6 58 29 5 54 27 5 50 25 5 45 23 4 41 20 4 36 18 3 31 16 3 26 13 3 26 13 3 26 13 3 26 13 3 26 13 3 26 13 3 26 13 3 26 13 3 26 13 3 26 13 3 26 13 3 26 13 3 26 13 128 115 115 128 115 115 128 115 115 128 115 115 128 115 115 128 115 115 128 115 115 128 115 115 128 115 115 128 115 115 128 115 115 128 115 115 128 115 115 128 115 115 128 115 115 128 115 115 128 115 26 128 115 26 128 115 26 128 115 26 128 115 26 128 115 26 128 115 26 128 115 26 128 115 26 128 115 26 128 115 26 17 166 83 18 181 90 19 189 95 20 195 98 20 199 99 20 201 101 20 203 102 21 204 102 21 205 103 23 206 104 27 209 108 31 212 111 34 214 114 34 212 113 32 207 109 27 200 104 23 193 98 20 187 94 19 182 91 18 177 89 17 172 86 17 167 84 16 162 81 16 156 78 15 150 75 14 144 72 14 137 68 13 129 65 12 121 61 11 112 56 10 103 51 9 92 46 8 80 40 7 66 33 5 48 24 3 26 13 128 115 26 128 115 26 128 115 26 128 115 26 128 115 26 128 115 26 128 115 26 128 115 26 128 115 26 128 115 26 128 115 26 128 115 26 128 115 26 128 115 26 128 115 26 128 115 26 128 115 26 128 115 26 128 115 26 128 115 26 128 115 26 128 115 26 128 115 26 128 115 26 128 115 26 
64 115 115 64 115 115 64 115 115 64 115 115 64 115 115 64 115 115 64 115 115 64 115 115 64 115 115 64 115 115 64 115 115 64 115 115 64 115 115 64 115 115 64 115 115 64 115 115 64 115 115 64 115 115 64 115 115 64 115 115 64 115 115 64 115 115 64 115 115 64 115 115 64 115 115 64 115 115 64 115 115 64 115 115 64 115 115 64 115 115 64 115 115 64 115 115 64 115 115 64 115 115 64 115 115 64 115 115 64 115 115 64 115 115 64 115 115 64 115 115 64 115 115 64 115 115 64 115 115 64 115 115 64 115 115 64 115 115 64 115 115 64 115 115 64 115 115 64 115 115 64 115 115 64 115 115 64 115 115 64 115 115 64 115 115 64 115 115 11 109 55 12 116 58 12 120 60 12 122 61 12 124 62 12 124 62 12 124 62 12 124 62 12 124 62 12 123 61 12 122 61 12 121 60 12 120 60 12 118 59 12 116 58 11 115 57 11 113 56 11 111 55 11 109 54 11 106 53 10 104 52 10 102 51 10 99 50 10 97 48 9 94 47 9 91 46 9 88 44 9 85 43 8 82 41 8 79 39 8 76 38 7 72 36 7 69 34 7 65 33 6 61 31 6 58 29 5 54 27 5 50 25 5 45 23 4 41 21 4 37 18 3 32 16 3 27 14 3 26 13 3 26 13 3 26 13 3 26 13 3 26 13 3 26 13 3 26 13 3 26 13 3 26 13 3 26 13 3 26 13 3 26 13 3 26 13 128 115 115 128 115 115 128 115 115 128 115 115 128 115 115 128 115 115 128 115 115 128 115 115 128 115 115 128 115 115 128 115 115 128 115 115 128 115 115 128 115 115 128 115 115 128 115 115 128 115 115 128 115 115 128 115 115 128 115 115 128 115 115 128 115 115 128 115 115 128 115 26 128 115 26 128 115 26 14 142 71 17 172 86 18 184 92 19 191 95 20 196 98 20 199 100 20 202 101 20 203 102 21 204 102 23 206 104 28 211 109 36 218 117 46 226 126 52 231 131 52 228 130 45 220 123 36 208 112 28 197 103 22 188 96 19 182 91 18 176 88 17 172 86 17 167 83 16 162 81 16 156 78 15 150 75 14 144 72 14 137 68 13 130 65 12 122 61 11 113 57 10 104 52 9 94 47 8 82 41 7 69 35 5 53 27 3 32 16 128 115 26 128 115 26 128 115 26 128 115 26 128 115 26 128 115 26 128 115 26 128 115 26 128 115 26 128 115 26 128 115 26 128 115 26 128 115 26 128 115 26 128 115 26 128 115 26 128 115 26 128 115 26 128 115 26 128 115 26 128 115 26 128 115 26 128 115 26 128 115 26 128 115 26 
64 115 115 64 115 115 64 115 115 64 115 115 64 115 115 64 115 115 64 115 115 64 115 115 64 115 115 64 115 115 64 115 115 64 115 115 64 115 115 64 115 115 64 115 115 64 115 115 64 115 115 64 115 115 64 115 115 64 115 115 64 115 115 64 115 115 64 115 115 64 115 115 64 115 115 64 115 115 64 115 115 64 115 115 64 115 115 64 115 115 64 115 115 64 115 115 64 115 115 64 115 115 64 115 115 64 115 115 64 115 115 64 115 115 64 115 115 64 115 115 64 115 115 64 115 115 64 115 115 64 115 115 64 115 115 64 115 115 64 115 115 64 115 115 64 115 115 64 115 115 64 115 115 64 115 115 64 115 115 64 115 115 64 115 115 64 115 115 9 93 46 11 108 54 11 113 57 12 116 58 12 118 59 12 119 59 12 119 60 12 119 60 12 119 59 12 118 59 12 117 59 12 116 58 12 115 58 11 114 57 11 112 56 11 110 55 11 109 54 11 107 53 10 105 52 10 102 51 10 100 50 10 98 49 10 95 48 9 93 46 9 90 45 9 87 44 8 84 42 8 81 41 8 78 39 7 75 37 7 72 36 7 68 34 6 65 32 6 61 31 6 57 29 5 54 27 5 50 25 5 46 23 4 41 21 4 37 18 3 32 16 3 28 14 3 26 13 3 26 13 3 26 13 3 26 13 3 26 13 3 26 13 3 26 13 3 26 13 3 26 13 3 26 13 3 26 13 3 26 13 3 26 13 128 115 115 128 115 115 128 115 115 128 115 115 128 115 115 128 115 115 128 115 115 128 115 115 128 115 115 128 115 115 128 115 115 128 115 115 128 115 115 128 115 115 128 115 115 128 115 115 128 115 115 128 115 115 128 115 115 128 115 115 128 115 115 128 115 115 128 115 115 128 115 115 128 115 115 128 115 115 128 115 115 16 157 79 18 175 88 19 185 93 19 191 96 20 196 98 20 199 99 20 201 100 20 202 101 22 204 103 26 208 107 35 217 116 50 230 130 65 244 145 74 252 153 72 248 150 61 235 138 46 217 122 33 201 108 25 189 98 20 181 92 18 176 88 17 171 85 17 166 83 16 161 80 16 155 78 15 149 75 14 143 71 14 136 68 13 129 65 12 121 61 11 113 57 10 104 52 9 94 47 8 83 42 7 71 35 6 56 28 4 38 19 3 26 13 128 115 26 128 115 26 128 115 26 128 115 26 128 115 26 128 115 26 128 115 26 128 115 26 128 115 26 128 115 26 128 115 26 128 115 26 128 115 26 128 115 26 128 115 26 128 115 26 128 115 26 128 115 26 128 115 26 128 115 26 128 115 26 128 115 26 128 115 26 128 115 26 
64 115 115 64 115 115 64 115 115 64 115 115 64 115 115 64 115 115 64 115 115 64 115 115 64 115 115 64 115 115 64 115 115 64 115 115 64 115 115 64 115 115 64 115 115 64 115 115 64 115 115 64 115 115 64 115 115 64 115 115 64 115 115 64 115 115 64 115 115 64 115 115 64 115 115 64 115 115 64 115 115 64 115 115 64 115 115 64 115 115 64 115 115 64 115 115 64 115 115 64 115 115 64 115 115 64 115 115 64 115 115 64 115 115 64 115 115 64 115 115 64 115 115 64 115 115 64 115 115 64 115 115 64 115 115 64 115 115 64 115 115 64 115 115 64 115 115 64 115 115 64 115 115 128 115 115 128 115 115 128 115 115 128 115 115 128 115 115 128 115 115 10 97 48 11 105 53 11 109 55 11 112 56 11 113 57 11 114 57 11 114 57 11 114 57 11 113 57 11 113 56 11 112 56 11 111 55 11 109 55 11 108 54 11 106 53 10 104 52 10 102 51 10 100 50 10 98 49 10 96 48 9 93 47 9 91 45 9 88 44 9 86 43 8 83 41 8 80 40 8 77 39 7 74 37 7 71 35 7 67 34 6 64 32 6 61 30 6 57 28 5 53 27 5 49 25 5 45 23 4 41 21 4 37 18 3 32 16 3 28 14 3 26 13 3 26 13 3 26 13 3 26 13 3 26 13 3 26 13 3 26 13 3 26 13 3 26 13 3 26 13 3 26 13 3 26 13 3 26 13 3 26 13 128 115 115 128 115 115 128 115 115 128 115 115 128 115 115 128 115 115 128 115 115 128 115 115 128 115 115 128 115 115 128 115 115 128 115 115 128 115 115 128 115 115 128 115 115 128 115 115 128 115 115 128 115 115 128 115 115 128 115 115 128 115 115 128 115 115 128 115 115 128 115 115 128 115 115 128 115 115 128 115 115 16 162 81 18 176 88 19 185 93 19 191 95 20 195 98 20 198 99 20 200 100 21 201 101 23 204 103 29 210 109 42 223 122 62 241 141 81 255 160 91 255 170 88 255 165 73 245 149 54 223 129 37 203 111 26 189 99 21 180 92 18 174 87 17 169 85 16 164 82 16 159 80 15 154 77 15 148 74 14 142 71 14 135 68 13 128 64 12 121 60 11 112 56 10 104 52 9 94 47 8 83 42 7 72 36 6 58 29 4 41 21 3 26 13 128 115 26 128 115 26 128 115 26 128 115 26 128 115 26 128 115 26 128 115 26 128 115 26 128 115 26 128 115 26 128 115 26 128 115 26 128 115 26 128 115 26 128 115 26 128 115 26 128 115 26 128 115 26 128 115 26 128 115 26 128 115 26 128 115 26 128 115 26 128 115 26 
64 115 115 64 115 115 64 115 115 64 115 115 64 115 115 64 115 115 64 115 115 64 115 115 64 115 115 64 115 115 64 115 115 64 115 115 64 115 115 64 115 115 64 115 115 64 115 115 64 115 115 64 115 115 64 115 115 64 115 115 64 115 115 64 115 115 64 115 115 64 115 115 64 115 115 64 115 115 64 115 115 64 115 115 64 115 115 64 115 115 64 115 115 64 115 115 64 115 115 64 115 115 64 115 115 64 115 115 64 115 115 64 115 115 143 114 14 138 111 14 131 105 13 121 97 12 109 87 11 94 75 9 128 115 115 128 115 115 128 115 115 128 115 115 128 115 115 128 115 115 128 115 115 128 115 115 128 115 115 128 115 115 128 115 115 128 115 115 128 115 115 128 115 115 10 95 48 10 102 51 10 105 52 11 107 53 11 108 54 11 108 54 11 109 54 11 108 54 11 108 54 11 107 53 11 106 53 10 104 52 10 103 52 10 101 51 10 100 50 10 98 49 10 96 48 9 94 47 9 91 46 9 89 45 9 87 43 8 84 42 8 81 41 8 79 39 8 76 38 7 73 36 7 70 35 7 66 33 6 63 32 6 60 30 6 56 28 5 52 26 5 49 24 4 45 22 4 41 20 4 37 18 3 32 16 3 28 14 3 26 13 3 26 13 3 26 13 3 26 13 3 26 13 3 26 13 3 26 13 3 26 13 3 26 13 3 26 13 3 26 13 3 26 13 3 26 13 3 26 13 128 115 115 128 115 115 128 115 115 128 115 115 128 115 115 128 115 115 128 115 115 128 115 115 128 115 115 128 115 115 128 115 115 128 115 115 128 115 115 128 115 115 128 115 115 128 115 115 128 115 115 128 115 115 128 115 115 128 115 115 128 115 115 128 115 115 128 115 115 128 115 115 128 115 115 128 115 115 128 115 115 128 115 115 16 163 82 18 176 88 18 184 92 19 190 95 19 194 97 20 196 98 20 198 99 20 200 100 23 202 103 30 210 110 45 224 125 66 243 145 85 255 164 95 255 173 90 255 167 74 244 150 54 221 128 37 202 110 26 188 98 20 178 91 18 172 87 17 167 84 16 163 81 16 157 79 15 152 76 15 146 73 14 140 70 13 134 67 13 127 63 12 119 60 11 111 56 10 103 51 9 93 47 8 83 41 7 71 36 6 58 29 4 43 21 3 26 13 128 115 26 128 115 26 128 115 26 128 115 26 128 115 26 128 115 26 128 115 26 128 115 26 128 115 26 128 115 26 128 115 26 128 115 26 128 115 26 128 115 26 128 115 26 128 115 26 128 115 26 128 115 26 128 115 26 128 115 26 128 115 26 128 115 26 128 115 26 128 115 26 
64 115 115 64 115 115 64 115 115 64 115 115 64 115 115 64 115 115 64 115 115 64 115 115 64 115 115 64 115 115 64 115 115 64 115 115 64 115 115 64 115 115 64 115 115 64 115 115 64 115 115 64 115 115 64 115 115 64 115 115 64 115 115 64 115 115 64 115 115 64 115 115 64 115 115 64 115 115 64 115 115 64 115 115 64 115 115 64 115 115 64 115 115 64 115 115 64 115 115 64 115 115 64 115 115 170 136 17 169 135 17 165 132 16 158 127 16 151 121 15 142 114 14 133 106 13 122 98 12 110 88 11 97 78 10 82 65 8 61 49 6 128 115 115 128 115 115 128 115 115 128 115 115 128 115 115 128 115 115 128 115 115 128 115 115 128 115 115 128 115 115 128 115 115 128 115 115 9 92 46 10 97 49 10 100 50 10 102 51 10 102 51 10 103 51 10 103 51 10 102 51 10 102 51 10 101 50 10 99 50 10 98 49 10 97 48 9 95 47 9 93 47 9 91 46 9 89 45 9 87 43 8 85 42 8 82 41 8 80 40 8 77 38 7 74 37 7 71 36 7 68 34 7 65 33 6 62 31 6 59 29 6 55 28 5 52 26 5 48 24 4 44 22 4 40 20 4 36 18 3 32 16 3 27 14 3 26 13 3 26 13 3 26 13 3 26 13 3 26 13 3 26 13 3 26 13 3 26 13 3 26 13 3 26 13 3 26 13 3 26 13 3 26 13 3 26 13 128 115 115 128 115 115 128 115 115 128 115 115 128 115 115 128 115 115 128 115 115 128 115 115 128 115 115 128 115 115 128 115 115 128 115 115 128 115 115 128 115 115 128 115 115 128 115 115 128 115 115 128 115 115 128 115 115 128 115 115 128 115 115 128 115 115 128 115 115 128 115 115 128 115 115 128 115 115 128 115 115 128 115 115 14 136 68 16 163 82 18 175 88 18 183 91 19 188 94 19 192 96 19 194 97 20 196 98 20 197 99 23 200 101 29 206 108 42 219 121 60 235 138 76 250 153 83 255 160 78 249 154 64 232 139 47 213 121 33 196 105 24 184 95 20 176 89 18 170 85 17 165 83 16 160 80 16 155 78 15 150 75 14 144 72 14 138 69 13 132 66 12 125 62 12 118 59 11 110 55 10 101 51 9 92 46 8 82 41 7 71 35 6 58 29 4 43 21 3 26 13 3 26 13 128 115 26 128 115 26 128 115 26 128 115 26 128 115 26 128 115 26 128 115 26 128 115 26 128 115 26 128 115 26 128 115 26 128 115 26 128 115 26 128 115 26 128 115 26 128 115 26 128 115 26 128 115 26 128 115 26 128 115 26 128 115 26 128 115 26 128 115 26 
64 115 115 64 115 115 64 115 115 64 115 115 64 115 115 64 115 115 64 115 115 64 115 115 64 115 115 64 115 115 64 115 115 64 115 115 64 115 115 64 115 115 64 115 115 64 115 115 64 115 115 64 115 115 64 115 115 64 115 115 64 115 115 64 115 115 64 115 115 64 115 115 64 115 115 64 115 115 64 115 115 64 115 115 64 115 115 64 115 115 64 115 115 128 115 115 128 115 115 183 147 18 184 147 18 181 145 18 176 141 18 170 136 17 163 131 16 155 124 16 147 117 15 137 110 14 127 102 13 116 93 12 104 83 10 90 72 9 75 60 8 58 46 6 32 25 3 128 115 115 128 115 115 128 115 115 128 115 115 128 115 115 128 115 115 128 115 115 128 115 115 128 115 115 128 115 115 8 77 38 9 87 44 9 92 46 9 94 47 10 96 48 10 97 48 10 97 48 10 97 48 10 96 48 10 95 48 9 94 47 9 93 46 9 92 46 9 90 45 9 88 44 9 86 43 8 84 42 8 82 41 8 80 40 8 77 39 7 75 37 7 72 36 7 69 35 7 66 33 6 63 32 6 60 30 6 57 29 5 54 27 5 50 25 5 47 23 4 43 22 4 39 20 4 35 18 3 31 16 3 27 13 3 26 13 3 26 13 3 26 13 3 26 13 3 26 13 3 26 13 3 26 13 3 26 13 3 26 13 3 26 13 3 26 13 3 26 13 3 26 13 3 26 13 128 115 115 128 115 115 128 115 115 128 115 115 128 115 115 128 115 115 128 115 115 128 115 115 128 115 115 128 115 115 128 115 115 128 115 115 128 115 115 128 115 115 128 115 115 128 115 115 128 115 115 128 115 115 128 115 115 128 115 115 128 115 115 128 115 115 128 115 115 128 115 115 128 115 115 128 115 115 128 115 115 128 115 115 128 115 115 14 139 69 16 162 81 17 173 86 18 180 90 19 185 93 19 189 94 19 191 96 19 193 97 20 194 97 22 196 99 26 201 104 35 209 113 47 220 124 58 230 135 63 233 139 59 227 134 49 215 123 37 200 110 28 188 99 22 179 91 18 172 87 17 167 84 16 162 81 16 158 79 15 153 76 15 147 74 14 142 71 14 136 68 13 129 65 12 123 61 12 115 58 11 108 54 10 99 50 9 90 45 8 80 40 7 69 35 6 57 28 4 42 21 3 26 13 3 26 13 128 115 26 128 115 26 128 115 26 128 115 26 128 115 26 128 115 26 128 115 26 128 115 26 128 115 26 128 115 26 128 115 26 128 115 26 128 115 26 128 115 26 128 115 26 128 115 26 128 115 26 128 115 26 128 115 26 128 115 26 128 115 26 128 115 26 128 115 26 
64 115 115 64 115 115 64 115 115 64 115 115 64 115 115 64 115 115 64 115 115 64 115 115 64 115 115 64 115 115 64 115 115 64 115 115 64 115 115 64 115 115 64 115 115 64 115 115 64 115 115 64 115 115 64 115 115 64 115 115 64 115 115 64 115 115 64 115 115 64 115 115 128 115 115 128 115 115 128 115 115 128 115 115 128 115 115 128 115 115 128 115 115 128 115 115 193 154 19 193 154 19 189 152 19 185 148 18 179 143 18 172 138 17 165 132 16 157 125 16 148 118 15 139 111 14 129 103 13 118 94 12 106 85 11 94 75 9 80 64 8 65 52 6 47 38 5 26 20 3 128 115 115 128 115 115 128 115 115 128 115 115 128 115 115 128 115 115 128 115 115 128 115 115 128 115 115 128 115 115 7 73 37 8 82 41 9 86 43 9 88 44 9 90 45 9 90 45 9 90 45 9 90 45 9 90 45 9 89 44 9 87 44 9 86 43 8 85 42 8 83 41 8 81 41 8 79 40 8 77 38 7 75 37 7 72 36 7 70 35 7 67 34 6 64 32 6 62 31 6 59 29 6 55 28 5 52 26 5 49 24 5 45 23 4 42 21 4 38 19 3 34 17 3 30 15 3 26 13 3 26 13 3 26 13 3 26 13 3 26 13 3 26 13 3 26 13 3 26 13 3 26 13 3 26 13 3 26 13 3 26 13 3 26 13 3 26 13 3 26 13 3 26 13 128 115 115 128 115 115 128 115 115 128 115 115 128 115 115 128 115 115 128 115 115 128 115 115 128 115 115 128 115 115 128 115 115 128 115 115 128 115 115 128 115 115 128 115 115 128 115 115 128 115 115 128 115 115 128 115 115 128 115 115 128 115 115 128 115 115 128 115 115 128 115 115 128 115 115 128 115 115 128 115 115 128 115 115 128 115 115 14 137 69 16 159 79 17 170 85 18 177 89 18 182 91 19 186 93 19 188 94 19 190 95 19 191 96 20 192 97 23 195 99 28 199 104 35 205 110 41 209 116 43 210 117 41 206 114 35 198 107 28 188 99 23 180 93 19 174 88 17 169 85 17 164 82 16 160 80 15 155 77 15 150 75 14 145 72 14 139 70 13 133 67 13 127 63 12 120 60 11 113 56 11 105 53 10 97 48 9 88 44 8 78 39 7 67 33 5 55 27 4 40 20 3 26 13 3 26 13 128 115 26 128 115 26 128 115 26 128 115 26 128 115 26 128 115 26 128 115 26 128 115 26 128 115 26 128 115 26 128 115 26 128 115 26 128 115 26 128 115 26 128 115 26 128 115 26 128 115 26 128 115 26 128 115 26 128 115 26 128 115 26 128 115 26 128 115 26 
64 115 115 64 115 115 64 115 115 64 115 115 64 115 115 64 115 115 64 115 115 64 115 115 64 115 115 64 115 115 64 115 115 64 115 115 64 115 115 64 115 115 64 115 115 64 115 115 64 115 115 128 115 115 128 115 115 128 115 115 128 115 115 128 115 115 128 115 115 128 115 115 128 115 115 128 115 115 128 115 115 128 115 115 128 115 115 128 115 115 189 151 19 198 159 20 198 159 20 195 156 20 191 153 19 186 149 19 180 144 18 173 138 17 165 132 17 157 125 16 148 118 15 139 111 14 129 103 13 118 94 12 107 85 11 95 76 9 82 65 8 67 54 7 51 41 5 33 26 3 26 20 3 128 115 115 128 115 115 128 115 115 128 115 115 128 115 115 128 115 115 128 115 115 128 115 115 128 115 115 128 115 115 7 68 34 8 76 38 8 80 40 8 82 41 8 83 42 8 84 42 8 84 42 8 83 42 8 83 41 8 82 41 8 80 40 8 79 40 8 77 39 8 76 38 7 74 37 7 72 36 7 69 35 7 67 34 6 65 32 6 62 31 6 59 30 6 56 28 5 53 27 5 50 25 5 47 23 4 44 22 4 40 20 4 36 18 3 33 16 3 29 14 3 26 13 3 26 13 3 26 13 3 26 13 3 26 13 3 26 13 3 26 13 3 26 13 3 26 13 3 26 13 3 26 13 3 26 13 3 26 13 3 26 13 3 26 13 3 26 13 128 115 115 128 115 115 128 115 115 128 115 115 128 115 115 128 115 115 128 115 115 128 115 115 128 115 115 128 115 115 128 115 115 128 115 115 128 115 115 128 115 115 128 115 115 128 115 115 128 115 115 128 115 115 128 115 115 128 115 115 128 115 115 128 115 115 128 115 115 128 115 115 128 115 115 128 115 115 128 115 115 128 115 115 128 115 115 128 115 115 13 133 67 16 155 78 17 166 83 17 173 87 18 178 89 18 182 91 18 185 92 19 186 93 19 187 94 19 188 94 20 189 95 23 190 97 25 192 100 28 194 102 29 193 102 28 190 100 25 185 96 22 179 92 19 174 88 18 169 85 17 165 83 16 161 80 16 156 78 15 152 76 15 147 73 14 141 71 14 136 68 13 130 65 12 124 62 12 117 58 11 110 55 10 102 51 9 94 47 8 85 42 7 75 37 6 64 32 5 52 26 4 38 19 3 26 13 3 26 13 128 115 115 128 115 115 128 115 115 128 115 115 128 115 115 128 115 115 128 115 26 128 115 26 128 115 26 128 115 26 128 115 26 128 115 26 128 115 26 128 115 26 128 115 26 128 115 26 128 115 26 128 115 26 128 115 26 128 115 26 128 115 26 128 115 26 128 115 26 
64 115 115 64 115 115 64 115 115 64 115 115 64 115 115 64 115 115 64 115 115 64 115 115 64 115 115 64 115 115 128 115 115 128 115 115 128 115 115 128 115 115 128 115 115 128 115 115 128 115 115 128 115 115 128 115 115 128 115 115 128 115 115 128 115 115 128 115 115 128 115 115 128 115 115 128 115 115 128 115 115 128 115 115 128 115 115 188 151 19 201 161 20 202 161 20 200 160 20 196 157 20 191 153 20 186 149 20 180 144 19 172 138 18 164 131 17 155 124 16 147 117 15 137 110 14 127 102 13 117 94 12 106 85 11 94 75 9 81 65 8 68 54 7 53 42 5 36 29 4 26 20 3 26 20 3 128 115 115 128 115 115 128 115 115 128 115 115 128 115 115 128 115 115 128 115 115 128 115 115 128 115 115 128 115 115 6 61 30 7 69 35 7 73 36 8 75 38 8 76 38 8 77 38 8 77 38 8 76 38 8 75 38 7 74 37 7 73 36 7 72 36 7 70 35 7 68 34 7 66 33 6 64 32 6 61 31 6 59 30 6 56 28 5 54 27 5 51 25 5 48 24 4 45 22 4 41 21 4 38 19 3 35 17 3 31 15 3 27 13 3 26 13 3 26 13 3 26 13 3 26 13 3 26 13 3 26 13 3 26 13 3 26 13 3 26 13 3 26 13 3 26 13 3 26 13 3 26 13 3 26 13 3 26 13 3 26 13 128 115 115 128 115 115 128 115 115 128 115 115 128 115 115 128 115 115 128 115 115 128 115 115 128 115 115 128 115 115 128 115 115 128 115 115 128 115 115 128 115 115 128 115 115 128 115 115 128 115 115 128 115 115 128 115 115 128 115 115 128 115 115 128 115 115 128 115 115 128 115 115 128 115 115 128 115 115 128 115 115 128 115 115 128 115 115 128 115 115 128 115 115 13 127 63 15 150 75 16 161 81 17 169 84 17 174 87 18 178 89 18 180 90 18 182 91 18 183 92 18 184 92 19 184 92 20 184 93 21 184 93 21 184 93 22 182 93 21 180 92 20 176 89 19 172 87 17 169 85 17 165 83 16 161 81 16 157 78 15 153 76 15 148 74 14 143 72 14 138 69 13 132 66 13 126 63 12 120 60 11 113 57 11 106 53 10 99 49 9 90 45 8 81 41 7 72 36 6 61 30 5 49 24 3 35 17 3 26 13 3 26 13 128 115 115 128 115 115 128 115 115 128 115 115 128 115 115 128 115 115 128 115 115 128 115 115 128 115 115 128 115 115 128 115 115 128 115 115 128 115 115 128 115 26 128 115 26 128 115 26 128 115 26 128 115 26 128 115 26 128 115 26 128 115 26 128 115 26 128 115 26 
64 115 115 64 115 115 64 115 115 128 115 115 128 115 115 128 115 115 128 115 115 128 115 115 128 115 115 128 115 115 128 115 115 128 115 115 128 115 115 128 115 115 128 115 115 128 115 115 128 115 115 128 115 115 128 115 115 128 115 115 128 115 115 128 115 115 128 115 115 128 115 115 128 115 115 128 115 115 128 115 115 128 115 115 128 115 115 201 161 20 204 163 20 202 162 20 199 159 20 196 157 21 195 157 24 191 154 26 183 148 24 173 139 20 163 130 17 153 123 16 144 116 14 135 108 14 125 100 13 115 92 11 104 83 10 92 74 9 80 64 8 67 53 7 52 42 5 36 29 4 26 20 3 26 20 3 128 115 115 128 115 115 128 115 115 128 115 115 128 115 115 128 115 115 128 115 115 128 115 115 128 115 115 128 115 115 128 115 115 5 51 25 6 61 31 7 65 33 7 67 34 7 69 34 7 69 34 7 69 34 7 68 34 7 68 34 7 66 33 7 65 33 6 64 32 6 62 31 6 60 30 6 58 29 6 56 28 5 53 27 5 51 25 5 48 24 4 45 22 4 42 21 4 39 19 4 36 18 3 32 16 3 29 14 3 26 13 3 26 13 3 26 13 3 26 13 3 26 13 3 26 13 3 26 13 3 26 13 3 26 13 3 26 13 3 26 13 3 26 13 3 26 13 3 26 13 3 26 13 3 26 13 128 115 115 128 115 115 128 115 115 128 115 115 128 115 115 128 115 115 128 115 115 128 115 115 128 115 115 128 115 115 128 115 115 128 115 115 128 115 115 128 115 115 128 115 115 128 115 115 128 115 115 128 115 115 128 115 115 128 115 115 128 115 115 128 115 115 128 115 115 128 115 115 128 115 115 128 115 115 128 115 115 128 115 115 128 115 115 128 115 115 128 115 115 128 115 115 128 115 115 12 117 58 14 144 72 16 156 78 16 164 82 17 169 85 17 173 87 18 176 88 18 178 89 18 179 89 18 179 90 18 179 90 18 179 90 18 178 89 18 177 89 18 175 88 18 173 87 18 170 85 17 167 84 17 164 82 16 161 80 16 157 78 15 153 76 15 149 74 14 144 72 14 139 70 13 134 67 13 128 64 12 123 61 12 116 58 11 110 55 10 102 51 9 95 47 9 87 43 8 78 39 7 68 34 6 57 29 4 45 22 3 31 15 3 26 13 3 26 13 128 115 115 128 115 115 128 115 115 128 115 115 128 115 115 128 115 115 128 115 115 128 115 115 128 115 115 128 115 115 128 115 115 128 115 115 128 115 115 128 115 115 128 115 115 128 115 115 128 115 115 128 115 115 128 115 115 128 115 115 128 115 26 128 115 26 128 115 26 
128 115 115 128 115 115 128 115 115 128 115 115 128 115 115 128 115 115 128 115 115 128 115 115 128 115 115 128 115 115 128 115 115 128 115 115 128 115 115 128 115 115 128 115 115 128 115 115 128 115 115 128 115 115 128 115 115 128 115 115 128 115 115 128 115 115 128 115 115 128 115 115 128 115 115 128 115 115 128 115 115 128 115 115 198 159 20 204 163 20 203 163 20 201 161 20 200 160 22 204 165 31 210 173 42 208 172 45 193 158 37 175 142 25 161 129 18 151 121 15 141 113 14 132 106 13 122 98 12 112 90 11 101 81 10 90 72 9 77 62 8 64 52 6 51 40 5 35 28 4 26 20 3 26 20 3 26 20 3 128 115 115 128 115 115 128 115 115 128 115 115 128 115 115 128 115 115 128 115 115 128 115 115 128 115 115 128 115 115 128 115 115 128 115 115 5 52 26 6 57 28 6 59 30 6 60 30 6 61 30 6 61 30 6 60 30 6 59 30 6 58 29 6 57 28 6 55 28 5 53 27 5 51 26 5 49 25 5 47 23 4 44 22 4 42 21 4 39 19 4 36 18 3 33 16 3 29 15 3 26 13 3 26 13 3 26 13 3 26 13 3 26 13 3 26 13 3 26 13 3 26 13 3 26 13 3 26 13 3 26 13 3 26 13 3 26 13 3 26 13 3 26 13 3 26 13 3 26 13 128 115 115 128 115 115 128 115 115 128 115 115 128 115 115 128 115 115 128 115 115 128 115 115 128 115 115 128 115 115 128 115 115 128 115 115 128 115 115 128 115 115 128 115 115 128 115 115 128 115 115 128 115 115 128 115 115 128 115 115 128 115 115 128 115 115 128 115 115 128 115 115 128 115 115 128 115 115 128 115 115 128 115 115 128 115 115 128 115 115 128 115 115 128 115 115 128 115 115 128 115 115 128 115 115 14 136 68 15 150 75 16 158 79 16 164 82 17 168 84 17 171 85 17 173 86 17 174 87 17 174 87 17 174 87 17 174 87 17 173 86 17 172 86 17 170 85 17 168 84 17 165 83 16 163 81 16 160 80 16 156 78 15 153 76 15 149 74 14 144 72 14 140 70 13 135 67 13 130 65 12 124 62 12 118 59 11 112 56 11 105 53 10 98 49 9 91 45 8 82 41 7 73 37 6 63 32 5 53 26 4 40 20 3 26 13 3 26 13 3 26 13 128 115 115 128 115 115 128 115 115 128 115 115 128 115 115 128 115 115 128 115 115 128 115 115 128 115 115 128 115 115 128 115 115 128 115 115 128 115 115 128 115 115 128 115 115 128 115 115 128 115 115 128 115 115 128 115 115 128 115 115 128 115 115 128 115 115 128 115 115 
128 115 115 128 115 115 128 115 115 128 115 115 128 115 115 128 115 115 128 115 115 128 115 115 128 115 115 128 115 115 128 115 115 128 115 115 128 115 115 128 115 115 128 115 115 128 115 115 128 115 115 128 115 115 128 115 115 128 115 115 128 115 115 128 115 115 128 115 115 128 115 115 128 115 115 128 115 115 128 115 115 128 115 115 201 161 20 203 162 20 202 161 20 200 160 21 206 167 31 223 185 53 238 201 73 230 194 70 202 168 49 176 143 29 158 127 19 147 118 15 138 110 14 129 103 13 119 95 12 109 87 11 98 78 10 86 69 9 74 59 7 61 49 6 48 38 5 33 26 3 26 20 3 26 20 3 26 20 3 128 115 115 128 115 115 128 115 115 128 115 115 128 115 115 128 115 115 128 115 115 128 115 115 128 115 115 128 115 115 128 115 115 128 115 115 128 115 115 4 41 20 5 47 23 5 50 25 5 51 26 5 52 26 5 52 26 5 51 26 5 51 25 5 49 25 5 48 24 5 46 23 4 44 22 4 42 21 4 40 20 4 37 19 3 35 17 3 32 16 3 29 14 3 26 13 3 26 13 3 26 13 3 26 13 3 26 13 3 26 13 3 26 13 3 26 13 3 26 13 3 26 13 3 26 13 3 26 13 3 26 13 3 26 13 3 26 13 3 26 13 3 26 13 3 26 13 128 115 115 128 115 115 128 115 115 128 115 115 128 115 115 128 115 115 128 115 115 128 115 115 128 115 115 128 115 115 128 115 115 128 115 115 128 115 115 128 115 115 128 115 115 128 115 115 128 115 115 128 115 115 128 115 115 128 115 115 128 115 115 128 115 115 128 115 115 128 115 115 128 115 115 128 115 115 128 115 115 128 115 115 128 115 115 128 115 115 128 115 115 128 115 115 128 115 115 128 115 115 128 115 115 128 115 115 13 127 64 14 142 71 15 151 76 16 157 79 16 162 81 16 165 82 17 167 83 17 168 84 17 169 84 17 169 85 17 169 84 17 168 84 17 166 83 17 165 82 16 163 81 16 160 80 16 158 79 15 155 77 15 151 76 15 148 74 14 144 72 14 140 70 14 135 68 13 130 65 13 125 63 12 120 60 11 114 57 11 107 54 10 101 50 9 94 47 9 86 43 8 77 39 7 68 34 6 59 29 5 48 24 4 35 18 3 26 13 3 26 13 3 26 13 128 115 115 128 115 115 128 115 115 128 115 115 128 115 115 128 115 115 128 115 115 128 115 115 128 115 115 128 115 115 128 115 115 128 115 115 128 115 115 128 115 115 128 115 115 128 115 115 128 115 115 128 115 115 128 115 115 128 115 115 128 115 115 128 115 115 128 115 115 
128 115 115 128 115 115 128 115 115 128 115 115 128 115 115 128 115 115 128 115 115 128 115 115 128 115 115 128 115 115 128 115 115 128 115 115 128 115 115 128 115 115 128 115 115 128 115 115 128 115 115 128 115 115 128 115 115 128 115 115 128 115 115 128 115 115 128 115 115 128 115 115 128 115 115 128 115 115 128 115 115 194 155 19 200 160 20 201 161 20 199 159 20 200 161 24 215 177 43 242 205 75 255 219 94 236 202 80 200 167 51 171 139 28 154 124 18 143 114 15 134 107 13 124 100 12 115 92 11 104 84 10 94 75 9 82 66 8 70 56 7 58 46 6 44 35 4 30 24 3 26 20 3 26 20 3 26 20 3 26 20 3 128 115 115 128 115 115 128 115 115 128 115 115 128 115 115 128 115 115 128 115 115 128 115 115 128 115 115 128 115 115 128 115 115 128 115 115 128 115 115 128 115 115 4 35 18 4 39 20 4 41 21 4 42 21 4 42 21 4 42 21 4 41 20 4 40 20 4 38 19 4 37 18 3 35 17 3 32 16 3 30 15 3 27 14 3 26 13 3 26 13 3 26 13 3 26 13 3 26 13 3 26 13 3 26 13 3 26 13 3 26 13 3 26 13 3 26 13 3 26 13 3 26 13 3 26 13 3 26 13 3 26 13 3 26 13 3 26 13 128 115 115 128 115 115 128 115 115 128 115 115 128 115 115 128 115 115 128 115 115 128 115 115 128 115 115 128 115 115 128 115 115 128 115 115 128 115 115 128 115 115 128 115 115 128 115 115 128 115 115 128 115 115 128 115 115 128 115 115 128 115 115 128 115 115 128 115 115 128 115 115 128 115 115 128 115 115 128 115 115 128 115 115 128 115 115 128 115 115 128 115 115 128 115 115 128 115 115 128 115 115 128 115 115 128 115 115 128 115 115 128 115 115 11 115 57 13 133 67 14 144 72 15 150 75 16 155 78 16 159 79 16 161 80 16 162 81 16 163 82 16 163 82 16 163 82 16 162 81 16 161 81 16 159 80 16 158 79 16 155 78 15 153 76 15 150 75 15 146 73 14 143 71 14 139 69 13 135 67 13 130 65 13 125 63 12 120 60 11 115 57 11 109 54 10 102 51 10 96 48 9 88 44 8 81 40 7 72 36 6 63 32 5 53 27 4 42 21 3 29 15 3 26 13 3 26 13 3 26 13 128 115 115 128 115 115 128 115 115 128 115 115 128 115 115 128 115 115 128 115 115 128 115 115 128 115 115 128 115 115 128 115 115 128 115 115 128 115 115 128 115 115 128 115 115 128 115 115 128 115 115 128 115 115 128 115 115 128 115 115 128 115 115 128 115 115 128 115 115 
128 115 115 128 115 115 128 115 115 128 115 115 128 115 115 128 115 115 128 115 115 128 115 115 128 115 115 128 115 115 128 115 115 128 115 115 128 115 115 128 115 115 128 115 115 128 115 115 128 115 115 128 115 115 128 115 115 128 115 115 128 115 115 128 115 115 128 115 115 128 115 115 128 115 115 128 115 115 128 115 115 194 155 19 198 158 20 197 158 20 196 157 20 199 161 27 216 179 48 240 204 77 244 208 86 219 185 67 186 154 41 162 131 23 148 119 16 138 111 14 129 103 13 120 96 12 110 88 11 100 80 10 89 71 9 78 62 8 66 53 7 53 43 5 40 32 4 26 20 3 26 20 3 26 20 3 26 20 3 26 20 3 128 115 115 128 115 115 128 115 115 128 115 115 128 115 115 128 115 115 128 115 115 128 115 115 128 115 115 128 115 115 128 115 115 128 115 115 128 115 115 128 115 115 128 115 115 3 26 13 3 26 13 3 29 15 3 31 15 3 31 16 3 31 16 3 30 15 3 29 15 3 28 14 3 26 13 3 26 13 3 26 13 3 26 13 3 26 13 3 26 13 3 26 13 3 26 13 3 26 13 3 26 13 3 26 13 3 26 13 3 26 13 3 26 13 3 26 13 3 26 13 3 26 13 3 26 13 3 26 13 3 26 13 128 115 115 128 115 115 128 115 115 128 115 115 128 115 115 128 115 115 128 115 115 128 115 115 128 115 115 128 115 115 128 115 115 128 115 115 128 115 115 128 115 115 128 115 115 128 115 115 128 115 115 128 115 115 128 115 115 128 115 115 128 115 115 128 115 115 128 115 115 128 115 115 128 115 115 128 115 115 128 115 115 128 115 115 128 115 115 128 115 115 128 115 115 128 115 115 128 115 115 128 115 115 128 115 115 128 115 115 128 115 115 128 115 115 128 115 115 128 115 115 9 95 47 12 123 61 13 135 67 14 143 71 15 148 74 15 152 76 15 154 77 16 156 78 16 157 78 16 157 79 16 157 79 16 156 78 16 155 78 15 154 77 15 152 76 15 150 75 15 147 74 14 144 72 14 141 70 14 137 69 13 133 67 13 129 65 12 125 62 12 120 60 11 115 57 11 109 55 10 103 52 10 97 48 9 90 45 8 83 41 7 75 37 7 66 33 6 57 29 5 47 23 4 36 18 3 26 13 3 26 13 3 26 13 128 115 115 128 115 115 128 115 115 128 115 115 128 115 115 128 115 115 128 115 115 128 115 115 128 115 115 128 115 115 128 115 115 128 115 115 128 115 115 128 115 115 128 115 115 128 115 115 128 115 115 128 115 115 128 115 115 128 115 115 128 115 115 128 115 115 128 115 115 128 115 115 
128 115 115 128 115 115 128 115 115 128 115 115 128 115 115 128 115 115 128 115 115 128 115 115 128 115 115 128 115 115 128 115 115 128 115 115 128 115 115 128 115 115 128 115 115 128 115 115 128 115 115 128 115 115 128 115 115 128 115 115 128 115 115 128 115 115 128 115 115 128 115 115 128 115 115 128 115 115 128 115 115 192 153 19 194 155 19 193 155 19 191 153 20 194 156 26 205 169 41 217 181 58 212 178 59 191 159 44 169 137 28 153 123 18 142 114 15 133 106 13 124 99 12 115 92 11 105 84 10 95 76 9 84 67 8 73 58 7 61 49 6 48 39 5 35 28 3 26 20 3 26 20 3 26 20 3 26 20 3 26 20 3 128 115 115 128 115 115 128 115 115 128 115 115 128 115 115 128 115 115 128 115 115 128 115 115 128 115 115 128 115 115 128 115 115 128 115 115 128 115 115 128 115 115 128 115 115 128 115 115 128 115 115 128 115 115 3 26 13 3 26 13 3 26 13 3 26 13 3 26 13 3 26 13 3 26 13 3 26 13 3 26 13 3 26 13 3 26 13 3 26 13 3 26 13 3 26 13 3 26 13 3 26 13 3 26 13 3 26 13 3 26 13 3 26 13 3 26 13 3 26 13 3 26 13 3 26 13 128 115 115 128 115 115 128 115 115 128 115 115 128 115 115 128 115 115 128 115 115 128 115 115 128 115 115 128 115 115 128 115 115 128 115 115 128 115 115 128 115 115 128 115 115 128 115 115 128 115 115 128 115 115 128 115 115 128 115 115 128 115 115 128 115 115 128 115 115 128 115 115 128 115 115 128 115 115 128 115 115 128 115 115 128 115 115 128 115 115 128 115 115 128 115 115 128 115 115 128 115 115 128 115 115 128 115 115 128 115 115 128 115 115 128 115 115 128 115 115 128 115 115 128 115 115 128 115 115 11 110 55 12 125 62 13 134 67 14 140 70 14 144 72 15 147 73 15 149 74 15 150 75 15 151 75 15 151 75 15 150 75 15 149 75 15 148 74 15 146 73 14 144 72 14 141 71 14 138 69 13 135 67 13 131 66 13 128 64 12 123 62 12 119 59 11 114 57 11 109 54 10 103 52 10 97 49 9 91 45 8 84 42 8 77 38 7 69 34 6 60 30 5 51 25 4 40 20 3 28 14 3 26 13 3 26 13 3 26 13 128 115 115 128 115 115 128 115 115 128 115 115 128 115 115 128 115 115 128 115 115 128 115 115 128 115 115 128 115 115 128 115 115 128 115 115 128 115 115 128 115 115 128 115 115 128 115 115 128 115 115 128 115 115 128 115 115 128 115 115 128 115 115 128 115 115 128 115 115 128 115 115 
128 115 115 128 115 115 128 115 115 128 115 115 128 115 115 128 115 115 128 115 115 128 115 115 128 115 115 128 115 115 128 115 115 128 115 115 128 115 115 128 115 115 128 115 115 128 115 115 128 115 115 128 115 115 128 115 115 128 115 115 128 115 115 128 115 115 128 115 115 128 115 115 128 115 115 128 115 115 176 141 18 188 150 19 189 151 19 188 151 19 186 149 19 185 149 22 188 153 29 190 155 36 182 149 34 169 137 26 155 125 19 145 116 15 136 109 14 127 102 13 118 95 12 109 87 11 99 79 10 89 71 9 78 63 8 67 54 7 55 44 6 43 34 4 29 23 3 26 20 3 26 20 3 26 20 3 26 20 3 26 20 3 128 115 115 128 115 115 128 115 115 128 115 115 128 115 115 128 115 115 128 115 115 128 115 115 128 115 115 128 115 115 128 115 115 128 115 115 128 115 115 128 115 115 128 115 115 128 115 115 128 115 115 128 115 115 128 115 115 128 115 115 128 115 115 3 26 13 3 26 13 3 26 13 3 26 13 3 26 13 3 26 13 3 26 13 3 26 13 3 26 13 3 26 13 3 26 13 3 26 13 3 26 13 3 26 13 3 26 13 3 26 13 3 26 13 3 26 13 128 115 115 128 115 115 128 115 115 128 115 115 128 115 115 128 115 115 128 115 115 128 115 115 128 115 115 128 115 115 128 115 115 128 115 115 128 115 115 128 115 115 128 115 115 128 115 115 128 115 115 128 115 115 128 115 115 128 115 115 128 115 115 128 115 115 128 115 115 128 115 115 128 115 115 128 115 115 128 115 115 128 115 115 128 115 115 128 115 115 128 115 115 128 115 115 128 115 115 128 115 115 128 115 115 128 115 115 128 115 115 128 115 115 128 115 115 128 115 115 128 115 115 128 115 115 128 115 115 128 115 115 128 115 115 128 115 115 9 89 45 11 112 56 12 123 62 13 131 65 14 135 68 14 139 69 14 141 71 14 143 71 14 143 72 14 144 72 14 143 72 14 142 71 14 141 70 14 139 70 14 137 69 13 135 67 13 132 66 13 129 64 13 125 63 12 121 61 12 117 59 11 113 56 11 108 54 10 103 51 10 97 48 9 91 45 8 84 42 8 78 39 7 70 35 6 62 31 5 53 27 4 43 22 3 33 16 3 26 13 3 26 13 3 26 13 3 26 13 128 115 115 128 115 115 128 115 115 128 115 115 128 115 115 128 115 115 128 115 115 128 115 115 128 115 115 128 115 115 128 115 115 128 115 115 128 115 115 128 115 115 128 115 115 128 115 115 128 115 115 128 115 115 128 115 115 128 115 115 128 115 115 128 115 115 128 115 115 128 115 115 
128 115 115 128 115 115 128 115 115 128 115 115 128 115 115 128 115 115 128 115 115 128 115 115 128 115 115 128 115 115 128 115 115 128 115 115 128 115 115 128 115 115 128 115 115 128 115 115 128 115 115 128 115 115 128 115 115 128 115 115 128 115 115 128 115 115 128 115 115 128 115 115 128 115 115 128 115 115 173 138 17 182 146 18 184 147 18 182 146 18 180 144 18 177 142 19 175 140 21 171 138 22 164 132 21 155 124 18 146 117 15 138 110 14 130 104 13 121 97 12 112 90 11 103 82 10 93 75 9 83 66 8 72 58 7 61 49 6 49 39 5 37 29 4 26 20 3 26 20 3 26 20 3 26 20 3 26 20 3 26 20 3 128 115 115 128 115 115 128 115 115 128 115 115 128 115 115 128 115 115 128 115 115 128 115 115 128 115 115 128 115 115 128 115 115 128 115 115 128 115 115 128 115 115 128 115 115 128 115 115 128 115 115 128 115 115 128 115 115 128 115 115 128 115 115 128 115 115 128 115 115 128 115 115 128 115 115 3 26 13 3 26 13 3 26 13 3 26 13 3 26 13 3 26 13 3 26 13 3 26 13 3 26 13 3 26 13 128 115 115 128 115 115 128 115 115 128 115 115 128 115 115 128 115 115 128 115 115 128 115 115 128 115 115 128 115 115 128 115 115 128 115 115 128 115 115 128 115 115 128 115 115 128 115 115 128 115 115 128 115 115 128 115 115 128 115 115 128 115 115 128 115 115 128 115 115 128 115 115 128 115 115 128 115 115 128 115 115 128 115 115 128 115 115 128 115 115 128 115 115 128 115 115 128 115 115 128 115 115 128 115 115 128 115 115 128 115 115 128 115 115 128 115 115 128 115 115 128 115 115 128 115 115 128 115 115 128 115 115 128 115 115 128 115 115 128 115 115 128 115 115 128 115 115 128 115 115 128 115 115 10 96 48 11 111 56 12 120 60 13 126 63 13 130 65 13 133 66 13 135 67 14 136 68 14 136 68 14 136 68 13 135 67 13 134 67 13 132 66 13 130 65 13 128 64 12 125 62 12 122 61 12 118 59 11 115 57 11 110 55 11 106 53 10 101 51 10 96 48 9 90 45 8 84 42 8 77 39 7 70 35 6 63 31 5 54 27 5 45 23 4 35 18 3 26 13 3 26 13 3 26 13 3 26 13 128 115 115 128 115 115 128 115 115 128 115 115 128 115 115 128 115 115 128 115 115 128 115 115 128 115 115 128 115 115 128 115 115 128 115 115 128 115 115 128 115 115 128 115 115 128 115 115 128 115 115 128 115 115 128 115 115 128 115 115 128 115 115 128 115 115 128 115 115 128 115 115 128 115 115 
128 115 115 128 115 115 128 115 115 128 115 115 128 115 115 128 115 115 128 115 115 128 115 115 128 115 115 128 115 115 128 115 115 128 115 115 128 115 115 128 115 115 128 115 115 128 115 115 128 115 115 128 115 115 128 115 115 128 115 115 128 115 115 128 115 115 128 115 115 128 115 115 128 115 115 128 115 115 166 133 17 176 141 18 177 142 18 176 141 18 173 138 17 169 136 17 165 132 17 160 128 17 153 123 16 146 117 15 139 111 14 131 105 13 123 99 12 115 92 11 106 85 11 97 77 10 87 69 9 77 61 8 66 53 7 54 44 5 42 34 4 30 24 3 26 20 3 26 20 3 26 20 3 26 20 3 26 20 3 26 20 3 128 115 115 128 115 115 128 115 115 128 115 115 128 115 115 128 115 115 128 115 115 128 115 115 128 115 115 128 115 115 128 115 115 128 115 115 128 115 115 128 115 115 128 115 115 128 115 115 128 115 115 128 115 115 128 115 115 128 115 115 128 115 115 128 115 115 128 115 115 128 115 115 128 115 115 128 115 115 128 115 115 128 115 115 128 115 115 128 115 115 128 115 115 128 115 115 128 115 115 128 115 115 128 115 115 128 115 115 128 115 115 128 115 115 128 115 115 128 115 115 128 115 115 128 115 115 128 115 115 128 115 115 128 115 115 128 115 115 128 115 115 128 115 115 128 115 115 128 115 115 128 115 115 128 115 115 128 115 115 128 115 115 128 115 115 128 115 115 128 115 115 128 115 115 128 115 115 128 115 115 128 115 115 128 115 115 128 115 115 128 115 115 128 115 115 128 115 115 128 115 115 128 115 115 128 115 115 128 115 115 128 115 115 128 115 115 128 115 115 128 115 115 128 115 115 128 115 115 128 115 115 128 115 115 128 115 115 128 115 115 128 115 115 128 115 115 128 115 115 128 115 115 128 115 115 128 115 115 128 115 115 10 96 48 11 108 54 11 115 57 12 120 60 12 123 62 13 126 63 13 127 64 13 128 64 13 128 64 13 127 64 13 126 63 12 125 62 12 123 61 12 120 60 12 118 59 11 115 57 11 111 56 11 107 54 10 103 52 10 99 49 9 94 47 9 88 44 8 83 41 8 77 38 7 70 35 6 63 31 5 55 27 5 46 23 4 37 18 3 26 13 3 26 13 3 26 13 3 26 13 3 26 13 128 115 115 128 115 115 128 115 115 128 115 115 128 115 115 128 115 115 128 115 115 128 115 115 128 115 115 128 115 115 128 115 115 128 115 115 128 115 115 128 115 115 128 115 115 128 115 115 128 115 115 128 115 115 128 115 115 128 115 115 128 115 115 128 115 115 128 115 115 128 115 115 128 115 115 
128 115 115 128 115 115 128 115 115 128 115 115 128 115 115 128 115 115 128 115 115 128 115 115 128 115 115 128 115 115 128 115 115 128 115 115 128 115 115 128 115 115 128 115 115 128 115 115 128 115 115 128 115 115 128 115 115 128 115 115 128 115 115 128 115 115 128 115 115 128 115 115 128 115 115 128 115 115 157 126 16 168 135 17 170 136 17 169 135 17 166 133 17 162 130 16 157 126 16 152 122 15 146 117 15 139 111 14 132 106 13 124 99 12 116 93 12 108 86 11 99 79 10 90 72 9 80 64 8 69 56 7 59 47 6 47 38 5 35 28 4 26 20 3 26 20 3 26 20 3 26 20 3 26 20 3 26 20 3 26 20 3 128 115 115 128 115 115 128 115 115 128 115 115 128 115 115 128 115 115 128 115 115 128 115 115 128 115 115 128 115 115 128 115 115 128 115 115 128 115 115 128 115 115 128 115 115 128 115 115 128 115 115 128 115 115 128 115 115 128 115 115 128 115 115 128 115 115 128 115 115 128 115 115 128 115 115 128 115 115 128 115 115 128 115 115 128 115 115 128 115 115 128 115 115 128 115 115 128 115 115 128 115 115 128 115 115 128 115 115 128 115 115 128 115 115 128 115 115 128 115 115 128 115 115 128 115 115 128 115 115 128 115 115 128 115 115 128 115 115 128 115 115 128 115 115 128 115 115 128 115 115 128 115 115 128 115 115 128 115 115 128 115 115 128 115 115 128 115 115 128 115 115 128 115 115 128 115 115 128 115 115 128 115 115 128 115 115 128 115 115 128 115 115 128 115 115 128 115 115 128 115 115 128 115 115 128 115 115 128 115 115 128 115 115 128 115 115 128 115 115 128 115 115 128 115 115 128 115 115 128 115 115 128 115 115 128 115 115 128 115 115 128 115 115 128 115 115 128 115 115 128 115 115 128 115 115 128 115 115 128 115 115 7 73 36 9 92 46 10 102 51 11 109 54 11 113 56 12 116 58 12 118 59 12 119 59 12 119 59 12 118 59 12 118 59 12 116 58 11 114 57 11 112 56 11 110 55 11 107 53 10 103 52 10 99 50 10 95 48 9 91 45 9 86 43 8 80 40 7 75 37 7 68 34 6 62 31 5 54 27 5 46 23 4 37 19 3 27 14 3 26 13 3 26 13 3 26 13 3 26 13 128 115 115 128 115 115 128 115 115 128 115 115 128 115 115 128 115 115 128 115 115 128 115 115 128 115 115 128 115 115 128 115 115 128 115 115 128 115 115 128 115 115 128 115 115 128 115 115 128 115 115 128 115 115 128 115 115 128 115 115 128 115 115 128 115 115 128 115 115 128 115 115 128 115 115 128 115 115 
128 115 115 128 115 115 128 115 115 128 115 115 128 115 115 128 115 115 128 115 115 128 115 115 128 115 115 128 115 115 128 115 115 128 115 115 128 115 115 128 115 115 128 115 115 128 115 115 128 115 115 128 115 115 128 115 115 128 115 115 128 115 115 128 115 115 128 115 115 128 115 115 128 115 115 128 115 115 128 115 115 160 128 16 162 129 16 161 129 16 158 127 16 154 124 15 150 120 15 144 115 14 138 111 14 132 105 13 125 100 12 117 94 12 109 87 11 100 80 10 92 73 9 82 66 8 72 58 7 62 50 6 51 41 5 40 32 4 27 22 3 26 20 3 26 20 3 26 20 3 26 20 3 26 20 3 26 20 3 128 115 115 128 115 115 128 115 115 128 115 115 128 115 115 128 115 115 128 115 115 128 115 115 128 115 115 128 115 115 128 115 115 128 115 115 128 115 115 128 115 115 128 115 115 128 115 115 128 115 115 128 115 115 128 115 115 128 115 115 128 115 115 128 115 115 128 115 115 128 115 115 128 115 115 128 115 115 128 115 115 128 115 115 128 115 115 128 115 115 128 115 115 128 115 115 128 115 115 128 115 115 128 115 115 128 115 115 128 115 115 128 115 115 128 115 115 128 115 115 128 115 115 128 115 115 128 115 115 128 115 115 128 115 115 128 115 115 128 115 115 128 115 115 128 115 115 128 115 115 128 115 115 128 115 115 128 115 115 128 115 115 128 115 115 128 115 115 128 115 115 128 115 115 128 115 115 128 115 115 128 115 115 128 115 115 128 115 115 128 115 115 128 115 115 128 115 115 128 115 115 128 115 115 128 115 115 128 115 115 128 115 115 128 115 115 128 115 115 128 115 115 128 115 115 128 115 115 128 115 115 128 115 115 128 115 115 128 115 115 128 115 115 128 115 115 128 115 115 128 115 115 128 115 115 128 115 115 128 115 115 128 115 115 128 115 115 7 70 35 9 86 43 10 95 48 10 101 50 10 104 52 11 107 53 11 108 54 11 109 55 11 109 55 11 108 54 11 107 54 11 106 53 10 103 52 10 101 50 10 98 49 9 95 47 9 91 45 9 87 43 8 82 41 8 77 39 7 72 36 7 66 33 6 59 30 5 52 26 4 45 22 4 36 18 3 27 13 3 26 13 3 26 13 3 26 13 3 26 13 128 115 115 128 115 115 128 115 115 128 115 115 128 115 115 128 115 115 128 115 115 128 115 115 128 115 115 128 115 115 128 115 115 128 115 115 128 115 115 128 115 115 128 115 115 128 115 115 128 115 115 128 115 115 128 115 115 128 115 115 128 115 115 128 115 115 128 115 115 128 115 115 128 115 115 128 115 115 128 115 115 
128 115 115 128 115 115 128 115 115 128 115 115 128 115 115 128 115 115 128 115 115 128 115 115 128 115 115 128 115 115 128 115 115 128 115 115 128 115 115 128 115 115 128 115 115 128 115 115 128 115 115 128 115 115 128 115 115 128 115 115 128 115 115 128 115 115 128 115 115 128 115 115 128 115 115 128 115 115 128 115 115 149 119 15 153 122 15 152 122 15 150 120 15 146 117 15 142 113 14 136 109 14 130 104 13 124 99 12 117 93 12 109 87 11 101 81 10 93 74 9 84 67 8 74 59 7 64 51 6 54 43 5 43 34 4 31 25 3 26 20 3 26 20 3 26 20 3 26 20 3 26 20 3 26 20 3 26 20 3 128 115 115 128 115 115 128 115 115 128 115 115 128 115 115 128 115 115 128 115 115 128 115 115 128 115 115 128 115 115 128 115 115 128 115 115 128 115 115 128 115 115 128 115 115 128 115 115 128 115 115 128 115 115 128 115 115 128 115 115 128 115 115 128 115 115 128 115 115 128 115 115 128 115 115 128 115 115 128 115 115 128 115 115 128 115 115 128 115 115 128 115 115 128 115 115 128 115 115 128 115 115 128 115 115 128 115 115 128 115 115 128 115 115 128 115 115 128 115 115 128 115 115 128 115 115 128 115 115 128 115 115 128 115 115 128 115 115 128 115 115 128 115 115 128 115 115 128 115 115 128 115 115 128 115 115 128 115 115 128 115 115 128 115 115 128 115 115 128 115 115 128 115 115 128 115 115 128 115 115 128 115 115 128 115 115 128 115 115 128 115 115 128 115 115 128 115 115 128 115 115 128 115 115 128 115 115 128 115 115 128 115 115 128 115 115 128 115 115 128 115 115 128 115 115 128 115 115 128 115 115 128 115 115 128 115 115 128 115 115 128 115 115 128 115 115 128 115 115 128 115 115 128 115 115 128 115 115 128 115 115 128 115 115 128 115 115 128 115 115 6 63 32 8 78 39 9 86 43 9 91 46 9 95 47 10 97 49 10 98 49 10 99 49 10 98 49 10 97 49 10 96 48 9 94 47 9 91 46 9 89 44 9 85 43 8 82 41 8 77 39 7 73 36 7 68 34 6 62 31 6 56 28 5 49 25 4 42 21 3 34 17 3 26 13 3 26 13 3 26 13 3 26 13 3 26 13 128 115 115 128 115 115 128 115 115 128 115 115 128 115 115 128 115 115 128 115 115 128 115 115 128 115 115 128 115 115 128 115 115 128 115 115 128 115 115 128 115 115 128 115 115 128 115 115 128 115 115 128 115 115 128 115 115 128 115 115 128 115 115 128 115 115 128 115 115 128 115 115 128 115 115 128 115 115 128 115 115 128 115 115 
128 115 115 128 115 115 128 115 115 128 115 115 128 115 115 128 115 115 128 115 115 128 115 115 128 115 115 128 115 115 128 115 115 128 115 115 128 115 115 128 115 115 128 115 115 128 115 115 128 115 115 128 115 115 128 115 115 128 115 115 128 115 115 128 115 115 128 115 115 128 115 115 128 115 115 128 115 115 128 115 115 136 109 14 142 114 14 143 114 14 141 113 14 137 110 14 133 106 13 128 102 13 122 97 12 115 92 12 108 87 11 101 80 10 93 74 9 84 67 8 75 60 8 66 52 7 56 45 6 45 36 5 34 27 3 26 20 3 26 20 3 26 20 3 26 20 3 26 20 3 26 20 3 26 20 3 26 20 3 128 115 115 128 115 115 128 115 115 128 115 115 128 115 115 128 115 115 128 115 115 128 115 115 128 115 115 128 115 115 128 115 115 128 115 115 128 115 115 128 115 115 128 115 115 128 115 115 128 115 115 128 115 115 128 115 115 128 115 115 128 115 115 128 115 115 128 115 115 128 115 115 128 115 115 128 115 115 128 115 115 128 115 115 128 115 115 128 115 115 128 115 115 128 115 115 128 115 115 128 115 115 128 115 115 128 115 115 128 115 115 128 115 115 128 115 115 128 115 115 128 115 115 128 115 115 128 115 115 128 115 115 128 115 115 128 115 115 128 115 115 128 115 115 128 115 115 128 115 115 128 115 115 128 115 115 128 115 115 128 115 115 128 115 115 128 115 115 128 115 115 128 115 115 128 115 115 128 115 115 128 115 115 128 115 115 128 115 115 128 115 115 128 115 115 128 115 115 128 115 115 128 115 115 128 115 115 128 115 115 128 115 115 128 115 115 128 115 115 128 115 115 128 115 115 128 115 115 128 115 115 128 115 115 128 115 115 128 115 115 128 115 115 128 115 115 128 115 115 128 115 115 128 115 115 128 115 115 128 115 115 128 115 115 128 115 115 128 115 115 128 115 115 5 52 26 7 68 34 8 76 38 8 81 40 8 84 42 9 86 43 9 87 43 9 87 43 9 86 43 8 85 42 8 83 42 8 81 40 8 78 39 7 75 37 7 71 36 7 67 33 6 62 31 6 57 29 5 51 26 5 45 23 4 38 19 3 31 15 3 26 13 3 26 13 3 26 13 3 26 13 3 26 13 128 115 115 128 115 115 128 115 115 128 115 115 128 115 115 128 115 115 128 115 115 128 115 115 128 115 115 128 115 115 128 115 115 128 115 115 128 115 115 128 115 115 128 115 115 128 115 115 128 115 115 128 115 115 128 115 115 128 115 115 128 115 115 128 115 115 128 115 115 128 115 115 128 115 115 128 115 115 128 115 115 128 115 115 128 115 115 
128 115 115 128 115 115 128 115 115 128 115 115 128 115 115 128 115 115 128 115 115 128 115 115 128 115 115 128 115 115 128 115 115 128 115 115 128 115 115 128 115 115 128 115 115 128 115 115 128 115 115 128 115 115 128 115 115 128 115 115 128 115 115 128 115 115 128 115 115 128 115 115 128 115 115 128 115 115 128 115 115 128 115 115 130 104 13 132 105 13 130 104 13 127 102 13 123 99 12 118 95 12 112 90 11 106 85 11 99 79 10 92 73 9 84 67 8 75 60 7 66 53 7 56 45 6 46 37 5 36 29 4 26 20 3 26 20 3 26 20 3 26 20 3 26 20 3 26 20 3 26 20 3 26 20 3 128 115 115 128 115 115 128 115 115 128 115 115 128 115 115 128 115 115 128 115 115 128 115 115 128 115 115 128 115 115 128 115 115 128 115 115 128 115 115 128 115 115 128 115 115 128 115 115 128 115 115 128 115 115 128 115 115 128 115 115 128 115 115 128 115 115 128 115 115 128 115 115 128 115 115 128 115 115 128 115 115 128 115 115 128 115 115 128 115 115 128 115 115 128 115 115 128 115 115 128 115 115 128 115 115 128 115 115 128 115 115 128 115 115 128 115 115 128 115 115 128 115 115 128 115 115 128 115 115 128 115 115 128 115 115 128 115 115 128 115 115 128 115 115 128 115 115 128 115 115 128 115 115 128 115 115 128 115 115 128 115 115 128 115 115 128 115 115 128 115 115 128 115 115 128 115 115 128 115 115 128 115 115 128 115 115 128 115 115 128 115 115 128 115 115 128 115 115 128 115 115 128 115 115 128 115 115 128 115 115 128 115 115 128 115 115 128 115 115 128 115 115 128 115 115 128 115 115 128 115 115 128 115 115 128 115 115 128 115 115 128 115 115 128 115 115 128 115 115 128 115 115 128 115 115 128 115 115 128 115 115 128 115 115 128 115 115 128 115 115 128 115 115 128 115 115 128 115 115 3 35 17 5 55 27 6 63 32 7 68 34 7 71 36 7 73 37 7 74 37 7 74 37 7 73 36 7 71 36 7 69 35 7 67 33 6 63 32 6 60 30 6 55 28 5 51 25 5 45 23 4 39 20 3 33 16 3 26 13 3 26 13 3 26 13 3 26 13 3 26 13 3 26 13 128 115 115 128 115 115 128 115 115 128 115 115 128 115 115 128 115 115 128 115 115 128 115 115 128 115 115 128 115 115 128 115 115 128 115 115 128 115 115 128 115 115 128 115 115 128 115 115 128 115 115 128 115 115 128 115 115 128 115 115 128 115 115 128 115 115 128 115 115 128 115 115 128 115 115 128 115 115 128 115 115 128 115 115 128 115 115 128 115 115 
128 115 115 128 115 115 128 115 115 128 115 115 128 115 115 128 115 115 128 115 115 128 115 115 128 115 115 128 115 115 128 115 115 128 115 115 128 115 115 128 115 115 128 115 115 128 115 115 128 115 115 128 115 115 128 115 115 128 115 115 128 115 115 128 115 115 128 115 115 128 115 115 128 115 115 128 115 115 128 115 115 128 115 115 113 90 11 119 95 12 119 95 12 117 93 12 113 90 11 108 86 11 102 82 10 96 77 10 89 71 9 82 65 8 74 59 7 65 52 7 56 45 6 47 37 5 36 29 4 26 20 3 26 20 3 26 20 3 26 20 3 26 20 3 26 20 3 26 20 3 26 20 3 128 115 115 128 115 115 128 115 115 128 115 115 128 115 115 128 115 115 128 115 115 128 115 115 128 115 115 128 115 115 128 115 115 128 115 115 128 115 115 128 115 115 128 115 115 128 115 115 128 115 115 128 115 115 128 115 115 128 115 115 128 115 115 128 115 115 128 115 115 128 115 115 128 115 115 128 115 115 128 115 115 128 115 115 128 115 115 128 115 115 128 115 115 128 115 115 128 115 115 128 115 115 128 115 115 128 115 115 128 115 115 128 115 115 128 115 115 128 115 115 128 115 115 128 115 115 128 115 115 128 115 115 128 115 115 128 115 115 128 115 115 128 115 115 128 115 115 128 115 115 128 115 115 128 115 115 128 115 115 128 115 115 128 115 115 128 115 115 128 115 115 128 115 115 128 115 115 128 115 115 128 115 115 128 115 115 128 115 115 128 115 115 128 115 115 128 115 115 128 115 115 128 115 115 128 115 115 128 115 115 128 115 115 128 115 115 128 115 115 128 115 115 128 115 115 128 115 115 128 115 115 128 115 115 128 115 115 128 115 115 128 115 115 128 115 115 128 115 115 128 115 115 128 115 115 128 115 115 128 115 115 128 115 115 128 115 115 128 115 115 128 115 115 128 115 115 128 115 115 128 115 115 128 115 115 128 115 115 4 37 18 5 47 24 5 53 27 6 57 28 6 58 29 6 59 29 6 59 29 6 57 29 6 56 28 5 53 27 5 50 25 5 46 23 4 42 21 4 37 19 3 32 16 3 26 13 3 26 13 3 26 13 3 26 13 3 26 13 3 26 13 3 26 13 128 115 115 128 115 115 128 115 115 128 115 115 128 115 115 128 115 115 128 115 115 128 115 115 128 115 115 128 115 115 128 115 115 128 115 115 128 115 115 128 115 115 128 115 115 128 115 115 128 115 115 128 115 115 128 115 115 128 115 115 128 115 115 128 115 115 128 115 115 128 115 115 128 115 115 128 115 115 128 115 115 128 115 115 128 115 115 128 115 115 128 115 115 
128 115 115 128 115 115 128 115 115 128 115 115 128 115 115 128 115 115 128 115 115 128 115 115 128 115 115 128 115 115 128 115 115 128 115 115 128 115 115 128 115 115 128 115 115 128 115 115 128 115 115 128 115 115 128 115 115 128 115 115 128 115 115 128 115 115 128 115 115 128 115 115 128 115 115 128 115 115 128 115 115 128 115 115 128 115 115 102 82 10 105 84 11 104 83 10 101 81 10 97 77 10 91 73 9 85 68 9 79 63 8 71 57 7 63 51 6 55 44 5 45 36 5 36 29 4 26 20 3 26 20 3 26 20 3 26 20 3 26 20 3 26 20 3 26 20 3 26 20 3 26 20 3 128 115 115 128 115 115 128 115 115 128 115 115 128 115 115 128 115 115 128 115 115 128 115 115 128 115 115 128 115 115 128 115 115 128 115 115 128 115 115 128 115 115 128 115 115 128 115 115 128 115 115 128 115 115 128 115 115 128 115 115 128 115 115 128 115 115 128 115 115 128 115 115 128 115 115 128 115 115 128 115 115 128 115 115 128 115 115 128 115 115 128 115 115 128 115 115 128 115 115 128 115 115 128 115 115 128 115 115 128 115 115 128 115 115 128 115 115 128 115 115 128 115 115 128 115 115 128 115 115 128 115 115 128 115 115 128 115 115 128 115 115 128 115 115 128 115 115 128 115 115 128 115 115 128 115 115 128 115 115 128 115 115 128 115 115 128 115 115 128 115 115 128 115 115 128 115 115 128 115 115 128 115 115 128 115 115 128 115 115 128 115 115 128 115 115 128 115 115 128 115 115 128 115 115 128 115 115 128 115 115 128 115 115 128 115 115 128 115 115 128 115 115 128 115 115 128 115 115 128 115 115 128 115 115 128 115 115 128 115 115 128 115 115 128 115 115 128 115 115 128 115 115 128 115 115 128 115 115 128 115 115 128 115 115 128 115 115 128 115 115 128 115 115 128 115 115 128 115 115 128 115 115 128 115 115 128 115 115 128 115 115 128 115 115 3 26 13 3 34 17 4 38 19 4 41 20 4 41 21 4 41 20 4 39 20 4 37 19 3 34 17 3 31 15 3 26 13 3 26 13 3 26 13 3 26 13 3 26 13 3 26 13 3 26 13 3 26 13 128 115 115 128 115 115 128 115 115 128 115 115 128 115 115 128 115 115 128 115 115 128 115 115 128 115 115 128 115 115 128 115 115 128 115 115 128 115 115 128 115 115 128 115 115 128 115 115 128 115 115 128 115 115 128 115 115 128 115 115 128 115 115 128 115 115 128 115 115 128 115 115 128 115 115 128 115 115 128 115 115 128 115 115 128 115 115 128 115 115 128 115 115 128 115 115 128 115 115 
128 115 115 128 115 115 128 115 115 128 115 115 128 115 115 128 115 115 128 115 115 128 115 115 128 115 115 128 115 115 128 115 115 128 115 115 128 115 115 128 115 115 128 115 115 128 115 115 128 115 115 128 115 115 128 115 115 128 115 115 128 115 115 128 115 115 128 115 115 128 115 115 128 115 115 128 115 115 128 115 115 128 115 115 128 115 115 128 115 115 88 70 9 90 72 9 88 70 9 84 67 8 79 63 8 73 59 7 67 53 7 59 48 6 51 41 5 43 34 4 34 27 3 26 20 3 26 20 3 26 20 3 26 20 3 26 20 3 26 20 3 26 20 3 26 20 3 26 20 3 128 115 115 128 115 115 128 115 115 128 115 115 128 115 115 128 115 115 128 115 115 128 115 115 128 115 115 128 115 115 128 115 115 128 115 115 128 115 115 128 115 115 128 115 115 128 115 115 128 115 115 128 115 115 128 115 115 128 115 115 128 115 115 128 115 115 128 115 115 128 115 115 128 115 115 128 115 115 128 115 115 128 115 115 128 115 115 128 115 115 128 115 115 128 115 115 128 115 115 128 115 115 128 115 115 128 115 115 128 115 115 128 115 115 128 115 115 128 115 115 128 115 115 128 115 115 128 115 115 128 115 115 128 115 115 128 115 115 128 115 115 128 115 115 128 115 115 128 115 115 128 115 115 128 115 115 128 115 115 128 115 115 128 115 115 128 115 115 128 115 115 128 115 115 128 115 115 128 115 115 128 115 115 128 115 115 128 115 115 128 115 115 128 115 115 128 115 115 128 115 115 128 115 115 128 115 115 128 115 115 128 115 115 128 115 115 128 115 115 128 115 115 128 115 115 128 115 115 128 115 115 128 115 115 128 115 115 128 115 115 128 115 115 128 115 115 128 115 115 128 115 115 128 115 115 128 115 115 128 115 115 128 115 115 128 115 115 128 115 115 128 115 115 128 115 115 128 115 115 128 115 115 128 115 115 128 115 115 128 115 115 128 115 115 128 115 115 128 115 115 128 115 115 3 26 13 3 26 13 3 26 13 3 26 13 3 26 13 3 26 13 3 26 13 3 26 13 3 26 13 3 26 13 3 26 13 3 26 13 3 26 13 3 26 13 128 115 115 128 115 115 128 115 115 128 115 115 128 115 115 128 115 115 128 115 115 128 115 115 128 115 115 128 115 115 128 115 115 128 115 115 128 115 115 128 115 115 128 115 115 128 115 115 128 115 115 128 115 115 128 115 115 128 115 115 128 115 115 128 115 115 128 115 115 128 115 115 128 115 115 128 115 115 128 115 115 128 115 115 128 115 115 128 115 115 128 115 115 128 115 115 128 115 115 128 115 115 128 115 115 
128 115 115 128 115 115 128 115 115 128 115 115 128 115 115 128 115 115 128 115 115 128 115 115 128 115 115 128 115 115 128 115 115 128 115 115 128 115 115 128 115 115 128 115 115 128 115 115 128 115 115 128 115 115 128 115 115 128 115 115 128 115 115 128 115 115 128 115 115 128 115 115 128 115 115 128 115 115 128 115 115 128 115 115 128 115 115 128 115 115 128 115 115 70 56 7 71 57 7 69 55 7 65 52 7 60 48 6 53 43 5 46 37 5 38 31 4 30 24 3 26 20 3 26 20 3 26 20 3 26 20 3 26 20 3 26 20 3 26 20 3 26 20 3 128 115 115 128 115 115 128 115 115 128 115 115 128 115 115 128 115 115 128 115 115 128 115 115 128 115 115 128 115 115 128 115 115 128 115 115 128 115 115 128 115 115 128 115 115 128 115 115 128 115 115 128 115 115 128 115 115 128 115 115 128 115 115 128 115 115 128 115 115 128 115 115 128 115 115 128 115 115 128 115 115 128 115 115 128 115 115 128 115 115 128 115 115 128 115 115 128 115 115 128 115 115 128 115 115 128 115 115 128 115 115 128 115 115 128 115 115 128 115 115 128 115 115 128 115 115 128 115 115 128 115 115 128 115 115 128 115 115 128 115 115 128 115 115 128 115 115 128 115 115 128 115 115 128 115 115 128 115 115 128 115 115 128 115 115 128 115 115 128 115 115 128 115 115 128 115 115 128 115 115 128 115 115 128 115 115 128 115 115 128 115 115 128 115 115 128 115 115 128 115 115 128 115 115 128 115 115 128 115 115 128 115 115 128 115 115 128 115 115 128 115 115 128 115 115 128 115 115 128 115 115 128 115 115 128 115 115 128 115 115 128 115 115 128 115 115 128 115 115 128 115 115 128 115 115 128 115 115 128 115 115 128 115 115 128 115 115 128 115 115 128 115 115 128 115 115 128 115 115 128 115 115 128 115 115 128 115 115 128 115 115 128 115 115 128 115 115 128 115 115 128 115 115 128 115 115 128 115 115 128 115 115 128 115 115 128 115 115 128 115 115 128 115 115 3 26 13 3 26 13 3 26 13 3 26 13 128 115 115 128 115 115 128 115 115 128 115 115 128 115 115 128 115 115 128 115 115 128 115 115 128 115 115 128 115 115 128 115 115 128 115 115 128 115 115 128 115 115 128 115 115 128 115 115 128 115 115 128 115 115 128 115 115 128 115 115 128 115 115 128 115 115 128 115 115 128 115 115 128 115 115 128 115 115 128 115 115 128 115 115 128 115 115 128 115 115 128 115 115 128 115 115 128 115 115 128 115 115 128 115 115 128 115 115 128 115 115 128 115 115 128 115 115 128 115 115 
128 115 115 128 115 115 128 115 115 128 115 115 128 115 115 128 115 115 128 115 115 128 115 115 128 115 115 128 115 115 128 115 115 128 115 115 128 115 115 128 115 115 128 115 115 128 115 115 128 115 115 128 115 115 128 115 115 128 115 115 128 115 115 128 115 115 128 115 115 128 115 115 128 115 115 128 115 115 128 115 115 128 115 115 128 115 115 128 115 115 128 115 115 128 115 115 47 37 5 50 40 5 48 38 5 43 35 4 38 30 4 31 25 3 26 20 3 26 20 3 26 20 3 26 20 3 26 20 3 26 20 3 26 20 3 26 20 3 26 20 3 128 115 115 128 115 115 128 115 115 128 115 115 128 115 115 128 115 115 128 115 115 128 115 115 128 115 115 128 115 115 128 115 115 128 115 115 128 115 115 128 115 115 128 115 115 128 115 115 128 115 115 128 115 115 128 115 115 128 115 115 128 115 115 128 115 115 128 115 115 128 115 115 128 115 115 128 115 115 128 115 115 128 115 115 128 115 115 128 115 115 128 115 115 128 115 115 128 115 115 128 115 115 128 115 115 128 115 115 128 115 115 128 115 115 128 115 115 128 115 115 128 115 115 128 115 115 128 115 115 128 115 115 128 115 115 128 115 115 128 115 115 128 115 115 128 115 115 128 115 115 128 115 115 128 115 115 128 115 115 128 115 115 128 115 115 128 115 115 128 115 115 128 115 115 128 115 115 128 115 115 128 115 115 128 115 115 128 115 115 128 115 115 128 115 115 128 115 115 128 115 115 128 115 115 128 115 115 128 115 115 128 115 115 128 115 115 128 115 115 128 115 115 128 115 115 128 115 115 128 115 115 128 115 115 128 115 115 128 115 115 128 115 115 128 115 115 128 115 115 128 115 115 128 115 115 128 115 115 128 115 115 128 115 115 128 115 115 128 115 115 128 115 115 128 115 115 128 115 115 128 115 115 128 115 115 128 115 115 128 115 115 128 115 115 128 115 115 128 115 115 128 115 115 128 115 115 128 115 115 128 115 115 128 115 115 128 115 115 128 115 115 128 115 115 128 115 115 128 115 115 128 115 115 128 115 115 128 115 115 128 115 115 128 115 115 128 115 115 128 115 115 128 115 115 128 115 115 128 115 115 128 115 115 128 115 115 128 115 115 128 115 115 128 115 115 128 115 115 128 115 115 128 115 115 128 115 115 128 115 115 128 115 115 128 115 115 128 115 115 128 115 115 128 115 115 128 115 115 128 115 115 128 115 115 128 115 115 128 115 115 128 115 115 128 115 115 128 115 115 128 115 115 128 115 115 128 115 115 128 115 115 128 115 115 128 115 115 128 115 115 128 115 115 128 115 115 128 115 115 
128 115 115 128 115 115 128 115 115 128 115 115 128 115 115 128 115 115 128 115 115 128 115 115 128 115 115 128 115 115 128 115 115 128 115 115 128 115 115 128 115 115 128 115 115 128 115 115 128 115 115 128 115 115 128 115 115 128 115 115 128 115 115 128 115 115 128 115 115 128 115 115 128 115 115 128 115 115 128 115 115 128 115 115 128 115 115 128 115 115 128 115 115 128 115 115 128 115 115 128 115 115 26 20 3 26 20 3 26 20 3 26 20 3 26 20 3 26 20 3 26 20 3 26 20 3 26 20 3 26 20 3 26 20 3 128 115 115 128 115 115 128 115 115 128 115 115 128 115 115 128 115 115 128 115 115 128 115 115 128 115 115 128 115 115 128 115 115 128 115 115 128 115 115 128 115 115 128 115 115 128 115 115 128 115 115 128 115 115 128 115 115 128 115 115 128 115 115 128 115 115 128 115 115 128 115 115 128 115 115 128 115 115 128 115 115 128 115 115 128 115 115 128 115 115 128 115 115 128 115 115 128 115 115 128 115 115 128 115 115 128 115 115 128 115 115 128 115 115 128 115 115 128 115 115 128 115 115 128 115 115 128 115 115 128 115 115 128 115 115 128 115 115 128 115 115 128 115 115 128 115 115 128 115 115 128 115 115 128 115 115 128 115 115 128 115 115 128 115 115 128 115 115 128 115 115 128 115 115 128 115 115 128 115 115 128 115 115 128 115 115 128 115 115 128 115 115 128 115 115 128 115 115 128 115 115 128 115 115 128 115 115 128 115 115 128 115 115 128 115 115 128 115 115 128 115 115 128 115 115 128 115 115 128 115 115 128 115 115 128 115 115 128 115 115 128 115 115 128 115 115 128 115 115 128 115 115 128 115 115 128 115 115 128 115 115 128 115 115 128 115 115 128 115 115 128 115 115 128 115 115 128 115 115 128 115 115 128 115 115 128 115 115 128 115 115 128 115 115 128 115 115 128 115 115 128 115 115 128 115 115 128 115 115 128 115 115 128 115 115 128 115 115 128 115 115 128 115 115 128 115 115 128 115 115 128 115 115 128 115 115 128 115 115 128 115 115 128 115 115 128 115 115 128 115 115 128 115 115 128 115 115 128 115 115 128 115 115 128 115 115 128 115 115 128 115 115 128 115 115 128 115 115 128 115 115 128 115 115 128 115 115 128 115 115 128 115 115 128 115 115 128 115 115 128 115 115 128 115 115 128 115 115 128 115 115 128 115 115 128 115 115 128 115 115 128 115 115 128 115 115 128 115 115 128 115 115 128 115 115 128 115 115 128 115 115 128 115 115 128 115 115 128 115 115 128 115 115 128 115 115 128 115 115 128 115 115 128 115 115 
128 115 115 128 115 115 128 115 115 128 115 115 128 115 115 128 115 115 128 115 115 128 115 115 128 115 115 128 115 115 128 115 115 128 115 115 128 115 115 128 115 115 128 115 115 128 115 115 128 115 115 128 115 115 128 115 115 128 115 115 128 115 115 128 115 115 128 115 115 128 115 115 128 115 115 128 115 115 128 115 115 128 115 115 128 115 115 128 115 115 128 115 115 128 115 115 128 115 115 128 115 115 128 115 115 128 115 115 128 115 115 128 115 115 26 20 3 26 20 3 128 115 115 128 115 115 128 115 115 128 115 115 128 115 115 128 115 115 128 115 115 128 115 115 128 115 115 128 115 115 128 115 115 128 115 115 128 115 115 128 115 115 128 115 115 128 115 115 128 115 115 128 115 115 128 115 115 128 115 115 128 115 115 128 115 115 128 115 115 128 115 115 128 115 115 128 115 115 128 115 115 128 115 115 128 115 115 128 115 115 128 115 115 128 115 115 128 115 115 128 115 115 128 115 115 128 115 115 128 115 115 128 115 115 128 115 115 128 115 115 128 115 115 128 115 115 128 115 115 128 115 115 128 115 115 128 115 115 128 115 115 128 115 115 128 115 115 128 115 115 128 115 115 128 115 115 128 115 115 128 115 115 128 115 115 128 115 115 128 115 115 128 115 115 128 115 115 128 115 115 128 115 115 128 115 115 128 115 115 128 115 115 128 115 115 128 115 115 128 115 115 128 115 115 128 115 115 128 115 115 128 115 115 128 115 115 128 115 115 128 115 115 128 115 115 128 115 115 128 115 115 128 115 115 128 115 115 128 115 115 128 115 115 128 115 115 128 115 115 128 115 115 128 115 115 128 115 115 128 115 115 128 115 115 128 115 115 128 115 115 128 115 115 128 115 115 128 115 115 128 115 115 128 115 115 128 115 115 128 115 115 128 115 115 128 115 115 128 115 115 128 115 115 128 115 115 128 115 115 128 115 115 128 115 115 128 115 115 128 115 115 128 115 115 128 115 115 128 115 115 128 115 115 128 115 115 128 115 115 128 115 115 128 115 115 128 115 115 128 115 115 128 115 115 128 115 115 128 115 115 128 115 115 128 115 115 128 115 115 128 115 115 128 115 115 128 115 115 128 115 115 128 115 115 128 115 115 128 115 115 128 115 115 128 115 115 128 115 115 128 115 115 128 115 115 128 115 115 128 115 115 128 115 115 128 115 115 128 115 115 128 115 115 128 115 115 128 115 115 128 115 115 128 115 115 128 115 115 128 115 115 128 115 115 128 115 115 128 115 115 128 115 115 128 115 115 128 115 115 128 115 115 128 115 115 128 115 115 128 115 115 128 115 115 128 115 115 128 115 115 
128 115 115 128 115 115 128 115 115 128 115 115 128 115 115 128 115 115 128 115 115 128 115 115 128 115 115 128 115 115 128 115 115 128 115 115 128 115 115 128 115 115 128 115 115 128 115 115 128 115 115 128 115 115 128 115 115 128 115 115 128 115 115 128 115 115 128 115 115 128 115 115 128 115 115 128 115 115 128 115 115 128 115 115 128 115 115 128 115 115 128 115 115 128 115 115 128 115 115 128 115 115 128 115 115 128 115 115 128 115 115 128 115 115 128 115 115 128 115 115 128 115 115 128 115 115 128 115 115 128 115 115 128 115 115 128 115 115 128 115 115 128 115 115 128 115 115 128 115 115 128 115 115 128 115 115 128 115 115 128 115 115 128 115 115 128 115 115 128 115 115 128 115 115 128 115 115 128 115 115 128 115 115 128 115 115 128 115 115 128 115 115 128 115 115 128 115 115 128 115 115 128 115 115 128 115 115 128 115 115 128 115 115 128 115 115 128 115 115 128 115 115 128 115 115 128 115 115 128 115 115 128 115 115 128 115 115 128 115 115 128 115 115 128 115 115 128 115 115 128 115 115 128 115 115 128 115 115 128 115 115 128 115 115 128 115 115 128 115 115 128 115 115 128 115 115 128 115 115 128 115 115 128 115 115 128 115 115 128 115 115 128 115 115 128 115 115 128 115 115 128 115 115 128 115 115 128 115 115 128 115 115 128 115 115 128 115 115 128 115 115 128 115 115 128 115 115 128 115 115 128 115 115 128 115 115 128 115 115 128 115 115 128 115 115 128 115 115 128 115 115 128 115 115 128 115 115 128 115 115 128 115 115 128 115 115 128 115 115 128 115 115 128 115 115 128 115 115 128 115 115 128 115 115 128 115 115 128 115 115 128 115 115 128 115 115 128 115 115 128 115 115 128 115 115 128 115 115 128 115 115 128 115 115 128 115 115 128 115 115 128 115 115 128 115 115 128 115 115 128 115 115 128 115 115 128 115 115 128 115 115 128 115 115 128 115 115 128 115 115 128 115 115 128 115 115 128 115 115 128 115 115 128 115 115 128 115 115 128 115 115 128 115 115 128 115 115 128 115 115 128 115 115 128 115 115 128 115 115 128 115 115 128 115 115 128 115 115 128 115 115 128 115 115 128 115 115 128 115 115 128 115 115 128 115 115 128 115 115 128 115 115 128 115 115 128 115 115 128 115 115 128 115 115 128 115 115 128 115 115 128 115 115 128 115 115 128 115 115 128 115 115 128 115 115 128 115 115 128 115 115 128 115 115 128 115 115 128 115 115 128 115 115 128 115 115 128 115 115 128 115 115 128 115 115 128 115 115 128 115 115 128 115 115 128 115 115 128 115 115 
128 115 115 128 115 115 128 115 115 128 115 115 128 115 115 128 115 115 128 115 115 128 115 115 128 115 115 128 115 115 128 115 115 128 115 115 128 115 115 128 115 115 128 115 115 128 115 115 128 115 115 128 115 115 128 115 115 128 115 115 128 115 115 128 115 115 128 115 115 128 115 115 128 115 115 128 115 115 128 115 115 128 115 115 128 115 115 128 115 115 128 115 115 128 115 115 128 115 115 128 115 115 128 115 115 128 115 115 128 115 115 128 115 115 128 115 115 128 115 115 128 115 115 128 115 115 128 115 115 128 115 115 128 115 115 128 115 115 128 115 115 128 115 115 128 115 115 128 115 115 128 115 115 128 115 115 128 115 115 128 115 115 128 115 115 128 115 115 128 115 115 128 115 115 128 115 115 128 115 115 128 115 115 128 115 115 128 115 115 128 115 115 128 115 115 128 115 115 128 115 115 128 115 115 128 115 115 128 115 115 128 115 115 128 115 115 128 115 115 128 115 115 128 115 115 128 115 115 128 115 115 128 115 115 128 115 115 128 115 115 128 115 115 128 115 115 128 115 115 128 115 115 128 115 115 128 115 115 128 115 115 128 115 115 128 115 115 128 115 115 128 115 115 128 115 115 128 115 115 128 115 115 128 115 115 128 115 115 128 115 115 128 115 115 128 115 115 128 115 115 128 115 115 128 115 115 128 115 115 128 115 115 128 115 115 128 115 115 128 115 115 128 115 115 128 115 115 128 115 115 128 115 115 128 115 115 128 115 115 128 115 115 128 115 115 128 115 115 128 115 115 128 115 115 128 115 115 128 115 115 128 115 115 128 115 115 128 115 115 128 115 115 128 115 115 128 115 115 128 115 115 128 115 115 128 115 115 128 115 115 128 115 115 128 115 115 128 115 115 128 115 115 128 115 115 128 115 115 128 115 115 128 115 115 128 115 115 128 115 115 128 115 115 128 115 115 128 115 115 128 115 115 128 115 115 128 115 115 128 115 115 128 115 115 128 115 115 128 115 115 128 115 115 128 115 115 128 115 115 128 115 115 128 115 115 128 115 115 128 115 115 128 115 115 128 115 115 128 115 115 128 115 115 128 115 115 128 115 115 128 115 115 128 115 115 128 115 115 128 115 115 128 115 115 128 115 115 128 115 115 128 115 115 128 115 115 128 115 115 128 115 115 128 115 115 128 115 115 128 115 115 128 115 115 128 115 115 128 115 115 128 115 115 128 115 115 128 115 115 128 115 115 128 115 115 128 115 115 128 115 115 128 115 115 128 115 115 128 115 115 128 115 115 128 115 115 128 115 115 128 115 115 128 115 115 128 115 115 128 115 115 128 115 115 128 115 115 128 115 115 
128 115 115 128 115 115 128 115 115 128 115 115 128 115 115 128 115 115 128 115 115 128 115 115 128 115 115 128 115 115 128 115 115 128 115 115 128 115 115 128 115 115 128 115 115 128 115 115 128 115 115 128 115 115 128 115 115 128 115 115 128 115 115 128 115 115 128 115 115 128 115 115 128 115 115 128 115 115 128 115 115 128 115 115 128 115 115 128 115 115 128 115 115 128 115 115 128 115 115 128 115 115 128 115 115 128 115 115 128 115 115 128 115 115 128 115 115 128 115 115 128 115 115 128 115 115 128 115 115 128 115 115 128 115 115 128 115 115 128 115 115 128 115 115 128 115 115 128 115 115 128 115 115 128 115 115 128 115 115 128 115 115 128 115 115 128 115 115 128 115 115 128 115 115 128 115 115 128 115 115 128 115 115 128 115 115 128 115 115 128 115 115 128 115 115 128 115 115 128 115 115 128 115 115 128 115 115 128 115 115 128 115 115 128 115 115 128 115 115 128 115 115 128 115 115 128 115 115 128 115 115 128 115 115 128 115 115 128 115 115 128 115 115 128 115 115 128 115 115 128 115 115 128 115 115 128 115 115 128 115 115 128 115 115 128 115 115 128 115 115 128 115 115 128 115 115 128 115 115 128 115 115 128 115 115 128 115 115 128 115 115 128 115 115 128 115 115 128 115 115 128 115 115 128 115 115 128 115 115 128 115 115 128 115 115 128 115 115 128 115 115 128 115 115 128 115 115 128 115 115 128 115 115 128 115 115 128 115 115 128 115 115 128 115 115 128 115 115 128 115 115 128 115 115 128 115 115 128 115 115 128 115 115 128 115 115 128 115 115 128 115 115 128 115 115 128 115 115 128 115 115 128 115 115 128 115 115 128 115 115 128 115 115 128 115 115 128 115 115 128 115 115 128 115 115 128 115 115 128 115 115 128 115 115 128 115 115 128 115 115 128 115 115 128 115 115 128 115 115 128 115 115 128 115 115 128 115 115 128 115 115 128 115 115 128 115 115 128 115 115 128 115 115 128 115 115 128 115 115 128 115 115 128 115 115 128 115 115 128 115 115 128 115 115 128 115 115 128 115 115 128 115 115 128 115 115 128 115 115 128 115 115 128 115 115 128 115 115 128 115 115 128 115 115 128 115 115 128 115 115 128 115 115 128 115 115 128 115 115 128 115 115 128 115 115 128 115 115 128 115 115 128 115 115 128 115 115 128 115 115 128 115 115 128 115 115 128 115 115 128 115 115 128 115 115 128 115 115 128 115 115 128 115 115 128 115 115 128 115 115 128 115 115 128 115 115 128 115 115 128 115 115 128 115 115 128 115 115 128 115 115 128 115 115 128 115 115 128 115 115 
128 115 115 128 115 115 128 115 115 128 115 115 128 115 115 128 115 115 128 115 115 128 115 115 128 115 115 128 115 115 128 115 115 128 115 115 128 115 115 128 115 115 128 115 115 128 115 115 128 115 115 128 115 115 128 115 115 128 115 115 128 115 115 128 115 115 128 115 115 128 115 115 128 115 115 128 115 115 128 115 115 128 115 115 128 115 115 128 115 115 128 115 115 128 115 115 128 115 115 128 115 115 128 115 115 128 115 115 128 115 115 128 115 115 128 115 115 128 115 115 128 115 115 128 115 115 128 115 115 128 115 115 128 115 115 128 115 115 128 115 115 128 115 115 128 115 115 128 115 115 128 115 115 128 115 115 128 115 115 128 115 115 128 115 115 128 115 115 128 115 115 128 115 115 128 115 115 128 115 115 128 115 115 128 115 115 128 115 115 128 115 115 128 115 115 128 115 115 128 115 115 128 115 115 128 115 115 128 115 115 128 115 115 128 115 115 128 115 115 128 115 115 128 115 115 128 115 115 128 115 115 128 115 115 128 115 115 128 115 115 128 115 115 128 115 115 128 115 115 128 115 115 128 115 115 128 115 115 128 115 115 128 115 115 128 115 115 128 115 115 128 115 115 128 115 115 128 115 115 128 115 115 128 115 115 128 115 115 128 115 115 128 115 115 128 115 115 128 115 115 128 115 115 128 115 115 128 115 115 128 115 115 128 115 115 128 115 115 128 115 115 128 115 115 128 115 115 128 115 115 128 115 115 128 115 115 128 115 115 128 115 115 128 115 115 128 115 115 128 115 115 128 115 115 128 115 115 128 115 115 128 115 115 128 115 115 128 115 115 128 115 115 128 115 115 128 115 115 128 115 115 128 115 115 128 115 115 128 115 115 128 115 115 128 115 115 128 115 115 128 115 115 128 115 115 128 115 115 128 115 115 128 115 115 128 115 115 128 115 115 128 115 115 128 115 115 128 115 115 128 115 115 128 115 115 128 115 115 128 115 115 128 115 115 128 115 115 128 115 115 128 115 115 128 115 115 128 115 115 128 115 115 128 115 115 128 115 115 128 115 115 128 115 115 128 115 115 128 115 115 128 115 115 128 115 115 128 115 115 128 115 115 128 115 115 128 115 115 128 115 115 128 115 115 128 115 115 128 115 115 128 115 115 128 115 115 128 115 115 128 115 115 128 115 115 128 115 115 128 115 115 128 115 115 128 115 115 128 115 115 128 115 115 128 115 115 128 115 115 128 115 115 128 115 115 128 115 115 128 115 115 128 115 115 128 115 115 128 115 115 128 115 115 128 115 115 128 115 115 128 115 115 128 115 115 128 115 115 128 115 115 128 115 115 128 115 115 128 115 115 
128 115 115 128 115 115 128 115 115 128 115 115 128 115 115 128 115 115 128 115 115 128 115 115 128 115 115 128 115 115 128 115 115 128 115 115 128 115 115 128 115 115 128 115 115 128 115 115 128 115 115 128 115 115 128 115 115 128 115 115 128 115 115 128 115 115 128 115 115 128 115 115 128 115 115 128 115 115 128 115 115 128 115 115 128 115 115 128 115 115 128 115 115 128 115 115 128 115 115 128 115 115 128 115 115 128 115 115 128 115 115 128 115 115 128 115 115 128 115 115 128 115 115 128 115 115 128 115 115 128 115 115 128 115 115 128 115 115 128 115 115 128 115 115 128 115 115 128 115 115 128 115 115 128 115 115 128 115 115 128 115 115 128 115 115 128 115 115 128 115 115 128 115 115 128 115 115 128 115 115 128 115 115 128 115 115 128 115 115 128 115 115 128 115 115 128 115 115 128 115 115 128 115 115 128 115 115 128 115 115 128 115 115 128 115 115 128 115 115 128 115 115 128 115 115 128 115 115 128 115 115 128 115 115 128 115 115 128 115 115 128 115 115 128 115 115 128 115 115 128 115 115 128 115 115 128 115 115 128 115 115 128 115 115 128 115 115 128 115 115 128 115 115 128 115 115 128 115 115 128 115 115 128 115 115 128 115 115 128 115 115 128 115 115 128 115 115 128 115 115 128 115 115 128 115 115 128 115 115 128 115 115 128 115 115 128 115 115 128 115 115 128 115 115 128 115 115 128 115 115 128 115 115 128 115 115 128 115 115 128 115 115 128 115 115 128 115 115 128 115 115 128 115 115 128 115 115 128 115 115 128 115 115 128 115 115 128 115 115 128 115 115 128 115 115 128 115 115 128 115 115 128 115 115 128 115 115 128 115 115 128 115 115 128 115 115 128 115 115 128 115 115 128 115 115 128 115 115 128 115 115 128 115 115 128 115 115 128 115 115 128 115 115 128 115 115 128 115 115 128 115 115 128 115 115 128 115 115 128 115 115 128 115 115 128 115 115 128 115 115 128 115 115 128 115 115 128 115 115 128 115 115 128 115 115 128 115 115 128 115 115 128 115 115 128 115 115 128 115 115 128 115 115 128 115 115 128 115 115 128 115 115 128 115 115 128 115 115 128 115 115 128 115 115 128 115 115 128 115 115 128 115 115 128 115 115 128 115 115 128 115 115 128 115 115 128 115 115 128 115 115 128 115 115 128 115 115 128 115 115 128 115 115 128 115 115 128 115 115 128 115 115 128 115 115 128 115 115 128 115 115 128 115 115 128 115 115 128 115 115 128 115 115 128 115 115 128 115 115 128 115 115 128 115 115 128 115 115 128 115 115 128 115 115 128 115 115 128 115 115 
128 115 115 128 115 115 128 115 115 128 115 115 128 115 115 128 115 115 128 115 115 128 115 115 128 115 115 128 115 115 128 115 115 128 115 115 128 115 115 128 115 115 128 115 115 128 115 115 128 115 115 128 115 115 128 115 115 128 115 115 128 115 115 128 115 115 128 115 115 128 115 115 128 115 115 128 115 115 128 115 115 128 115 115 128 115 115 128 115 115 128 115 115 128 115 115 128 115 115 128 115 115 128 115 115 128 115 115 128 115 115 128 115 115 128 115 115 128 115 115 128 115 115 128 115 115 128 115 115 128 115 115 128 115 115 128 115 115 128 115 115 128 115 115 128 115 115 128 115 115 128 115 115 128 115 115 128 115 115 128 115 115 128 115 115 128 115 115 128 115 115 128 115 115 128 115 115 128 115 115 128 115 115 128 115 115 128 115 115 128 115 115 128 115 115 128 115 115 128 115 115 128 115 115 128 115 115 128 115 115 128 115 115 128 115 115 128 115 115 128 115 115 128 115 115 128 115 115 128 115 115 128 115 115 128 115 115 128 115 115 128 115 115 128 115 115 128 115 115 128 115 115 128 115 115 128 115 115 128 115 115 128 115 115 128 115 115 128 115 115 128 115 115 128 115 115 128 115 115 128 115 115 128 115 115 128 115 115 128 115 115 128 115 115 128 115 115 128 115 115 128 115 115 128 115 115 128 115 115 128 115 115 128 115 115 128 115 115 128 115 115 128 115 115 128 115 115 128 115 115 128 115 115 128 115 115 128 115 115 128 115 115 128 115 115 128 115 115 128 115 115 128 115 115 128 115 115 128 115 115 128 115 115 128 115 115 128 115 115 128 115 115 128 115 115 128 115 115 128 115 115 128 115 115 128 115 115 128 115 115 128 115 115 128 115 115 128 115 115 128 115 115 128 115 115 128 115 115 128 115 115 128 115 115 128 115 115 128 115 115 128 115 115 128 115 115 128 115 115 128 115 115 128 115 115 128 115 115 128 115 115 128 115 115 128 115 115 128 115 115 128 115 115 128 115 115 128 115 115 128 115 115 128 115 115 128 115 115 128 115 115 128 115 115 128 115 115 128 115 115 128 115 115 128 115 115 128 115 115 128 115 115 128 115 115 128 115 115 128 115 115 128 115 115 128 115 115 128 115 115 128 115 115 128 115 115 128 115 115 128 115 115 128 115 115 128 115 115 128 115 115 128 115 115 128 115 115 128 115 115 128 115 115 128 115 115 128 115 115 128 115 115 128 115 115 128 115 115 128 115 115 128 115 115 128 115 115 128 115 115 128 115 115 128 115 115 128 115 115 128 115 115 128 115 115 128 115 115 128 115 115 128 115 115 128 115 115 128 115 115 
128 115 115 128 115 115 128 115 115 128 115 115 128 115 115 128 115 115 128 115 115 128 115 115 128 115 115 128 115 115 128 115 115 128 115 115 128 115 115 128 115 115 128 115 115 128 115 115 128 115 115 128 115 115 128 115 115 128 115 115 128 115 115 128 115 115 128 115 115 128 115 115 128 115 115 128 115 115 128 115 115 128 115 115 128 115 115 128 115 115 128 115 115 128 115 115 128 115 115 128 115 115 128 115 115 128 115 115 128 115 115 128 115 115 128 115 115 128 115 115 128 115 115 128 115 115 128 115 115 128 115 115 128 115 115 128 115 115 128 115 115 128 115 115 128 115 115 128 115 115 128 115 115 128 115 115 128 115 115 128 115 115 128 115 115 128 115 115 128 115 115 128 115 115 128 115 115 128 115 115 128 115 115 128 115 115 128 115 115 128 115 115 128 115 115 128 115 115 128 115 115 128 115 115 128 115 115 128 115 115 128 115 115 128 115 115 128 115 115 128 115 115 128 115 115 128 115 115 128 115 115 128 115 115 128 115 115 128 115 115 128 115 115 128 115 115 128 115 115 128 115 115 128 115 115 128 115 115 128 115 115 128 115 115 128 115 115 128 115 115 128 115 115 128 115 115 128 115 115 128 115 115 128 115 115 128 115 115 128 115 115 128 115 115 128 115 115 128 115 115 128 115 115 128 115 115 128 115 115 128 115 115 128 115 115 128 115 115 128 115 115 128 115 115 128 115 115 128 115 115 128 115 115 128 115 115 128 115 115 128 115 115 128 115 115 128 115 115 128 115 115 128 115 115 128 115 115 128 115 115 128 115 115 128 115 115 128 115 115 128 115 115 128 115 115 128 115 115 128 115 115 128 115 115 128 115 115 128 115 115 128 115 115 128 115 115 128 115 115 128 115 115 128 115 115 128 115 115 128 115 115 128 115 115 128 115 115 128 115 115 128 115 115 128 115 115 128 115 115 128 115 115 128 115 115 128 115 115 128 115 115 128 115 115 128 115 115 128 115 115 128 115 115 128 115 115 128 115 115 128 115 115 128 115 115 128 115 115 128 115 115 128 115 115 128 115 115 128 115 115 128 115 115 128 115 115 128 115 115 128 115 115 128 115 115 128 115 115 128 115 115 128 115 115 128 115 115 128 115 115 128 115 115 128 115 115 128 115 115 128 115 115 128 115 115 128 115 115 128 115 115 128 115 115 128 115 115 128 115 115 128 115 115 128 115 115 128 115 115 128 115 115 128 115 115 128 115 115 128 115 115 128 115 115 128 115 115 128 115 115 128 115 115 128 115 115 128 115 115 128 115 115 128 115 115 128 115 115 128 115 115 128 115 115 128 115 115 128 115 115 
128 115 115 128 115 115 128 115 115 128 115 115 128 115 115 128 115 115 128 115 115 128 115 115 128 115 115 128 115 115 128 115 115 128 115 115 128 115 115 128 115 115 128 115 115 128 115 115 128 115 115 128 115 115 128 115 115 128 115 115 128 115 115 128 115 115 128 115 115 128 115 115 128 115 115 128 115 115 128 115 115 128 115 115 128 115 115 128 115 115 128 115 115 128 115 115 128 115 115 128 115 115 128 115 115 128 115 115 128 115 115 128 115 115 128 115 115 128 115 115 128 115 115 128 115 115 128 115 115 128 115 115 128 115 115 128 115 115 128 115 115 128 115 115 128 115 115 128 115 115 128 115 115 128 115 115 128 115 115 128 115 115 128 115 115 128 115 115 128 115 115 128 115 115 128 115 115 128 115 115 128 115 115 128 115 115 128 115 115 128 115 115 128 115 115 128 115 115 128 115 115 128 115 115 128 115 115 128 115 115 128 115 115 128 115 115 128 115 115 128 115 115 128 115 115 128 115 115 128 115 115 128 115 115 128 115 115 128 115 115 128 115 115 128 115 115 128 115 115 128 115 115 128 115 115 128 115 115 128 115 115 128 115 115 128 115 115 128 115 115 128 115 115 128 115 115 128 115 115 128 115 115 128 115 115 128 115 115 128 115 115 128 115 115 128 115 115 128 115 115 128 115 115 128 115 115 128 115 115 128 115 115 128 115 115 128 115 115 128 115 115 128 115 115 128 115 115 128 115 115 128 115 115 128 115 115 128 115 115 128 115 115 128 115 115 128 115 115 128 115 115 128 115 115 128 115 115 128 115 115 128 115 115 128 115 115 128 115 115 128 115 115 128 115 115 128 115 115 128 115 115 128 115 115 128 115 115 128 115 115 128 115 115 128 115 115 128 115 115 128 115 115 128 115 115 128 115 115 128 115 115 128 115 115 128 115 115 128 115 115 128 115 115 128 115 115 128 115 115 128 115 115 128 115 115 128 115 115 128 115 115 128 115 115 128 115 115 128 115 115 128 115 115 128 115 115 128 115 115 128 115 115 128 115 115 128 115 115 128 115 115 128 115 115 128 115 115 128 115 115 128 115 115 128 115 115 128 115 115 128 115 115 128 115 115 128 115 115 128 115 115 128 115 115 128 115 115 128 115 115 128 115 115 128 115 115 128 115 115 128 115 115 128 115 115 128 115 115 128 115 115 128 115 115 128 115 115 128 115 115 128 115 115 128 115 115 128 115 115 128 115 115 128 115 115 128 115 115 128 115 115 128 115 115 128 115 115 128 115 115 128 115 115 128 115 115 128 115 115 128 115 115 128 115 115 128 115 115 128 115 115 128 115 115 128 115 115 128 115 115 
128 115 115 128 115 115 128 115 115 128 115 115 128 115 115 128 115 115 128 115 115 128 115 115 128 115 115 128 115 115 128 115 115 128 115 115 128 115 115 128 115 115 128 115 115 128 115 115 128 115 115 128 115 115 128 115 115 128 115 115 128 115 115 128 115 115 128 115 115 128 115 115 128 115 115 128 115 115 128 115 115 128 115 115 128 115 115 128 115 115 128 115 115 128 115 115 128 115 115 128 115 115 128 115 115 128 115 115 128 115 115 128 115 115 128 115 115 128 115 115 128 115 115 128 115 115 128 115 115 128 115 115 128 115 115 128 115 115 128 115 115 128 115 115 128 115 115 128 115 115 128 115 115 128 115 115 128 115 115 128 115 115 128 115 115 128 115 115 128 115 115 128 115 115 128 115 115 128 115 115 128 115 115 128 115 115 128 115 115 128 115 115 128 115 115 128 115 115 128 115 115 128 115 115 128 115 115 128 115 115 128 115 115 128 115 115 128 115 115 128 115 115 128 115 115 128 115 115 128 115 115 128 115 115 128 115 115 128 115 115 128 115 115 128 115 115 128 115 115 128 115 115 128 115 115 128 115 115 128 115 115 128 115 115 128 115 115 128 115 115 128 115 115 128 115 115 128 115 115 128 115 115 128 115 115 128 115 115 128 115 115 128 115 115 128 115 115 128 115 115 128 115 115 128 115 115 128 115 115 128 115 115 128 115 115 128 115 115 128 115 115 128 115 115 128 115 115 128 115 115 128 115 115 128 115 115 128 115 115 128 115 115 128 115 115 128 115 115 128 115 115 128 115 115 128 115 115 128 115 115 128 115 115 128 115 115 128 115 115 128 115 115 128 115 115 128 115 115 128 115 115 128 115 115 128 115 115 128 115 115 128 115 115 128 115 115 128 115 115 128 115 115 128 115 115 128 115 115 128 115 115 128 115 115 128 115 115 128 115 115 128 115 115 128 115 115 128 115 115 128 115 115 128 115 115 128 115 115 128 115 115 128 115 115 128 115 115 128 115 115 128 115 115 128 115 115 128 115 115 128 115 115 128 115 115 128 115 115 128 115 115 128 115 115 128 115 115 128 115 115 128 115 115 128 115 115 128 115 115 128 115 115 128 115 115 128 115 115 128 115 115 128 115 115 128 115 115 128 115 115 128 115 115 128 115 115 128 115 115 128 115 115 128 115 115 128 115 115 128 115 115 128 115 115 128 115 115 128 115 115 128 115 115 128 115 115 128 115 115 128 115 115 128 115 115 128 115 115 128 115 115 128 115 115 128 115 115 128 115 115 128 115 115 128 115 115 128 115 115 128 115 115 128 115 115 128 115 115 128 115 115 128 115 115 128 115 115 128 115 115 
128 115 115 128 115 115 128 115 115 128 115 115 128 115 115 128 115 115 128 115 115 128 115 115 128 115 115 128 115 115 128 115 115 128 115 115 128 115 115 128 115 115 128 115 115 128 115 115 128 115 115 128 115 115 128 115 115 128 115 115 128 115 115 128 115 115 128 115 115 128 115 115 128 115 115 128 115 115 128 115 115 128 115 115 128 115 115 128 115 115 128 115 115 128 115 115 128 115 115 128 115 115 128 115 115 128 115 115 128 115 115 128 115 115 128 115 115 128 115 115 128 115 115 128 115 115 128 115 115 128 115 115 128 115 115 128 115 115 128 115 115 128 115 115 128 115 115 128 115 115 128 115 115 128 115 115 128 115 115 128 115 115 128 115 115 128 115 115 128 115 115 128 115 115 128 115 115 128 115 115 128 115 115 128 115 115 128 115 115 128 115 115 128 115 115 128 115 115 128 115 115 128 115 115 128 115 115 128 115 115 128 115 115 128 115 115 128 115 115 128 115 115 128 115 115 128 115 115 128 115 115 128 115 115 128 115 115 128 115 115 128 115 115 128 115 115 128 115 115 128 115 115 128 115 115 128 115 115 128 115 115 128 115 115 128 115 115 128 115 115 128 115 115 128 115 115 128 115 115 128 115 115 128 115 115 128 115 115 128 115 115 128 115 115 128 115 115 128 115 115 128 115 115 128 115 115 128 115 115 128 115 115 128 115 115 128 115 115 128 115 115 128 115 115 128 115 115 128 115 115 128 115 115 128 115 115 128 115 115 128 115 115 128 115 115 128 115 115 128 115 115 128 115 115 128 115 115 128 115 115 128 115 115 128 115 115 128 115 115 128 115 115 128 115 115 128 115 115 128 115 115 128 115 115 128 115 115 128 115 115 128 115 115 128 115 115 128 115 115 128 115 115 128 115 115 128 115 115 128 115 115 128 115 115 128 115 115 128 115 115 128 115 115 128 115 115 128 115 115 128 115 115 128 115 115 128 115 115 128 115 115 128 115 115 128 115 115 128 115 115 128 115 115 128 115 115 128 115 115 128 115 115 128 115 115 128 115 115 128 115 115 128 115 115 128 115 115 128 115 115 128 115 115 128 115 115 128 115 115 128 115 115 128 115 115 128 115 115 128 115 115 128 115 115 128 115 115 128 115 115 128 115 115 128 115 115 128 115 115 128 115 115 128 115 115 128 115 115 128 115 115 128 115 115 128 115 115 128 115 115 128 115 115 128 115 115 128 115 115 128 115 115 128 115 115 128 115 115 128 115 115 128 115 115 128 115 115 128 115 115 128 115 115 128 115 115 128 115 115 128 115 115 128 115 115 128 115 115 128 115 115 128 115 115 128 115 115 128 115 115 
128 115 115 128 115 115 128 115 115 128 115 115 128 115 115 128 115 115 128 115 115 128 115 115 128 115 115 128 115 115 128 115 115 128 115 115 128 115 115 128 115 115 128 115 115 128 115 115 128 115 115 128 115 115 128 115 115 128 115 115 128 115 115 128 115 115 128 115 115 128 115 115 128 115 115 128 115 115 128 115 115 128 115 115 128 115 115 128 115 115 128 115 115 128 115 115 128 115 115 128 115 115 128 115 115 128 115 115 128 115 115 128 115 115 128 115 115 128 115 115 128 115 115 128 115 115 128 115 115 128 115 115 128 115 115 128 115 115 128 115 115 128 115 115 128 115 115 128 115 115 128 115 115 128 115 115 128 115 115 128 115 115 128 115 115 128 115 115 128 115 115 128 115 115 128 115 115 128 115 115 128 115 115 128 115 115 128 115 115 128 115 115 128 115 115 128 115 115 128 115 115 128 115 115 128 115 115 128 115 115 128 115 115 128 115 115 128 115 115 128 115 115 128 115 115 128 115 115 128 115 115 128 115 115 128 115 115 128 115 115 128 115 115 128 115 115 128 115 115 128 115 115 128 115 115 128 115 115 128 115 115 128 115 115 128 115 115 128 115 115 128 115 115 128 115 115 128 115 115 128 115 115 128 115 115 128 115 115 128 115 115 128 115 115 128 115 115 128 115 115 128 115 115 128 115 115 128 115 115 128 115 115 128 115 115 128 115 115 128 115 115 128 115 115 128 115 115 128 115 115 128 115 115 128 115 115 128 115 115 128 115 115 128 115 115 128 115 115 128 115 115 128 115 115 128 115 115 128 115 115 128 115 115 128 115 115 128 115 115 128 115 115 128 115 115 128 115 115 128 115 115 128 115 115 128 115 115 128 115 115 128 115 115 128 115 115 128 115 115 128 115 115 128 115 115 128 115 115 128 115 115 128 115 115 128 115 115 128 115 115 128 115 115 128 115 115 128 115 115 128 115 115 128 115 115 128 115 115 128 115 115 128 115 115 128 115 115 128 115 115 128 115 115 128 115 115 128 115 115 128 115 115 128 115 115 128 115 115 128 115 115 128 115 115 128 115 115 128 115 115 128 115 115 128 115 115 128 115 115 128 115 115 128 115 115 128 115 115 128 115 115 128 115 115 128 115 115 128 115 115 128 115 115 128 115 115 128 115 115 128 115 115 128 115 115 128 115 115 128 115 115 128 115 115 128 115 115 128 115 115 128 115 115 128 115 115 128 115 115 128 115 115 128 115 115 128 115 115 128 115 115 128 115 115 128 115 115 128 115 115 128 115 115 128 115 115 128 115 115 128 115 115 128 115 115 128 115 115 128 115 115 128 115 115 128 115 115 128 115 115 
128 115 115 128 115 115 128 115 115 128 115 115 128 115 115 128 115 115 128 115 115 128 115 115 128 115 115 128 115 115 128 115 115 128 115 115 128 115 115 128 115 115 128 115 115 128 115 115 128 115 115 128 115 115 128 115 115 128 115 115 128 115 115 128 115 115 128 115 115 128 115 115 128 115 115 128 115 115 128 115 115 128 115 115 128 115 115 128 115 115 128 115 115 128 115 115 128 115 115 128 115 115 128 115 115 128 115 115 128 115 115 128 115 115 128 115 115 128 115 115 128 115 115 128 115 115 128 115 115 128 115 115 128 115 115 128 115 115 128 115 115 128 115 115 128 115 115 128 115 115 128 115 115 128 115 115 128 115 115 128 115 115 128 115 115 128 115 115 128 115 115 128 115 115 128 115 115 128 115 115 128 115 115 128 115 115 128 115 115 128 115 115 128 115 115 128 115 115 128 115 115 128 115 115 128 115 115 128 115 115 128 115 115 128 115 115 128 115 115 128 115 115 128 115 115 128 115 115 128 115 115 128 115 115 128 115 115 128 115 115 128 115 115 128 115 115 128 115 115 128 115 115 128 115 115 128 115 115 128 115 115 128 115 115 128 115 115 128 115 115 128 115 115 128 115 115 128 115 115 128 115 115 128 115 115 128 115 115 128 115 115 128 115 115 128 115 115 128 115 115 128 115 115 128 115 115 128 115 115 128 115 115 128 115 115 128 115 115 128 115 115 128 115 115 128 115 115 128 115 115 128 115 115 128 115 115 128 115 115 128 115 115 128 115 115 128 115 115 128 115 115 128 115 115 128 115 115 128 115 115 128 115 115 128 115 115 128 115 115 128 115 115 128 115 115 128 115 115 128 115 115 128 115 115 128 115 115 128 115 115 128 115 115 128 115 115 128 115 115 128 115 115 128 115 115 128 115 115 128 115 115 128 115 115 128 115 115 128 115 115 128 115 115 128 115 115 128 115 115 128 115 115 128 115 115 128 115 115 128 115 115 128 115 115 128 115 115 128 115 115 128 115 115 128 115 115 128 115 115 128 115 115 128 115 115 128 115 115 128 115 115 128 115 115 128 115 115 128 115 115 128 115 115 128 115 115 128 115 115 128 115 115 128 115 115 128 115 115 128 115 115 128 115 115 128 115 115 128 115 115 128 115 115 128 115 115 128 115 115 128 115 115 128 115 115 128 115 115 128 115 115 128 115 115 128 115 115 128 115 115 128 115 115 128 115 115 128 115 115 128 115 115 128 115 115 128 115 115 128 115 115 128 115 115 128 115 115 128 115 115 128 115 115 128 115 115 128 115 115 128 115 115 128 115 115 128 115 115 128 115 115 128 115 115 128 115 115 128 115 115 
128 115 115 128 115 115 128 115 115 128 115 115 128 115 115 128 115 115 128 115 115 128 115 115 128 115 115 128 115 115 128 115 115 128 115 115 128 115 115 128 115 115 128 115 115 128 115 115 128 115 115 128 115 115 128 115 115 128 115 115 128 115 115 128 115 115 128 115 115 128 115 115 128 115 115 128 115 115 128 115 115 128 115 115 128 115 115 128 115 115 128 115 115 128 115 115 128 115 115 128 115 115 128 115 115 128 115 115 128 115 115 128 115 115 128 115 115 128 115 115 128 115 115 128 115 115 128 115 115 128 115 115 128 115 115 128 115 115 128 115 115 128 115 115 128 115 115 128 115 115 128 115 115 128 115 115 128 115 115 128 115 115 128 115 115 128 115 115 128 115 115 128 115 115 128 115 115 128 115 115 128 115 115 128 115 115 128 115 115 128 115 115 128 115 115 128 115 115 128 115 115 128 115 115 128 115 115 128 115 115 128 115 115 128 115 115 128 115 115 128 115 115 128 115 115 128 115 115 128 115 115 128 115 115 128 115 115 128 115 115 128 115 115 128 115 115 128 115 115 128 115 115 128 115 115 128 115 115 128 115 115 128 115 115 128 115 115 128 115 115 128 115 115 128 115 115 128 115 115 128 115 115 128 115 115 128 115 115 128 115 115 128 115 115 128 115 115 128 115 115 128 115 115 128 115 115 128 115 115 128 115 115 128 115 115 128 115 115 128 115 115 128 115 115 128 115 115 128 115 115 128 115 115 128 115 115 128 115 115 128 115 115 128 115 115 128 115 115 128 115 115 128 115 115 128 115 115 128 115 115 128 115 115 128 115 115 128 115 115 128 115 115 128 115 115 128 115 115 128 115 115 128 115 115 128 115 115 128 115 115 128 115 115 128 115 115 128 115 115 128 115 115 128 115 115 128 115 115 128 115 115 128 115 115 128 115 115 128 115 115 128 115 115 128 115 115 128 115 115 128 115 115 128 115 115 128 115 115 128 115 115 128 115 115 128 115 115 128 115 115 128 115 115 128 115 115 128 115 115 128 115 115 128 115 115 128 115 115 128 115 115 128 115 115 128 115 115 128 115 115 128 115 115 128 115 115 128 115 115 128 115 115 128 115 115 128 115 115 128 115 115 128 115 115 128 115 115 128 115 115 128 115 115 128 115 115 128 115 115 128 115 115 128 115 115 128 115 115 128 115 115 128 115 115 128 115 115 128 115 115 128 115 115 128 115 115 128 115 115 128 115 115 128 115 115 128 115 115 128 115 115 128 115 115 128 115 115 128 115 115 128 115 115 128 115 115 128 115 115 128 115 115 128 115 115 128 115 115 128 115 115 128 115 115 128 115 115 128 115 115 
128 115 115 128 115 115 128 115 115 128 115 115 128 115 115 128 115 115 128 115 115 128 115 115 128 115 115 128 115 115 128 115 115 128 115 115 128 115 115 128 115 115 128 115 115 128 115 115 128 115 115 128 115 115 128 115 115 128 115 115 128 115 115 128 115 115 128 115 115 128 115 115 128 115 115 128 115 115 128 115 115 128 115 115 128 115 115 128 115 115 128 115 115 128 115 115 128 115 115 128 115 115 128 115 115 128 115 115 128 115 115 128 115 115 128 115 115 128 115 115 128 115 115 128 115 115 128 115 115 128 115 115 128 115 115 128 115 115 128 115 115 128 115 115 128 115 115 128 115 115 128 115 115 128 115 115 128 115 115 128 115 115 128 115 115 128 115 115 128 115 115 128 115 115 128 115 115 128 115 115 128 115 115 128 115 115 128 115 115 128 115 115 128 115 115 128 115 115 128 115 115 128 115 115 128 115 115 128 115 115 128 115 115 128 115 115 128 115 115 128 115 115 128 115 115 128 115 115 128 115 115 128 115 115 128 115 115 128 115 115 128 115 115 128 115 115 128 115 115 128 115 115 128 115 115 128 115 115 128 115 115 128 115 115 128 115 115 128 115 115 128 115 115 128 115 115 128 115 115 128 115 115 128 115 115 128 115 115 128 115 115 128 115 115 128 115 115 128 115 115 128 115 115 128 115 115 128 115 115 128 115 115 128 115 115 128 115 115 128 115 115 128 115 115 128 115 115 128 115 115 128 115 115 128 115 115 128 115 115 128 115 115 128 115 115 128 115 115 128 115 115 128 115 115 128 115 115 128 115 115 128 115 115 128 115 115 128 115 115 128 115 115 128 115 115 128 115 115 128 115 115 128 115 115 128 115 115 128 115 115 128 115 115 128 115 115 128 115 115 128 115 115 128 115 115 128 115 115 128 115 115 128 115 115 128 115 115 128 115 115 128 115 115 128 115 115 128 115 115 128 115 115 128 115 115 128 115 115 128 115 115 128 115 115 128 115 115 128 115 115 128 115 115 128 115 115 128 115 115 128 115 115 128 115 115 128 115 115 128 115 115 128 115 115 128 115 115 128 115 115 128 115 115 128 115 115 128 115 115 128 115 115 128 115 115 128 115 115 128 115 115 128 115 115 128 115 115 128 115 115 128 115 115 128 115 115 128 115 115 128 115 115 128 115 115 128 115 115 128 115 115 128 115 115 128 115 115 128 115 115 128 115 115 128 115 115 128 115 115 128 115 115 128 115 115 128 115 115 128 115 115 128 115 115 128 115 115 128 115 115 128 115 115 128 115 115 128 115 115 128 115 115 128 115 115 128 115 115 128 115 115 128 115 115 128 115 115 128 115 115 
128 115 115 128 115 115 128 115 115 128 115 115 128 115 115 128 115 115 128 115 115 128 115 115 128 115 115 128 115 115 128 115 115 128 115 115 128 115 115 128 115 115 128 115 115 128 115 115 128 115 115 128 115 115 128 115 115 128 115 115 128 115 115 128 115 115 128 115 115 128 115 115 128 115 115 128 115 115 128 115 115 128 115 115 128 115 115 128 115 115 128 115 115 128 115 115 128 115 115 128 115 115 128 115 115 128 115 115 128 115 115 128 115 115 128 115 115 128 115 115 128 115 115 128 115 115 128 115 115 128 115 115 128 115 115 128 115 115 128 115 115 128 115 115 128 115 115 128 115 115 128 115 115 128 115 115 128 115 115 128 115 115 128 115 115 128 115 115 128 115 115 128 115 115 128 115 115 128 115 115 128 115 115 128 115 115 128 115 115 128 115 115 128 115 115 128 115 115 128 115 115 128 115 115 128 115 115 128 115 115 128 115 115 128 115 115 128 115 115 128 115 115 128 115 115 128 115 115 128 115 115 128 115 115 128 115 115 128 115 115 128 115 115 128 115 115 128 115 115 128 115 115 128 115 115 128 115 115 128 115 115 128 115 115 128 115 115 128 115 115 128 115 115 128 115 115 128 115 115 128 115 115 128 115 115 128 115 115 128 115 115 128 115 115 128 115 115 128 115 115 128 115 115 128 115 115 128 115 115 128 115 115 128 115 115 128 115 115 128 115 115 128 115 115 128 115 115 128 115 115 128 115 115 128 115 115 128 115 115 128 115 115 128 115 115 128 115 115 128 115 115 128 115 115 128 115 115 128 115 115 128 115 115 128 115 115 128 115 115 128 115 115 128 115 115 128 115 115 128 115 115 128 115 115 128 115 115 128 115 115 128 115 115 128 115 115 128 115 115 128 115 115 128 115 115 128 115 115 128 115 115 128 115 115 128 115 115 128 115 115 128 115 115 128 115 115 128 115 115 128 115 115 128 115 115 128 115 115 128 115 115 128 115 115 128 115 115 128 115 115 128 115 115 128 115 115 128 115 115 128 115 115 128 115 115 128 115 115 128 115 115 128 115 115 128 115 115 128 115 115 128 115 115 128 115 115 128 115 115 128 115 115 128 115 115 128 115 115 128 115 115 128 115 115 128 115 115 128 115 115 128 115 115 128 115 115 128 115 115 128 115 115 128 115 115 128 115 115 128 115 115 128 115 115 128 115 115 128 115 115 128 115 115 128 115 115 128 115 115 128 115 115 128 115 115 128 115 115 128 115 115 128 115 115 128 115 115 128 115 115 128 115 115 128 115 115 128 115 115 128 115 115 128 115 115 128 115 115 128 115 115 128 115 115 128 115 115 128 115 115 
128 115 115 128 115 115 128 115 115 128 115 115 128 115 115 128 115 115 128 115 115 128 115 115 128 115 115 128 115 115 128 115 115 128 115 115 128 115 115 128 115 115 128 115 115 128 115 115 128 115 115 128 115 115 128 115 115 128 115 115 128 115 115 128 115 115 128 115 115 128 115 115 128 115 115 128 115 115 128 115 115 128 115 115 128 115 115 128 115 115 128 115 115 128 115 115 128 115 115 128 115 115 128 115 115 128 115 115 128 115 115 128 115 115 128 115 115 128 115 115 128 115 115 128 115 115 128 115 115 128 115 115 128 115 115 128 115 115 128 115 115 128 115 115 128 115 115 128 115 115 128 115 115 128 115 115 128 115 115 128 115 115 128 115 115 128 115 115 128 115 115 128 115 115 128 115 115 128 115 115 128 115 115 128 115 115 128 115 115 128 115 115 128 115 115 128 115 115 128 115 115 128 115 115 128 115 115 128 115 115 128 115 115 128 115 115 128 115 115 128 115 115 128 115 115 128 115 115 128 115 115 128 115 115 128 115 115 128 115 115 128 115 115 128 115 115 128 115 115 128 115 115 128 115 115 128 115 115 128 115 115 128 115 115 128 115 115 128 115 115 128 115 115 128 115 115 128 115 115 128 115 115 128 115 115 128 115 115 128 115 115 128 115 115 128 115 115 128 115 115 128 115 115 128 115 115 128 115 115 128 115 115 128 115 115 128 115 115 128 115 115 128 115 115 128 115 115 128 115 115 128 115 115 128 115 115 128 115 115 128 115 115 128 115 115 128 115 115 128 115 115 128 115 115 128 115 115 128 115 115 128 115 115 128 115 115 128 115 115 128 115 115 128 115 115 128 115 115 128 115 115 128 115 115 128 115 115 128 115 115 128 115 115 128 115 115 128 115 115 128 115 115 128 115 115 128 115 115 128 115 115 128 115 115 128 115 115 128 115 115 128 115 115 128 115 115 128 115 115 128 115 115 128 115 115 128 115 115 128 115 115 128 115 115 128 115 115 128 115 115 128 115 115 128 115 115 128 115 115 128 115 115 128 115 115 128 115 115 128 115 115 128 115 115 128 115 115 128 115 115 128 115 115 128 115 115 128 115 115 128 115 115 128 115 115 128 115 115 128 115 115 128 115 115 128 115 115 128 115 115 128 115 115 128 115 115 128 115 115 128 115 115 128 115 115 128 115 115 128 115 115 128 115 115 128 115 115 128 115 115 128 115 115 128 115 115 128 115 115 128 115 115 128 115 115 128 115 115 128 115 115 128 115 115 128 115 115 128 115 115 128 115 115 128 115 115 128 115 115 128 115 115 128 115 115 128 115 115 128 115 115 128 115 115 128 115 115 128 115 115 
128 115 115 128 115 115 128 115 115 128 115 115 128 115 115 128 115 115 128 115 115 128 115 115 128 115 115 128 115 115 128 115 115 128 115 115 128 115 115 128 115 115 128 115 115 128 115 115 128 115 115 128 115 115 128 115 115 128 115 115 128 115 115 128 115 115 128 115 115 128 115 115 128 115 115 128 115 115 128 115 115 128 115 115 128 115 115 128 115 115 128 115 115 128 115 115 128 115 115 128 115 115 128 115 115 128 115 115 128 115 115 128 115 115 128 115 115 128 115 115 128 115 115 128 115 115 128 115 115 128 115 115 128 115 115 128 115 115 128 115 115 128 115 115 128 115 115 128 115 115 128 115 115 128 115 115 128 115 115 128 115 115 128 115 115 128 115 115 128 115 115 128 115 115 128 115 115 128 115 115 128 115 115 128 115 115 128 115 115 128 115 115 128 115 115 128 115 115 128 115 115 128 115 115 128 115 115 128 115 115 128 115 115 128 115 115 128 115 115 128 115 115 128 115 115 128 115 115 128 115 115 128 115 115 128 115 115 128 115 115 128 115 115 128 115 115 128 115 115 128 115 115 128 115 115 128 115 115 128 115 115 128 115 115 128 115 115 128 115 115 128 115 115 128 115 115 128 115 115 128 115 115 128 115 115 128 115 115 128 115 115 128 115 115 128 115 115 128 115 115 128 115 115 128 115 115 128 115 115 128 115 115 128 115 115 128 115 115 128 115 115 128 115 115 128 115 115 128 115 115 128 115 115 128 115 115 128 115 115 128 115 115 128 115 115 128 115 115 128 115 115 128 115 115 128 115 115 128 115 115 128 115 115 128 115 115 128 115 115 128 115 115 128 115 115 128 115 115 128 115 115 128 115 115 128 115 115 128 115 115 128 115 115 128 115 115 128 115 115 128 115 115 128 115 115 128 115 115 128 115 115 128 115 115 128 115 115 128 115 115 128 115 115 128 115 115 128 115 115 128 115 115 128 115 115 128 115 115 128 115 115 128 115 115 128 115 115 128 115 115 128 115 115 128 115 115 128 115 115 128 115 115 128 115 115 128 115 115 128 115 115 128 115 115 128 115 115 128 115 115 128 115 115 128 115 115 128 115 115 128 115 115 128 115 115 128 115 115 128 115 115 128 115 115 128 115 115 128 115 115 128 115 115 128 115 115 128 115 115 128 115 115 128 115 115 128 115 115 128 115 115 128 115 115 128 115 115 128 115 115 128 115 115 128 115 115 128 115 115 128 115 115 128 115 115 128 115 115 128 115 115 128 115 115 128 115 115 128 115 115 128 115 115 128 115 115 128 115 115 128 115 115 128 115 115 128 115 115 128 115 115 128 115 115 128 115 115 128 115 115 
128 115 115 128 115 115 128 115 115 128 115 115 128 115 115 128 115 115 128 115 115 128 115 115 128 115 115 128 115 115 128 115 115 128 115 115 128 115 115 128 115 115 128 115 115 128 115 115 128 115 115 128 115 115 128 115 115 128 115 115 128 115 115 128 115 115 128 115 115 128 115 115 128 115 115 128 115 115 128 115 115 128 115 115 128 115 115 128 115 115 128 115 115 128 115 115 128 115 115 128 115 115 128 115 115 128 115 115 128 115 115 128 115 115 128 115 115 128 115 115 128 115 115 128 115 115 128 115 115 128 115 115 128 115 115 128 115 115 128 115 115 128 115 115 128 115 115 128 115 115 128 115 115 128 115 115 128 115 115 128 115 115 128 115 115 128 115 115 128 115 115 128 115 115 128 115 115 128 115 115 128 115 115 128 115 115 128 115 115 128 115 115 128 115 115 128 115 115 128 115 115 128 115 115 128 115 115 128 115 115 128 115 115 128 115 115 128 115 115 128 115 115 128 115 115 128 115 115 128 115 115 128 115 115 128 115 115 128 115 115 128 115 115 128 115 115 128 115 115 128 115 115 128 115 115 128 115 115 128 115 115 128 115 115 128 115 115 128 115 115 128 115 115 128 115 115 128 115 115 128 115 115 128 115 115 128 115 115 128 115 115 128 115 115 128 115 115 128 115 115 128 115 115 128 115 115 128 115 115 128 115 115 128 115 115 128 115 115 128 115 115 128 115 115 128 115 115 128 115 115 128 115 115 128 115 115 128 115 115 128 115 115 128 115 115 128 115 115 128 115 115 128 115 115 128 115 115 128 115 115 128 115 115 128 115 115 128 115 115 128 115 115 128 115 115 128 115 115 128 115 115 128 115 115 128 115 115 128 115 115 128 115 115 128 115 115 128 115 115 128 115 115 128 115 115 128 115 115 128 115 115 128 115 115 128 115 115 128 115 115 128 115 115 128 115 115 128 115 115 128 115 115 128 115 115 128 115 115 128 115 115 128 115 115 128 115 115 128 115 115 128 115 115 128 115 115 128 115 115 128 115 115 128 115 115 128 115 115 128 115 115 128 115 115 128 115 115 128 115 115 128 115 115 128 115 115 128 115 115 128 115 115 128 115 115 128 115 115 128 115 115 128 115 115 128 115 115 128 115 115 128 115 115 128 115 115 128 115 115 128 115 115 128 115 115 128 115 115 128 115 115 128 115 115 128 115 115 128 115 115 128 115 115 128 115 115 128 115 115 128 115 115 128 115 115 128 115 115 128 115 115 128 115 115 128 115 115 128 115 115 128 115 115 128 115 115 128 115 115 128 115 115 128 115 115 128 115 115 128 115 115 128 115 115 128 115 115 128 115 115 
128 115 115 128 115 115 128 115 115 128 115 115 128 115 115 128 115 115 128 115 115 128 115 115 128 115 115 128 115 115 128 115 115 128 115 115 128 115 115 128 115 115 128 115 115 128 115 115 128 115 115 128 115 115 128 115 115 128 115 115 128 115 115 128 115 115 128 115 115 128 115 115 128 115 115 128 115 115 128 115 115 128 115 115 128 115 115 128 115 115 128 115 115 128 115 115 128 115 115 128 115 115 128 115 115 128 115 115 128 115 115 128 115 115 128 115 115 128 115 115 128 115 115 128 115 115 128 115 115 128 115 115 128 115 115 128 115 115 128 115 115 128 115 115 128 115 115 128 115 115 128 115 115 128 115 115 128 115 115 128 115 115 128 115 115 128 115 115 128 115 115 128 115 115 128 115 115 128 115 115 128 115 115 128 115 115 128 115 115 128 115 115 128 115 115 128 115 115 128 115 115 128 115 115 128 115 115 128 115 115 128 115 115 128 115 115 128 115 115 128 115 115 128 115 115 128 115 115 128 115 115 128 115 115 128 115 115 128 115 115 128 115 115 128 115 115 128 115 115 128 115 115 128 115 115 128 115 115 128 115 115 128 115 115 128 115 115 128 115 115 128 115 115 128 115 115 128 115 115 128 115 115 128 115 115 128 115 115 128 115 115 128 115 115 128 115 115 128 115 115 128 115 115 128 115 115 128 115 115 128 115 115 128 115 115 128 115 115 128 115 115 128 115 115 128 115 115 128 115 115 128 115 115 128 115 115 128 115 115 128 115 115 128 115 115 128 115 115 128 115 115 128 115 115 128 115 115 128 115 115 128 115 115 128 115 115 128 115 115 128 115 115 128 115 115 128 115 115 128 115 115 128 115 115 128 115 115 128 115 115 128 115 115 128 115 115 128 115 115 128 115 115 128 115 115 128 115 115 128 115 115 128 115 115 128 115 115 128 115 115 128 115 115 128 115 115 128 115 115 128 115 115 128 115 115 128 115 115 128 115 115 128 115 115 128 115 115 128 115 115 128 115 115 128 115 115 128 115 115 128 115 115 128 115 115 128 115 115 128 115 115 128 115 115 128 115 115 128 115 115 128 115 115 128 115 115 128 115 115 128 115 115 128 115 115 128 115 115 128 115 115 128 115 115 128 115 115 128 115 115 128 115 115 128 115 115 128 115 115 128 115 115 128 115 115 128 115 115 128 115 115 128 115 115 128 115 115 128 115 115 128 115 115 128 115 115 128 115 115 128 115 115 128 115 115 128 115 115 128 115 115 128 115 115 128 115 115 128 115 115 128 115 115 128 115 115 128 115 115 128 115 115 128 115 115 128 115 115 128 115 115 128 115 115 128 115 115 128 115 115 
128 115 115 128 115 115 128 115 115 128 115 115 128 115 115 128 115 115 128 115 115 128 115 115 128 115 115 128 115 115 128 115 115 128 115 115 128 115 115 128 115 115 128 115 115 128 115 115 128 115 115 128 115 115 128 115 115 128 115 115 128 115 115 128 115 115 128 115 115 128 115 115 128 115 115 128 115 115 128 115 115 128 115 115 128 115 115 128 115 115 128 115 115 128 115 115 128 115 115 128 115 115 128 115 115 128 115 115 128 115 115 128 115 115 128 115 115 128 115 115 128 115 115 128 115 115 128 115 115 128 115 115 128 115 115 128 115 115 128 115 115 128 115 115 128 115 115 128 115 115 128 115 115 128 115 115 128 115 115 128 115 115 128 115 115 128 115 115 128 115 115 128 115 115 128 115 115 128 115 115 128 115 115 128 115 115 128 115 115 128 115 115 128 115 115 128 115 115 128 115 115 128 115 115 128 115 115 128 115 115 128 115 115 128 115 115 128 115 115 128 115 115 128 115 115 128 115 115 128 115 115 128 115 115 128 115 115 128 115 115 128 115 115 128 115 115 128 115 115 128 115 115 128 115 115 128 115 115 128 115 115 128 115 115 128 115 115 128 115 115 128 115 115 128 115 115 128 115 115 128 115 115 128 115 115 128 115 115 128 115 115 128 115 115 128 115 115 128 115 115 128 115 115 128 115 115 128 115 115 128 115 115 128 115 115 128 115 115 128 115 115 128 115 115 128 115 115 128 115 115 128 115 115 128 115 115 128 115 115 128 115 115 128 115 115 128 115 115 128 115 115 128 115 115 128 115 115 128 115 115 128 115 115 128 115 115 128 115 115 128 115 115 128 115 115 128 115 115 128 115 115 128 115 115 128 115 115 128 115 115 128 115 115 128 115 115 128 115 115 128 115 115 128 115 115 128 115 115 128 115 115 128 115 115 128 115 115 128 115 115 128 115 115 128 115 115 128 115 115 128 115 115 128 115 115 128 115 115 128 115 115 128 115 115 128 115 115 128 115 115 128 115 115 128 115 115 128 115 115 128 115 115 128 115 115 128 115 115 128 115 115 128 115 115 128 115 115 128 115 115 128 115 115 128 115 115 128 115 115 128 115 115 128 115 115 128 115 115 128 115 115 128 115 115 128 115 115 128 115 115 128 115 115 128 115 115 128 115 115 128 115 115 128 115 115 128 115 115 128 115 115 128 115 115 128 115 115 128 115 115 128 115 115 128 115 115 128 115 115 128 115 115 128 115 115 128 115 115 128 115 115 128 115 115 128 115 115 128 115 115 128 115 115 128 115 115 128 115 115 128 115 115 128 115 115 128 115 115 128 115 115 128 115 115 128 115 115 128 115 115 
128 115 115 128 115 115 128 115 115 128 115 115 128 115 115 128 115 115 128 115 115 128 115 115 128 115 115 128 115 115 128 115 115 128 115 115 128 115 115 128 115 115 128 115 115 128 115 115 128 115 115 128 115 115 128 115 115 128 115 115 128 115 115 128 115 115 128 115 115 128 115 115 128 115 115 128 115 115 128 115 115 128 115 115 128 115 115 128 115 115 128 115 115 128 115 115 128 115 115 128 115 115 128 115 115 128 115 115 128 115 115 128 115 115 128 115 115 128 115 115 128 115 115 128 115 115 128 115 115 128 115 115 128 115 115 128 115 115 128 115 115 128 115 115 128 115 115 128 115 115 128 115 115 128 115 115 128 115 115 128 115 115 128 115 115 128 115 115 128 115 115 128 115 115 128 115 115 128 115 115 128 115 115 128 115 115 128 115 115 128 115 115 128 115 115 128 115 115 128 115 115 128 115 115 128 115 115 128 115 115 128 115 115 128 115 115 128 115 115 128 115 115 128 115 115 128 115 115 128 115 115 128 115 115 128 115 115 128 115 115 128 115 115 128 115 115 128 115 115 128 115 115 128 115 115 128 115 115 128 115 115 128 115 115 128 115 115 128 115 115 128 115 115 128 115 115 128 115 115 128 115 115 128 115 115 128 115 115 128 115 115 128 115 115 128 115 115 128 115 115 128 115 115 128 115 115 128 115 115 128 115 115 128 115 115 128 115 115 128 115 115 128 115 115 128 115 115 128 115 115 128 115 115 128 115 115 128 115 115 128 115 115 128 115 115 128 115 115 128 115 115 128 115 115 128 115 115 128 115 115 128 115 115 128 115 115 128 115 115 128 115 115 128 115 115 128 115 115 128 115 115 128 115 115 128 115 115 128 115 115 128 115 115 128 115 115 128 115 115 128 115 115 128 115 115 128 115 115 128 115 115 128 115 115 128 115 115 128 115 115 128 115 115 128 115 115 128 115 115 128 115 115 128 115 115 128 115 115 128 115 115 128 115 115 128 115 115 128 115 115 128 115 115 128 115 115 128 115 115 128 115 115 128 115 115 128 115 115 128 115 115 128 115 115 128 115 115 128 115 115 128 115 115 128 115 115 128 115 115 128 115 115 128 115 115 128 115 115 128 115 115 128 115 115 128 115 115 128 115 115 128 115 115 128 115 115 128 115 115 128 115 115 128 115 115 128 115 115 128 115 115 128 115 115 128 115 115 128 115 115 128 115 115 128 115 115 128 115 115 128 115 115 128 115 115 128 115 115 128 115 115 128 115 115 128 115 115 128 115 115 128 115 115 128 115 115 128 115 115 128 115 115 128 115 115 128 115 115 128 115 115 128 115 115 128 115 115 128 115 115 
128 115 115 128 115 115 128 115 115 128 115 115 128 115 115 128 115 115 128 115 115 128 115 115 128 115 115 128 115 115 128 115 115 128 115 115 128 115 115 128 115 115 128 115 115 128 115 115 128 115 115 128 115 115 128 115 115 128 115 115 128 115 115 128 115 115 128 115 115 128 115 115 128 115 115 128 115 115 128 115 115 128 115 115 128 115 115 128 115 115 128 115 115 128 115 115 128 115 115 128 115 115 128 115 115 128 115 115 128 115 115 128 115 115 128 115 115 128 115 115 128 115 115 128 115 115 128 115 115 128 115 115 128 115 115 128 115 115 128 115 115 128 115 115 128 115 115 128 115 115 128 115 115 128 115 115 128 115 115 128 115 115 128 115 115 128 115 115 128 115 115 128 115 115 128 115 115 128 115 115 128 115 115 128 115 115 128 115 115 128 115 115 128 115 115 128 115 115 128 115 115 128 115 115 128 115 115 128 115 115 128 115 115 128 115 115 128 115 115 128 115 115 128 115 115 128 115 115 128 115 115 128 115 115 128 115 115 128 115 115 128 115 115 128 115 115 128 115 115 128 115 115 128 115 115 128 115 115 128 115 115 128 115 115 128 115 115 128 115 115 128 115 115 128 115 115 128 115 115 128 115 115 128 115 115 128 115 115 128 115 115 128 115 115 128 115 115 128 115 115 128 115 115 128 115 115 128 115 115 128 115 115 128 115 115 128 115 115 128 115 115 128 115 115 128 115 115 128 115 115 128 115 115 128 115 115 128 115 115 128 115 115 128 115 115 128 115 115 128 115 115 128 115 115 128 115 115 128 115 115 128 115 115 128 115 115 128 115 115 128 115 115 128 115 115 128 115 115 128 115 115 128 115 115 128 115 115 128 115 115 128 115 115 128 115 115 128 115 115 128 115 115 128 115 115 128 115 115 128 115 115 128 115 115 128 115 115 128 115 115 128 115 115 128 115 115 128 115 115 128 115 115 128 115 115 128 115 115 128 115 115 128 115 115 128 115 115 128 115 115 128 115 115 128 115 115 128 115 115 128 115 115 128 115 115 128 115 115 128 115 115 128 115 115 128 115 115 128 115 115 128 115 115 128 115 115 128 115 115 128 115 115 128 115 115 128 115 115 128 115 115 128 115 115 128 115 115 128 115 115 128 115 115 128 115 115 128 115 115 128 115 115 128 115 115 128 115 115 128 115 115 128 115 115 128 115 115 128 115 115 128 115 115 128 115 115 128 115 115 128 115 115 128 115 115 128 115 115 128 115 115 128 115 115 128 115 115 128 115 115 128 115 115 128 115 115 128 115 115 128 115 115 128 115 115 128 115 115 128 115 115 128 115 115 128 115 115 128 115 115 
128 115 115 128 115 115 128 115 115 128 115 115 128 115 115 128 115 115 128 115 115 128 115 115 128 115 115 128 115 115 128 115 115 128 115 115 128 115 115 128 115 115 128 115 115 128 115 115 128 115 115 128 115 115 128 115 115 128 115 115 128 115 115 128 115 115 128 115 115 128 115 115 128 115 115 128 115 115 128 115 115 128 115 115 128 115 115 128 115 115 128 115 115 128 115 115 128 115 115 128 115 115 128 115 115 128 115 115 128 115 115 128 115 115 128 115 115 128 115 115 128 115 115 128 115 115 128 115 115 128 115 115 128 115 115 128 115 115 128 115 115 128 115 115 128 115 115 128 115 115 128 115 115 128 115 115 128 115 115 128 115 115 128 115 115 128 115 115 128 115 115 128 115 115 128 115 115 128 115 115 128 115 115 128 115 115 128 115 115 128 115 115 128 115 115 128 115 115 128 115 115 128 115 115 128 115 115 128 115 115 128 115 115 128 115 115 128 115 115 128 115 115 128 115 115 128 115 115 128 115 115 128 115 115 128 115 115 128 115 115 128 115 115 128 115 115 128 115 115 128 115 115 128 115 115 128 115 115 128 115 115 128 115 115 128 115 115 128 115 115 128 115 115 128 115 115 128 115 115 128 115 115 128 115 115 128 115 115 128 115 115 128 115 115 128 115 115 128 115 115 128 115 115 128 115 115 128 115 115 128 115 115 128 115 115 128 115 115 128 115 115 128 115 115 128 115 115 128 115 115 128 115 115 128 115 115 128 115 115 128 115 115 128 115 115 128 115 115 128 115 115 128 115 115 128 115 115 128 115 115 128 115 115 128 115 115 128 115 115 128 115 115 128 115 115 128 115 115 128 115 115 128 115 115 128 115 115 128 115 115 128 115 115 128 115 115 128 115 115 128 115 115 128 115 115 128 115 115 128 115 115 128 115 115 128 115 115 128 115 115 128 115 115 128 115 115 128 115 115 128 115 115 128 115 115 128 115 115 128 115 115 128 115 115 128 115 115 128 115 115 128 115 115 128 115 115 128 115 115 128 115 115 128 115 115 128 115 115 128 115 115 128 115 115 128 115 115 128 115 115 128 115 115 128 115 115 128 115 115 128 115 115 128 115 115 128 115 115 128 115 115 128 115 115 128 115 115 128 115 115 128 115 115 128 115 115 128 115 115 128 115 115 128 115 115 128 115 115 128 115 115 128 115 115 128 115 115 128 115 115 128 115 115 128 115 115 128 115 115 128 115 115 128 115 115 128 115 115 128 115 115 128 115 115 128 115 115 128 115 115 128 115 115 128 115 115 128 115 115 128 115 115 128 115 115 128 115 115 128 115 115 128 115 115 128 115 115 128 115 115 
128 115 115 128 115 115 128 115 115 128 115 115 128 115 115 128 115 115 128 115 115 128 115 115 128 115 115 128 115 115 128 115 115 128 115 115 128 115 115 128 115 115 128 115 115 128 115 115 128 115 115 128 115 115 128 115 115 128 115 115 128 115 115 128 115 115 128 115 115 128 115 115 128 115 115 128 115 115 128 115 115 128 115 115 128 115 115 128 115 115 128 115 115 128 115 115 128 115 115 128 115 115 128 115 115 128 115 115 128 115 115 128 115 115 128 115 115 128 115 115 128 115 115 128 115 115 128 115 115 128 115 115 128 115 115 128 115 115 128 115 115 128 115 115 128 115 115 128 115 115 128 115 115 128 115 115 128 115 115 128 115 115 128 115 115 128 115 115 128 115 115 128 115 115 128 115 115 128 115 115 128 115 115 128 115 115 128 115 115 128 115 115 128 115 115 128 115 115 128 115 115 128 115 115 128 115 115 128 115 115 128 115 115 128 115 115 128 115 115 128 115 115 128 115 115 128 115 115 128 115 115 128 115 115 128 115 115 128 115 115 128 115 115 128 115 115 128 115 115 128 115 115 128 115 115 128 115 115 128 115 115 128 115 115 128 115 115 128 115 115 128 115 115 128 115 115 128 115 115 128 115 115 128 115 115 128 115 115 128 115 115 128 115 115 128 115 115 128 115 115 128 115 115 128 115 115 128 115 115 128 115 115 128 115 115 128 115 115 128 115 115 128 115 115 128 115 115 128 115 115 128 115 115 128 115 115 128 115 115 128 115 115 128 115 115 128 115 115 128 115 115 128 115 115 128 115 115 128 115 115 128 115 115 128 115 115 128 115 115 128 115 115 128 115 115 128 115 115 128 115 115 128 115 115 128 115 115 128 115 115 128 115 115 128 115 115 128 115 115 128 115 115 128 115 115 128 115 115 128 115 115 128 115 115 128 115 115 128 115 115 128 115 115 128 115 115 128 115 115 128 115 115 128 115 115 128 115 115 128 115 115 128 115 115 128 115 115 128 115 115 128 115 115 128 115 115 128 115 115 128 115 115 128 115 115 128 115 115 128 115 115 128 115 115 128 115 115 128 115 115 128 115 115 128 115 115 128 115 115 128 115 115 128 115 115 128 115 115 128 115 115 128 115 115 128 115 115 128 115 115 128 115 115 128 115 115 128 115 115 128 115 115 128 115 115 128 115 115 128 115 115 128 115 115 128 115 115 128 115 115 128 115 115 128 115 115 128 115 115 128 115 115 128 115 115 128 115 115 128 115 115 128 115 115 128 115 115 128 115 115 128 115 115 128 115 115 128 115 115 128 115 115 128 115 115 128 115 115 128 115 115 128 115 115 128 115 115 128 115 115 
128 115 115 128 115 115 128 115 115 128 115 115 128 115 115 128 115 115 128 115 115 128 115 115 128 115 115 128 115 115 128 115 115 128 115 115 128 115 115 128 115 115 128 115 115 128 115 115 128 115 115 128 115 115 128 115 115 128 115 115 128 115 115 128 115 115 128 115 115 128 115 115 128 115 115 128 115 115 128 115 115 128 115 115 128 115 115 128 115 115 128 115 115 128 115 115 128 115 115 128 115 115 128 115 115 128 115 115 128 115 115 128 115 115 128 115 115 128 115 115 128 115 115 128 115 115 128 115 115 128 115 115 128 115 115 128 115 115 128 115 115 128 115 115 128 115 115 128 115 115 128 115 115 128 115 115 128 115 115 128 115 115 128 115 115 128 115 115 128 115 115 128 115 115 128 115 115 128 115 115 128 115 115 128 115 115 128 115 115 128 115 115 128 115 115 128 115 115 128 115 115 128 115 115 128 115 115 128 115 115 128 115 115 128 115 115 128 115 115 128 115 115 128 115 115 128 115 115 128 115 115 128 115 115 128 115 115 128 115 115 128 115 115 128 115 115 128 115 115 128 115 115 128 115 115 128 115 115 128 115 115 128 115 115 128 115 115 128 115 115 128 115 115 128 115 115 128 115 115 128 115 115 128 115 115 128 115 115 128 115 115 128 115 115 128 115 115 128 115 115 128 115 115 128 115 115 128 115 115 128 115 115 128 115 115 128 115 115 128 115 115 128 115 115 128 115 115 128 115 115 128 115 115 128 115 115 128 115 115 128 115 115 128 115 115 128 115 115 128 115 115 128 115 115 128 115 115 128 115 115 128 115 115 128 115 115 128 115 115 128 115 115 128 115 115 128 115 115 128 115 115 128 115 115 128 115 115 128 115 115 128 115 115 128 115 115 128 115 115 128 115 115 128 115 115 128 115 115 128 115 115 128 115 115 128 115 115 128 115 115 128 115 115 128 115 115 128 115 115 128 115 115 128 115 115 128 115 115 128 115 115 128 115 115 128 115 115 128 115 115 128 115 115 128 115 115 128 115 115 128 115 115 128 115 115 128 115 115 128 115 115 128 115 115 128 115 115 128 115 115 128 115 115 128 115 115 128 115 115 128 115 115 128 115 115 128 115 115 128 115 115 128 115 115 128 115 115 128 115 115 128 115 115 128 115 115 128 115 115 128 115 115 128 115 115 128 115 115 128 115 115 128 115 115 128 115 115 128 115 115 128 115 115 128 115 115 128 115 115 128 115 115 128 115 115 128 115 115 128 115 115 128 115 115 128 115 115 128 115 115 128 115 115 128 115 115 128 115 115 128 115 115 128 115 115 128 115 115 128 115 115 128 115 115 128 115 115 128 115 115 
128 115 115 128 115 115 128 115 115 128 115 115 128 115 115 128 115 115 128 115 115 128 115 115 128 115 115 128 115 115 128 115 115 128 115 115 128 115 115 128 115 115 128 115 115 128 115 115 128 115 115 128 115 115 128 115 115 128 115 115 128 115 115 128 115 115 128 115 115 128 115 115 128 115 115 128 115 115 128 115 115 128 115 115 128 115 115 128 115 115 128 115 115 128 115 115 128 115 115 128 115 115 128 115 115 128 115 115 128 115 115 128 115 115 128 115 115 128 115 115 128 115 115 128 115 115 128 115 115 128 115 115 128 115 115 128 115 115 128 115 115 128 115 115 128 115 115 128 115 115 128 115 115 128 115 115 128 115 115 128 115 115 128 115 115 128 115 115 128 115 115 128 115 115 128 115 115 128 115 115 128 115 115 128 115 115 128 115 115 128 115 115 128 115 115 128 115 115 128 115 115 128 115 115 128 115 115 128 115 115 128 115 115 128 115 115 128 115 115 128 115 115 128 115 115 128 115 115 128 115 115 128 115 115 128 115 115 128 115 115 128 115 115 128 115 115 128 115 115 128 115 115 128 115 115 128 115 115 128 115 115 128 115 115 128 115 115 128 115 115 128 115 115 128 115 115 128 115 115 128 115 115 128 115 115 128 115 115 128 115 115 128 115 115 128 115 115 128 115 115 128 115 115 128 115 115 128 115 115 128 115 115 128 115 115 128 115 115 128 115 115 128 115 115 128 115 115 128 115 115 128 115 115 128 115 115 128 115 115 128 115 115 128 115 115 128 115 115 128 115 115 128 115 115 128 115 115 128 115 115 128 115 115 128 115 115 128 115 115 128 115 115 128 115 115 128 115 115 128 115 115 128 115 115 128 115 115 128 115 115 128 115 115 128 115 115 128 115 115 128 115 115 128 115 115 128 115 115 128 115 115 128 115 115 128 115 115 128 115 115 128 115 115 128 115 115 128 115 115 128 115 115 128 115 115 128 115 115 128 115 115 128 115 115 128 115 115 128 115 115 128 115 115 128 115 115 128 115 115 128 115 115 128 115 115 128 115 115 128 115 115 128 115 115 128 115 115 128 115 115 128 115 115 128 115 115 128 115 115 128 115 115 128 115 115 128 115 115 128 115 115 128 115 115 128 115 115 128 115 115 128 115 115 128 115 115 128 115 115 128 115 115 128 115 115 128 115 115 128 115 115 128 115 115 128 115 115 128 115 115 128 115 115 128 115 115 128 115 115 128 115 115 128 115 115 128 115 115 128 115 115 128 115 115 128 115 115 128 115 115 128 115 115 128 115 115 128 115 115 128 115 115 128 115 115 128 115 115 128 115 115 128 115 115 128 115 115 128 115 115 
128 115 115 128 115 115 128 115 115 128 115 115 128 115 115 128 115 115 128 115 115 128 115 115 128 115 115 128 115 115 128 115 115 128 115 115 128 115 115 128 115 115 128 115 115 128 115 115 128 115 115 128 115 115 128 115 115 128 115 115 128 115 115 128 115 115 128 115 115 128 115 115 128 115 115 128 115 115 128 115 115 128 115 115 128 115 115 128 115 115 128 115 115 128 115 115 128 115 115 128 115 115 128 115 115 128 115 115 128 115 115 128 115 115 128 115 115 128 115 115 128 115 115 128 115 115 128 115 115 128 115 115 128 115 115 128 115 115 128 115 115 128 115 115 128 115 115 128 115 115 128 115 115 128 115 115 128 115 115 128 115 115 128 115 115 128 115 115 128 115 115 128 115 115 128 115 115 128 115 115 128 115 115 128 115 115 128 115 115 128 115 115 128 115 115 128 115 115 128 115 115 128 115 115 128 115 115 128 115 115 128 115 115 128 115 115 128 115 115 128 115 115 128 115 115 128 115 115 128 115 115 128 115 115 128 115 115 128 115 115 128 115 115 128 115 115 128 115 115 128 115 115 128 115 115 128 115 115 128 115 115 128 115 115 128 115 115 128 115 115 128 115 115 128 115 115 128 115 115 128 115 115 128 115 115 128 115 115 128 115 115 128 115 115 128 115 115 128 115 115 128 115 115 128 115 115 128 115 115 128 115 115 128 115 115 128 115 115 128 115 115 128 115 115 128 115 115 128 115 115 128 115 115 128 115 115 128 115 115 128 115 115 128 115 115 128 115 115 128 115 115 128 115 115 128 115 115 128 115 115 128 115 115 128 115 115 128 115 115 128 115 115 128 115 115 128 115 115 128 115 115 128 115 115 128 115 115 128 115 115 128 115 115 128 115 115 128 115 115 128 115 115 128 115 115 128 115 115 128 115 115 128 115 115 128 115 115 128 115 115 128 115 115 128 115 115 128 115 115 128 115 115 128 115 115 128 115 115 128 115 115 128 115 115 128 115 115 128 115 115 128 115 115 128 115 115 128 115 115 128 115 115 128 115 115 128 115 115 128 115 115 128 115 115 128 115 115 128 115 115 128 115 115 128 115 115 128 115 115 128 115 115 128 115 115 128 115 115 128 115 115 128 115 115 128 115 115 128 115 115 128 115 115 128 115 115 128 115 115 128 115 115 128 115 115 128 115 115 128 115 115 128 115 115 128 115 115 128 115 115 128 115 115 128 115 115 128 115 115 128 115 115 128 115 115 128 115 115 128 115 115 128 115 115 128 115 115 128 115 115 128 115 115 128 115 115 128 115 115 128 115 115 128 115 115 128 115 115 128 115 115 128 115 115 128 115 115 128 115 115 
128 115 115 128 115 115 128 115 115 128 115 115 128 115 115 128 115 115 128 115 115 128 115 115 128 115 115 128 115 115 128 115 115 128 115 115 128 115 115 128 115 115 128 115 115 128 115 115 128 115 115 128 115 115 128 115 115 128 115 115 128 115 115 128 115 115 128 115 115 128 115 115 128 115 115 128 115 115 128 115 115 128 115 115 128 115 115 128 115 115 128 115 115 128 115 115 128 115 115 128 115 115 128 115 115 128 115 115 128 115 115 128 115 115 128 115 115 128 115 115 128 115 115 128 115 115 128 115 115 128 115 115 128 115 115 128 115 115 128 115 115 128 115 115 128 115 115 128 115 115 128 115 115 128 115 115 128 115 115 128 115 115 128 115 115 128 115 115 128 115 115 128 115 115 128 115 115 128 115 115 128 115 115 128 115 115 128 115 115 128 115 115 128 115 115 128 115 115 128 115 115 128 115 115 128 115 115 128 115 115 128 115 115 128 115 115 128 115 115 128 115 115 128 115 115 128 115 115 128 115 115 128 115 115 128 115 115 128 115 115 128 115 115 128 115 115 128 115 115 128 115 115 128 115 115 128 115 115 128 115 115 128 115 115 128 115 115 128 115 115 128 115 115 128 115 115 128 115 115 128 115 115 128 115 115 128 115 115 128 115 115 128 115 115 128 115 115 128 115 115 128 115 115 128 115 115 128 115 115 128 115 115 128 115 115 128 115 115 128 115 115 128 115 115 128 115 115 128 115 115 128 115 115 128 115 115 128 115 115 128 115 115 128 115 115 128 115 115 128 115 115 128 115 115 128 115 115 128 115 115 128 115 115 128 115 115 128 115 115 128 115 115 128 115 115 128 115 115 128 115 115 128 115 115 128 115 115 128 115 115 128 115 115 128 115 115 128 115 115 128 115 115 128 115 115 128 115 115 128 115 115 128 115 115 128 115 115 128 115 115 128 115 115 128 115 115 128 115 115 128 115 115 128 115 115 128 115 115 128 115 115 128 115 115 128 115 115 128 115 115 128 115 115 128 115 115 128 115 115 128 115 115 128 115 115 128 115 115 128 115 115 128 115 115 128 115 115 128 115 115 128 115 115 128 115 115 128 115 115 128 115 115 128 115 115 128 115 115 128 115 115 128 115 115 128 115 115 128 115 115 128 115 115 128 115 115 128 115 115 128 115 115 128 115 115 128 115 115 128 115 115 128 115 115 128 115 115 128 115 115 128 115 115 128 115 115 128 115 115 128 115 115 128 115 115 128 115 115 128 115 115 128 115 115 128 115 115 128 115 115 128 115 115 128 115 115 128 115 115 128 115 115 128 115 115 128 115 115 128 115 115 128 115 115 128 115 115 128 115 115 
128 115 115 128 115 115 128 115 115 128 115 115 128 115 115 128 115 115 128 115 115 128 115 115 128 115 115 128 115 115 128 115 115 128 115 115 128 115 115 128 115 115 128 115 115 128 115 115 128 115 115 128 115 115 128 115 115 128 115 115 128 115 115 128 115 115 128 115 115 128 115 115 128 115 115 128 115 115 128 115 115 128 115 115 128 115 115 128 115 115 128 115 115 128 115 115 128 115 115 128 115 115 128 115 115 128 115 115 128 115 115 128 115 115 128 115 115 128 115 115 128 115 115 128 115 115 128 115 115 128 115 115 128 115 115 128 115 115 128 115 115 128 115 115 128 115 115 128 115 115 128 115 115 128 115 115 128 115 115 128 115 115 128 115 115 128 115 115 128 115 115 128 115 115 128 115 115 128 115 115 128 115 115 128 115 115 128 115 115 128 115 115 128 115 115 128 115 115 128 115 115 128 115 115 128 115 115 128 115 115 128 115 115 128 115 115 128 115 115 128 115 115 128 115 115 128 115 115 128 115 115 128 115 115 128 115 115 128 115 115 128 115 115 128 115 115 128 115 115 128 115 115 128 115 115 128 115 115 128 115 115 128 115 115 128 115 115 128 115 115 128 115 115 128 115 115 128 115 115 128 115 115 128 115 115 128 115 115 128 115 115 128 115 115 128 115 115 128 115 115 128 115 115 128 115 115 128 115 115 128 115 115 128 115 115 128 115 115 128 115 115 128 115 115 128 115 115 128 115 115 128 115 115 128 115 115 128 115 115 128 115 115 128 115 115 128 115 115 128 115 115 128 115 115 128 115 115 128 115 115 128 115 115 128 115 115 128 115 115 128 115 115 128 115 115 128 115 115 128 115 115 128 115 115 128 115 115 128 115 115 128 115 115 128 115 115 128 115 115 128 115 115 128 115 115 128 115 115 128 115 115 128 115 115 128 115 115 128 115 115 128 115 115 128 115 115 128 115 115 128 115 115 128 115 115 128 115 115 128 115 115 128 115 115 128 115 115 128 115 115 128 115 115 128 115 115 128 115 115 128 115 115 128 115 115 128 115 115 128 115 115 128 115 115 128 115 115 128 115 115 128 115 115 128 115 115 128 115 115 128 115 115 128 115 115 128 115 115 128 115 115 128 115 115 128 115 115 128 115 115 128 115 115 128 115 115 128 115 115 128 115 115 128 115 115 128 115 115 128 115 115 128 115 115 128 115 115 128 115 115 128 115 115 128 115 115 128 115 115 128 115 115 128 115 115 128 115 115 128 115 115 128 115 115 128 115 115 128 115 115 128 115 115 128 115 115 128 115 115 128 115 115 128 115 115 128 115 115 128 115 115 128 115 115 128 115 115 128 115 115 
128 115 115 128 115 115 128 115 115 128 115 115 128 115 115 128 115 115 128 115 115 128 115 115 128 115 115 128 115 115 128 115 115 128 115 115 128 115 115 128 115 115 128 115 115 128 115 115 128 115 115 128 115 115 128 115 115 128 115 115 128 115 115 128 115 115 128 115 115 128 115 115 128 115 115 128 115 115 128 115 115 128 115 115 128 115 115 128 115 115 128 115 115 128 115 115 128 115 115 128 115 115 128 115 115 128 115 115 128 115 115 128 115 115 128 115 115 128 115 115 128 115 115 128 115 115 128 115 115 128 115 115 128 115 115 128 115 115 128 115 115 128 115 115 128 115 115 128 115 115 128 115 115 128 115 115 128 115 115 128 115 115 128 115 115 128 115 115 128 115 115 128 115 115 128 115 115 128 115 115 128 115 115 128 115 115 128 115 115 128 115 115 128 115 115 128 115 115 128 115 115 128 115 115 128 115 115 128 115 115 128 115 115 128 115 115 128 115 115 128 115 115 128 115 115 128 115 115 128 115 115 128 115 115 128 115 115 128 115 115 128 115 115 128 115 115 128 115 115 128 115 115 128 115 115 128 115 115 128 115 115 128 115 115 128 115 115 128 115 115 128 115 115 128 115 115 128 115 115 128 115 115 128 115 115 128 115 115 128 115 115 128 115 115 128 115 115 128 115 115 128 115 115 128 115 115 128 115 115 128 115 115 128 115 115 128 115 115 128 115 115 128 115 115 128 115 115 128 115 115 128 115 115 128 115 115 128 115 115 128 115 115 128 115 115 128 115 115 128 115 115 128 115 115 128 115 115 128 115 115 128 115 115 128 115 115 128 115 115 128 115 115 128 115 115 128 115 115 128 115 115 128 115 115 128 115 115 128 115 115 128 115 115 128 115 115 128 115 115 128 115 115 128 115 115 128 115 115 128 115 115 128 115 115 128 115 115 128 115 115 128 115 115 128 115 115 128 115 115 128 115 115 128 115 115 128 115 115 128 115 115 128 115 115 128 115 115 128 115 115 128 115 115 128 115 115 128 115 115 128 115 115 128 115 115 128 115 115 128 115 115 128 115 115 128 115 115 128 115 115 128 115 115 128 115 115 128 115 115 128 115 115 128 115 115 128 115 115 128 115 115 128 115 115 128 115 115 128 115 115 128 115 115 128 115 115 128 115 115 128 115 115 128 115 115 128 115 115 128 115 115 128 115 115 128 115 115 128 115 115 128 115 115 128 115 115 128 115 115 128 115 115 128 115 115 128 115 115 128 115 115 128 115 115 128 115 115 128 115 115 128 115 115 128 115 115 128 115 115 128 115 115 128 115 115 128 115 115 128 115 115 128 115 115 128 115 115 128 115 115 
128 115 115 128 115 115 128 115 115 128 115 115 128 115 115 128 115 115 128 115 115 128 115 115 128 115 115 128 115 115 128 115 115 128 115 115 128 115 115 128 115 115 128 115 115 128 115 115 128 115 115 128 115 115 128 115 115 128 115 115 128 115 115 128 115 115 128 115 115 128 115 115 128 115 115 128 115 115 128 115 115 128 115 115 128 115 115 128 115 115 128 115 115 128 115 115 128 115 115 128 115 115 128 115 115 128 115 115 128 115 115 128 115 115 128 115 115 128 115 115 128 115 115 128 115 115 128 115 115 128 115 115 128 115 115 128 115 115 128 115 115 128 115 115 128 115 115 128 115 115 128 115 115 128 115 115 128 115 115 128 115 115 128 115 115 128 115 115 128 115 115 128 115 115 128 115 115 128 115 115 128 115 115 128 115 115 128 115 115 128 115 115 128 115 115 128 115 115 128 115 115 128 115 115 128 115 115 128 115 115 128 115 115 128 115 115 128 115 115 128 115 115 128 115 115 128 115 115 128 115 115 128 115 115 128 115 115 128 115 115 128 115 115 128 115 115 128 115 115 128 115 115 128 115 115 128 115 115 128 115 115 128 115 115 128 115 115 128 115 115 128 115 115 128 115 115 128 115 115 128 115 115 128 115 115 128 115 115 128 115 115 128 115 115 128 115 115 128 115 115 128 115 115 128 115 115 128 115 115 128 115 115 128 115 115 128 115 115 128 115 115 128 115 115 128 115 115 128 115 115 128 115 115 128 115 115 128 115 115 128 115 115 128 115 115 128 115 115 128 115 115 128 115 115 128 115 115 128 115 115 128 115 115 128 115 115 128 115 115 128 115 115 128 115 115 128 115 115 128 115 115 128 115 115 128 115 115 128 115 115 128 115 115 128 115 115 128 115 115 128 115 115 128 115 115 128 115 115 128 115 115 128 115 115 128 115 115 128 115 115 128 115 115 128 115 115 128 115 115 128 115 115 128 115 115 128 115 115 128 115 115 128 115 115 128 115 115 128 115 115 128 115 115 128 115 115 128 115 115 128 115 115 128 115 115 128 115 115 128 115 115 128 115 115 128 115 115 128 115 115 128 115 115 128 115 115 128 115 115 128 115 115 128 115 115 128 115 115 128 115 115 128 115 115 128 115 115 128 115 115 128 115 115 128 115 115 128 115 115 128 115 115 128 115 115 128 115 115 128 115 115 128 115 115 128 115 115 128 115 115 128 115 115 128 115 115 128 115 115 128 115 115 128 115 115 128 115 115 128 115 115 128 115 115 128 115 115 128 115 115 128 115 115 128 115 115 128 115 115 128 115 115 128 115 115 128 115 115 128 115 115 128 115 115 128 115 115 128 115 115 
128 115 115 128 115 115 128 115 115 128 115 115 128 115 115 128 115 115 128 115 115 128 115 115 128 115 115 128 115 115 128 115 115 128 115 115 128 115 115 128 115 115 128 115 115 128 115 115 128 115 115 128 115 115 128 115 115 128 115 115 128 115 115 128 115 115 128 115 115 128 115 115 128 115 115 128 115 115 128 115 115 128 115 115 128 115 115 128 115 115 128 115 115 128 115 115 128 115 115 128 115 115 128 115 115 128 115 115 128 115 115 128 115 115 128 115 115 128 115 115 128 115 115 128 115 115 128 115 115 128 115 115 128 115 115 128 115 115 128 115 115 128 115 115 128 115 115 128 115 115 128 115 115 128 115 115 128 115 115 128 115 115 128 115 115 128 115 115 128 115 115 128 115 115 128 115 115 128 115 115 128 115 115 128 115 115 128 115 115 128 115 115 128 115 115 128 115 115 128 115 115 128 115 115 128 115 115 128 115 115 128 115 115 128 115 115 128 115 115 128 115 115 128 115 115 128 115 115 128 115 115 128 115 115 128 115 115 128 115 115 128 115 115 128 115 115 128 115 115 128 115 115 128 115 115 128 115 115 128 115 115 128 115 115 128 115 115 128 115 115 128 115 115 128 115 115 128 115 115 128 115 115 128 115 115 128 115 115 128 115 115 128 115 115 128 115 115 128 115 115 128 115 115 128 115 115 128 115 115 128 115 115 128 115 115 128 115 115 128 115 115 128 115 115 128 115 115 128 115 115 128 115 115 128 115 115 128 115 115 128 115 115 128 115 115 128 115 115 128 115 115 128 115 115 128 115 115 128 115 115 128 115 115 128 115 115 128 115 115 128 115 115 128 115 115 128 115 115 128 115 115 128 115 115 128 115 115 128 115 115 128 115 115 128 115 115 128 115 115 128 115 115 128 115 115 128 115 115 128 115 115 128 115 115 128 115 115 128 115 115 128 115 115 128 115 115 128 115 115 128 115 115 128 115 115 128 115 115 128 115 115 128 115 115 128 115 115 128 115 115 128 115 115 128 115 115 128 115 115 128 115 115 128 115 115 128 115 115 128 115 115 128 115 115 128 115 115 128 115 115 128 115 115 128 115 115 128 115 115 128 115 115 128 115 115 128 115 115 128 115 115 128 115 115 128 115 115 128 115 115 128 115 115 128 115 115 128 115 115 128 115 115 128 115 115 128 115 115 128 115 115 128 115 115 128 115 115 128 115 115 128 115 115 128 115 115 128 115 115 128 115 115 128 115 115 128 115 115 128 115 115 128 115 115 128 115 115 128 115 115 128 115 115 128 115 115 128 115 115 128 115 115 128 115 115 128 115 115 128 115 115 128 115 115 128 115 115 128 115 115 
128 115 115 128 115 115 128 115 115 128 115 115 128 115 115 128 115 115 128 115 115 128 115 115 128 115 115 128 115 115 128 115 115 128 115 115 128 115 115 128 115 115 128 115 115 128 115 115 128 115 115 128 115 115 128 115 115 128 115 115 128 115 115 128 115 115 128 115 115 128 115 115 128 115 115 128 115 115 128 115 115 128 115 115 128 115 115 128 115 115 128 115 115 128 115 115 128 115 115 128 115 115 128 115 115 128 115 115 128 115 115 128 115 115 128 115 115 128 115 115 128 115 115 128 115 115 128 115 115 128 115 115 128 115 115 128 115 115 128 115 115 128 115 115 128 115 115 128 115 115 128 115 115 128 115 115 128 115 115 128 115 115 128 115 115 128 115 115 128 115 115 128 115 115 128 115 115 128 115 115 128 115 115 128 115 115 128 115 115 128 115 115 128 115 115 128 115 115 128 115 115 128 115 115 128 115 115 128 115 115 128 115 115 128 115 115 128 115 115 128 115 115 128 115 115 128 115 115 128 115 115 128 115 115 128 115 115 128 115 115 128 115 115 128 115 115 128 115 115 128 115 115 128 115 115 128 115 115 128 115 115 128 115 115 128 115 115 128 115 115 128 115 115 128 115 115 128 115 115 128 115 115 128 115 115 128 115 115 128 115 115 128 115 115 128 115 115 128 115 115 128 115 115 128 115 115 128 115 115 128 115 115 128 115 115 128 115 115 128 115 115 128 115 115 128 115 115 128 115 115 128 115 115 128 115 115 128 115 115 128 115 115 128 115 115 128 115 115 128 115 115 128 115 115 128 115 115 128 115 115 128 115 115 128 115 115 128 115 115 128 115 115 128 115 115 128 115 115 128 115 115 128 115 115 128 115 115 128 115 115 128 115 115 128 115 115 128 115 115 128 115 115 128 115 115 128 115 115 128 115 115 128 115 115 128 115 115 128 115 115 128 115 115 128 115 115 128 115 115 128 115 115 128 115 115 128 115 115 128 115 115 128 115 115 128 115 115 128 115 115 128 115 115 128 115 115 128 115 115 128 115 115 128 115 115 128 115 115 128 115 115 128 115 115 128 115 115 128 115 115 128 115 115 128 115 115 128 115 115 128 115 115 128 115 115 128 115 115 128 115 115 128 115 115 128 115 115 128 115 115 128 115 115 128 115 115 128 115 115 128 115 115 128 115 115 128 115 115 128 115 115 128 115 115 128 115 115 128 115 115 128 115 115 128 115 115 128 115 115 128 115 115 128 115 115 128 115 115 128 115 115 128 115 115 128 115 115 128 115 115 128 115 115 128 115 115 128 115 115 128 115 115 128 115 115 128 115 115 128 115 115 128 115 115 128 115 115 128 115 115 
128 115 115 128 115 115 128 115 115 128 115 115 128 115 115 128 115 115 128 115 115 128 115 115 128 115 115 128 115 115 128 115 115 128 115 115 128 115 115 128 115 115 128 115 115 128 115 115 128 115 115 128 115 115 128 115 115 128 115 115 128 115 115 128 115 115 128 115 115 128 115 115 128 115 115 128 115 115 128 115 115 128 115 115 128 115 115 128 115 115 128 115 115 128 115 115 128 115 115 128 115 115 128 115 115 128 115 115 128 115 115 128 115 115 128 115 115 128 115 115 128 115 115 128 115 115 128 115 115 128 115 115 128 115 115 128 115 115 128 115 115 128 115 115 128 115 115 128 115 115 128 115 115 128 115 115 128 115 115 128 115 115 128 115 115 128 115 115 128 115 115 128 115 115 128 115 115 128 115 115 128 115 115 128 115 115 128 115 115 128 115 115 128 115 115 128 115 115 128 115 115 128 115 115 128 115 115 128 115 115 128 115 115 128 115 115 128 115 115 128 115 115 128 115 115 128 115 115 128 115 115 128 115 115 128 115 115 128 115 115 128 115 115 128 115 115 128 115 115 128 115 115 128 115 115 128 115 115 128 115 115 128 115 115 128 115 115 128 115 115 128 115 115 128 115 115 128 115 115 128 115 115 128 115 115 128 115 115 128 115 115 128 115 115 128 115 115 128 115 115 128 115 115 128 115 115 128 115 115 128 115 115 128 115 115 128 115 115 128 115 115 128 115 115 128 115 115 128 115 115 128 115 115 128 115 115 128 115 115 128 115 115 128 115 115 128 115 115 128 115 115 128 115 115 128 115 115 128 115 115 128 115 115 128 115 115 128 115 115 128 115 115 128 115 115 128 115 115 128 115 115 128 115 115 128 115 115 128 115 115 128 115 115 128 115 115 128 115 115 128 115 115 128 115 115 128 115 115 128 115 115 128 115 115 128 115 115 128 115 115 128 115 115 128 115 115 128 115 115 128 115 115 128 115 115 128 115 115 128 115 115 128 115 115 128 115 115 128 115 115 128 115 115 128 115 115 128 115 115 128 115 115 128 115 115 128 115 115 128 115 115 128 115 115 128 115 115 128 115 115 128 115 115 128 115 115 128 115 115 128 115 115 128 115 115 128 115 115 128 115 115 128 115 115 128 115 115 128 115 115 128 115 115 128 115 115 128 115 115 128 115 115 128 115 115 128 115 115 128 115 115 128 115 115 128 115 115 128 115 115 128 115 115 128 115 115 128 115 115 128 115 115 128 115 115 128 115 115 128 115 115 128 115 115 128 115 115 128 115 115 128 115 115 128 115 115 128 115 115 128 115 115 128 115 115 128 115 115 128 115 115 128 115 115 128 115 115 128 115 115 
128 115 115 128 115 115 128 115 115 128 115 115 128 115 115 128 115 115 128 115 115 128 115 115 128 115 115 128 115 115 128 115 115 128 115 115 128 115 115 128 115 115 128 115 115 128 115 115 128 115 115 128 115 115 128 115 115 128 115 115 128 115 115 128 115 115 128 115 115 128 115 115 128 115 115 128 115 115 128 115 115 128 115 115 128 115 115 128 115 115 128 115 115 128 115 115 128 115 115 128 115 115 128 115 115 128 115 115 128 115 115 128 115 115 128 115 115 128 115 115 128 115 115 128 115 115 128 115 115 128 115 115 128 115 115 128 115 115 128 115 115 128 115 115 128 115 115 128 115 115 128 115 115 128 115 115 128 115 115 128 115 115 128 115 115 128 115 115 128 115 115 128 115 115 128 115 115 128 115 115 128 115 115 128 115 115 128 115 115 128 115 115 128 115 115 128 115 115 128 115 115 128 115 115 128 115 115 128 115 115 128 115 115 128 115 115 128 115 115 128 115 115 128 115 115 128 115 115 128 115 115 128 115 115 128 115 115 128 115 115 128 115 115 128 115 115 128 115 115 128 115 115 128 115 115 128 115 115 128 115 115 128 115 115 128 115 115 128 115 115 128 115 115 128 115 115 128 115 115 128 115 115 128 115 115 128 115 115 128 115 115 128 115 115 128 115 115 128 115 115 128 115 115 128 115 115 128 115 115 128 115 115 128 115 115 128 115 115 128 115 115 128 115 115 128 115 115 128 115 115 128 115 115 128 115 115 128 115 115 128 115 115 128 115 115 128 115 115 128 115 115 128 115 115 128 115 115 128 115 115 128 115 115 128 115 115 128 115 115 128 115 115 128 115 115 128 115 115 128 115 115 128 115 115 128 115 115 128 115 115 128 115 115 128 115 115 128 115 115 128 115 115 128 115 115 128 115 115 128 115 115 128 115 115 128 115 115 128 115 115 128 115 115 128 115 115 128 115 115 128 115 115 128 115 115 128 115 115 128 115 115 128 115 115 128 115 115 128 115 115 128 115 115 128 115 115 128 115 115 128 115 115 128 115 115 128 115 115 128 115 115 128 115 115 128 115 115 128 115 115 128 115 115 128 115 115 128 115 115 128 115 115 128 115 115 128 115 115 128 115 115 128 115 115 128 115 115 128 115 115 128 115 115 128 115 115 128 115 115 128 115 115 128 115 115 128 115 115 128 115 115 128 115 115 128 115 115 128 115 115 128 115 115 128 115 115 128 115 115 128 115 115 128 115 115 128 115 115 128 115 115 128 115 115 128 115 115 128 115 115 128 115 115 128 115 115 128 115 115 128 115 115 128 115 115 128 115 115 128 115 115 128 115 115 128 115 115 128 115 115 
128 115 115 128 115 115 128 115 115 128 115 115 128 115 115 128 115 115 128 115 115 128 115 115 128 115 115 128 115 115 128 115 115 128 115 115 128 115 115 128 115 115 128 115 115 128 115 115 128 115 115 128 115 115 128 115 115 128 115 115 128 115 115 128 115 115 128 115 115 128 115 115 128 115 115 128 115 115 128 115 115 128 115 115 128 115 115 128 115 115 128 115 115 128 115 115 128 115 115 128 115 115 128 115 115 128 115 115 128 115 115 128 115 115 128 115 115 128 115 115 128 115 115 128 115 115 128 115 115 128 115 115 128 115 115 128 115 115 128 115 115 128 115 115 128 115 115 128 115 115 128 115 115 128 115 115 128 115 115 128 115 115 128 115 115 128 115 115 128 115 115 128 115 115 128 115 115 128 115 115 128 115 115 128 115 115 128 115 115 128 115 115 128 115 115 128 115 115 128 115 115 128 115 115 128 115 115 128 115 115 128 115 115 128 115 115 128 115 115 128 115 115 128 115 115 128 115 115 128 115 115 128 115 115 128 115 115 128 115 115 128 115 115 128 115 115 128 115 115 128 115 115 128 115 115 128 115 115 128 115 115 128 115 115 128 115 115 128 115 115 128 115 115 128 115 115 128 115 115 128 115 115 128 115 115 128 115 115 128 115 115 128 115 115 128 115 115 128 115 115 128 115 115 128 115 115 128 115 115 128 115 115 128 115 115 128 115 115 128 115 115 128 115 115 128 115 115 128 115 115 128 115 115 128 115 115 128 115 115 128 115 115 128 115 115 128 115 115 128 115 115 128 115 115 128 115 115 128 115 115 128 115 115 128 115 115 128 115 115 128 115 115 128 115 115 128 115 115 128 115 115 128 115 115 128 115 115 128 115 115 128 115 115 128 115 115 128 115 115 128 115 115 128 115 115 128 115 115 128 115 115 128 115 115 128 115 115 128 115 115 128 115 115 128 115 115 128 115 115 128 115 115 128 115 115 128 115 115 128 115 115 128 115 115 128 115 115 128 115 115 128 115 115 128 115 115 128 115 115 128 115 115 128 115 115 128 115 115 128 115 115 128 115 115 128 115 115 128 115 115 128 115 115 128 115 115 128 115 115 128 115 115 128 115 115 128 115 115 128 115 115 128 115 115 128 115 115 128 115 115 128 115 115 128 115 115 128 115 115 128 115 115 128 115 115 128 115 115 128 115 115 128 115 115 128 115 115 128 115 115 128 115 115 128 115 115 128 115 115 128 115 115 128 115 115 128 115 115 128 115 115 128 115 115 128 115 115 128 115 115 128 115 115 128 115 115 128 115 115 128 115 115 128 115 115 128 115 115 128 115 115 128 115 115 128 115 115 128 115 115 
128 115 115 128 115 115 128 115 115 128 115 115 128 115 115 128 115 115 128 115 115 128 115 115 128 115 115 128 115 115 128 115 115 128 115 115 128 115 115 128 115 115 128 115 115 128 115 115 128 115 115 128 115 115 128 115 115 128 115 115 128 115 115 128 115 115 128 115 115 128 115 115 128 115 115 128 115 115 128 115 115 128 115 115 128 115 115 128 115 115 128 115 115 128 115 115 128 115 115 128 115 115 128 115 115 128 115 115 128 115 115 128 115 115 128 115 115 128 115 115 128 115 115 128 115 115 128 115 115 128 115 115 128 115 115 128 115 115 128 115 115 128 115 115 128 115 115 128 115 115 128 115 115 128 115 115 128 115 115 128 115 115 128 115 115 128 115 115 128 115 115 128 115 115 128 115 115 128 115 115 128 115 115 128 115 115 128 115 115 128 115 115 128 115 115 128 115 115 128 115 115 128 115 115 128 115 115 128 115 115 128 115 115 128 115 115 128 115 115 128 115 115 128 115 115 128 115 115 128 115 115 128 115 115 128 115 115 128 115 115 128 115 115 128 115 115 128 115 115 128 115 115 128 115 115 128 115 115 128 115 115 128 115 115 128 115 115 128 115 115 128 115 115 128 115 115 128 115 115 128 115 115 128 115 115 128 115 115 128 115 115 128 115 115 128 115 115 128 115 115 128 115 115 128 115 115 128 115 115 128 115 115 128 115 115 128 115 115 128 115 115 128 115 115 128 115 115 128 115 115 128 115 115 128 115 115 128 115 115 128 115 115 128 115 115 128 115 115 128 115 115 128 115 115 128 115 115 128 115 115 128 115 115 128 115 115 128 115 115 128 115 115 128 115 115 128 115 115 128 115 115 128 115 115 128 115 115 128 115 115 128 115 115 128 115 115 128 115 115 128 115 115 128 115 115 128 115 115 128 115 115 128 115 115 128 115 115 128 115 115 128 115 115 128 115 115 128 115 115 128 115 115 128 115 115 128 115 115 128 115 115 128 115 115 128 115 115 128 115 115 128 115 115 128 115 115 128 115 115 128 115 115 128 115 115 128 115 115 128 115 115 128 115 115 128 115 115 128 115 115 128 115 115 128 115 115 128 115 115 128 115 115 128 115 115 128 115 115 128 115 115 128 115 115 128 115 115 128 115 115 128 115 115 128 115 115 128 115 115 128 115 115 128 115 115 128 115 115 128 115 115 128 115 115 128 115 115 128 115 115 128 115 115 128 115 115 128 115 115 128 115 115 128 115 115 128 115 115 128 115 115 128 115 115 128 115 115 128 115 115 128 115 115 128 115 115 128 115 115 128 115 115 128 115 115 128 115 115 128 115 115 128 115 115 128 115 115 128 115 115 
128 115 115 128 115 115 128 115 115 128 115 115 128 115 115 128 115 115 128 115 115 128 115 115 128 115 115 128 115 115 128 115 115 128 115 115 128 115 115 128 115 115 128 115 115 128 115 115 128 115 115 128 115 115 128 115 115 128 115 115 128 115 115 128 115 115 128 115 115 128 115 115 128 115 115 128 115 115 128 115 115 128 115 115 128 115 115 128 115 115 128 115 115 128 115 115 128 115 115 128 115 115 128 115 115 128 115 115 128 115 115 128 115 115 128 115 115 128 115 115 128 115 115 128 115 115 128 115 115 128 115 115 128 115 115 128 115 115 128 115 115 128 115 115 128 115 115 128 115 115 128 115 115 128 115 115 128 115 115 128 115 115 128 115 115 128 115 115 128 115 115 128 115 115 128 115 115 128 115 115 128 115 115 128 115 115 128 115 115 128 115 115 128 115 115 128 115 115 128 115 115 128 115 115 128 115 115 128 115 115 128 115 115 128 115 115 128 115 115 128 115 115 128 115 115 128 115 115 128 115 115 128 115 115 128 115 115 128 115 115 128 115 115 128 115 115 128 115 115 128 115 115 128 115 115 128 115 115 128 115 115 128 115 115 128 115 115 128 115 115 128 115 115 128 115 115 128 115 115 128 115 115 128 115 115 128 115 115 128 115 115 128 115 115 128 115 115 128 115 115 128 115 115 128 115 115 128 115 115 128 115 115 128 115 115 128 115 115 128 115 115 128 115 115 128 115 115 128 115 115 128 115 115 128 115 115 128 115 115 128 115 115 128 115 115 128 115 115 128 115 115 128 115 115 128 115 115 128 115 115 128 115 115 128 115 115 128 115 115 128 115 115 128 115 115 128 115 115 128 115 115 128 115 115 128 115 115 128 115 115 128 115 115 128 115 115 128 115 115 128 115 115 128 115 115 128 115 115 128 115 115 128 115 115 128 115 115 128 115 115 128 115 115 128 115 115 128 115 115 128 115 115 128 115 115 128 115 115 128 115 115 128 115 115 128 115 115 128 115 115 128 115 115 128 115 115 128 115 115 128 115 115 128 115 115 128 115 115 128 115 115 128 115 115 128 115 115 128 115 115 128 115 115 128 115 115 128 115 115 128 115 115 128 115 115 128 115 115 128 115 115 128 115 115 128 115 115 128 115 115 128 115 115 128 115 115 128 115 115 128 115 115 128 115 115 128 115 115 128 115 115 128 115 115 128 115 115 128 115 115 128 115 115 128 115 115 128 115 115 128 115 115 128 115 115 128 115 115 128 115 115 128 115 115 128 115 115 128 115 115 128 115 115 128 115 115 128 115 115 128 115 115 128 115 115 128 115 115 128 115 115 128 115 115 128 115 115 128 115 115 
128 115 115 128 115 115 128 115 115 128 115 115 128 115 115 128 115 115 128 115 115 128 115 115 128 115 115 128 115 115 128 115 115 128 115 115 128 115 115 128 115 115 128 115 115 128 115 115 128 115 115 128 115 115 128 115 115 128 115 115 128 115 115 128 115 115 128 115 115 128 115 115 128 115 115 128 115 115 128 115 115 128 115 115 128 115 115 128 115 115 128 115 115 128 115 115 128 115 115 128 115 115 128 115 115 128 115 115 128 115 115 128 115 115 128 115 115 128 115 115 128 115 115 128 115 115 128 115 115 128 115 115 128 115 115 128 115 115 128 115 115 128 115 115 128 115 115 128 115 115 128 115 115 128 115 115 128 115 115 128 115 115 128 115 115 128 115 115 128 115 115 128 115 115 128 115 115 128 115 115 128 115 115 128 115 115 128 115 115 128 115 115 128 115 115 128 115 115 128 115 115 128 115 115 128 115 115 128 115 115 128 115 115 128 115 115 128 115 115 128 115 115 128 115 115 128 115 115 128 115 115 128 115 115 128 115 115 128 115 115 128 115 115 128 115 115 128 115 115 128 115 115 128 115 115 128 115 115 128 115 115 128 115 115 128 115 115 128 115 115 128 115 115 128 115 115 128 115 115 128 115 115 128 115 115 128 115 115 128 115 115 128 115 115 128 115 115 128 115 115 128 115 115 128 115 115 128 115 115 128 115 115 128 115 115 128 115 115 128 115 115 128 115 115 128 115 115 128 115 115 128 115 115 128 115 115 128 115 115 128 115 115 128 115 115 128 115 115 128 115 115 128 115 115 128 115 115 128 115 115 128 115 115 128 115 115 128 115 115 128 115 115 128 115 115 128 115 115 128 115 115 128 115 115 128 115 115 128 115 115 128 115 115 128 115 115 128 115 115 128 115 115 128 115 115 128 115 115 128 115 115 128 115 115 128 115 115 128 115 115 128 115 115 128 115 115 128 115 115 128 115 115 128 115 115 128 115 115 128 115 115 128 115 115 128 115 115 128 115 115 128 115 115 128 115 115 128 115 115 128 115 115 128 115 115 128 115 115 128 115 115 128 115 115 128 115 115 128 115 115 128 115 115 128 115 115 128 115 115 128 115 115 128 115 115 128 115 115 128 115 115 128 115 115 128 115 115 128 115 115 128 115 115 128 115 115 128 115 115 128 115 115 128 115 115 128 115 115 128 115 115 128 115 115 128 115 115 128 115 115 128 115 115 128 115 115 128 115 115 128 115 115 128 115 115 128 115 115 128 115 115 128 115 115 128 115 115 128 115 115 128 115 115 128 115 115 128 115 115 128 115 115 128 115 115 128 115 115 128 115 115 128 115 115 128 115 115 128 115 115 
128 115 115 128 115 115 128 115 115 128 115 115 128 115 115 128 115 115 128 115 115 128 115 115 128 115 115 128 115 115 128 115 115 128 115 115 128 115 115 128 115 115 128 115 115 128 115 115 128 115 115 128 115 115 128 115 115 128 115 115 128 115 115 128 115 115 128 115 115 128 115 115 128 115 115 128 115 115 128 115 115 128 115 115 128 115 115 128 115 115 128 115 115 128 115 115 128 115 115 128 115 115 128 115 115 128 115 115 128 115 115 128 115 115 128 115 115 128 115 115 128 115 115 128 115 115 128 115 115 128 115 115 128 115 115 128 115 115 128 115 115 128 115 115 128 115 115 128 115 115 128 115 115 128 115 115 128 115 115 128 115 115 128 115 115 128 115 115 128 115 115 128 115 115 128 115 115 128 115 115 128 115 115 128 115 115 128 115 115 128 115 115 128 115 115 128 115 115 128 115 115 128 115 115 128 115 115 128 115 115 128 115 115 128 115 115 128 115 115 128 115 115 128 115 115 128 115 115 128 115 115 128 115 115 128 115 115 128 115 115 128 115 115 128 115 115 128 115 115 128 115 115 128 115 115 128 115 115 128 115 115 128 115 115 128 115 115 128 115 115 128 115 115 128 115 115 128 115 115 128 115 115 128 115 115 128 115 115 128 115 115 128 115 115 128 115 115 128 115 115 128 115 115 128 115 115 128 115 115 128 115 115 128 115 115 128 115 115 128 115 115 128 115 115 128 115 115 128 115 115 128 115 115 128 115 115 128 115 115 128 115 115 128 115 115 128 115 115 128 115 115 128 115 115 128 115 115 128 115 115 128 115 115 128 115 115 128 115 115 128 115 115 128 115 115 128 115 115 128 115 115 128 115 115 128 115 115 128 115 115 128 115 115 128 115 115 128 115 115 128 115 115 128 115 115 128 115 115 128 115 115 128 115 115 128 115 115 128 115 115 128 115 115 128 115 115 128 115 115 128 115 115 128 115 115 128 115 115 128 115 115 128 115 115 128 115 115 128 115 115 128 115 115 128 115 115 128 115 115 128 115 115 128 115 115 128 115 115 128 115 115 128 115 115 128 115 115 128 115 115 128 115 115 128 115 115 128 115 115 128 115 115 128 115 115 128 115 115 128 115 115 128 115 115 128 115 115 128 115 115 128 115 115 128 115 115 128 115 115 128 115 115 128 115 115 128 115 115 128 115 115 128 115 115 128 115 115 128 115 115 128 115 115 128 115 115 128 115 115 128 115 115 128 115 115 128 115 115 128 115 115 128 115 115 128 115 115 128 115 115 128 115 115 128 115 115 128 115 115 128 115 115 128 115 115 128 115 115 128 115 115 128 115 115 128 115 115 128 115 115 
